(G-CODE GENERATED BY FLATCAM v8.994 - www.flatcam.org - Version Date: 2020/11/7)

(Name: copper_bottom.gbr_iso_combined_cnc)
(Type: G-code from Geometry)
(Units: MM)

(Created on Sunday, 30 January 2022 at 03:19)

(This preprocessor is the default preprocessor used by FlatCAM.)
(It is made to work with MACH3 compatible motion controllers.)

(TOOL DIAMETER: 0.1 mm)
(Feedrate_XY: 120.0 mm/min)
(Feedrate_Z: 60.0 mm/min)
(Feedrate rapids 1500.0 mm/min)

(Z_Cut: -0.0 mm)
(Z_Move: 2.0 mm)
(Z Start: None mm)
(Z End: 15.0 mm)
(X,Y End: None mm)
(Steps per circle: 64)
(Preprocessor Geometry: default)

(X range:  -56.9939 ...   -0.1561  mm)
(Y range:   -8.8616 ...   76.0439  mm)

(Spindle Speed: 0.0 RPM)
G21
G90
G94

G01 F120.00

M5
G00 Z15.0000
G00 X0.0000 Y0.0000
T1
M6    
(MSG, Change to Tool Dia = 0.1000)
M0
G00 Z15.0000

M03
G01 F120.00
G00 X-3.5293 Y0.6815
G01 F60.00
G01 Z-0.0000
G01 F120.00
G01 X-3.5468 Y0.6756
G01 X-3.5623 Y0.6689
G01 X-3.5774 Y0.6611
G01 X-3.5918 Y0.6522
G01 X-3.6055 Y0.6423
G01 X-3.6185 Y0.6314
G01 X-3.6266 Y0.6236
G01 X-3.6344 Y0.6155
G01 X-3.6453 Y0.6025
G01 X-3.6552 Y0.5888
G01 X-3.6641 Y0.5744
G01 X-3.6719 Y0.5593
G01 X-3.6786 Y0.5438
G01 X-3.6841 Y0.5278
G01 X-3.6884 Y0.5114
G01 X-3.6906 Y0.5003
G01 X-3.6923 Y0.4892
G01 X-3.6937 Y0.4723
G01 X-3.6940 Y0.4610
G01 X-3.6940 Y-2.2390
G01 X-3.6934 Y-2.2559
G01 X-3.6915 Y-2.2727
G01 X-3.6884 Y-2.2894
G01 X-3.6857 Y-2.3003
G01 X-3.6824 Y-2.3111
G01 X-3.6765 Y-2.3270
G01 X-3.6719 Y-2.3373
G01 X-3.6641 Y-2.3524
G01 X-3.6552 Y-2.3668
G01 X-3.6487 Y-2.3760
G01 X-3.6418 Y-2.3849
G01 X-3.6306 Y-2.3976
G01 X-3.6226 Y-2.4056
G01 X-3.6099 Y-2.4168
G01 X-3.5964 Y-2.4270
G01 X-3.5822 Y-2.4363
G01 X-3.5724 Y-2.4418
G01 X-3.5572 Y-2.4493
G01 X-3.5415 Y-2.4556
G01 X-3.5308 Y-2.4591
G01 X-3.5199 Y-2.4621
G01 X-3.5033 Y-2.4656
G01 X-3.4865 Y-2.4679
G01 X-3.4753 Y-2.4687
G01 X-3.4640 Y-2.4690
G01 X-1.8584 Y-2.4689
G01 X-1.8415 Y-2.4679
G01 X-1.8303 Y-2.4665
G01 X-1.8191 Y-2.4646
G01 X-1.8027 Y-2.4607
G01 X-1.7919 Y-2.4574
G01 X-1.7760 Y-2.4515
G01 X-1.7657 Y-2.4469
G01 X-1.7506 Y-2.4391
G01 X-1.7410 Y-2.4333
G01 X-1.7270 Y-2.4237
G01 X-1.7138 Y-2.4132
G01 X-1.7054 Y-2.4056
G01 X-1.6936 Y-2.3935
G01 X-1.6862 Y-2.3849
G01 X-1.6760 Y-2.3714
G01 X-1.6697 Y-2.3620
G01 X-1.6612 Y-2.3474
G01 X-1.6561 Y-2.3373
G01 X-1.6515 Y-2.3270
G01 X-1.6456 Y-2.3111
G01 X-1.6423 Y-2.3003
G01 X-1.6384 Y-2.2839
G01 X-1.6357 Y-2.2672
G01 X-1.6343 Y-2.2503
G01 X-1.6340 Y-2.2390
G01 X-1.6340 Y0.4610
G01 X-1.6346 Y0.4779
G01 X-1.6357 Y0.4892
G01 X-1.6374 Y0.5003
G01 X-1.6409 Y0.5169
G01 X-1.6456 Y0.5331
G01 X-1.6494 Y0.5438
G01 X-1.6537 Y0.5542
G01 X-1.6612 Y0.5694
G01 X-1.6697 Y0.5840
G01 X-1.6793 Y0.5980
G01 X-1.6862 Y0.6069
G01 X-1.6936 Y0.6155
G01 X-1.7054 Y0.6276
G01 X-1.7181 Y0.6388
G01 X-1.7316 Y0.6490
G01 X-1.7410 Y0.6553
G01 X-1.7506 Y0.6611
G01 X-1.7657 Y0.6689
G01 X-1.7812 Y0.6756
G01 X-1.7987 Y0.6815
G01 X-1.7987 Y4.1445
G01 X-1.7812 Y4.1504
G01 X-1.7657 Y4.1571
G01 X-1.7506 Y4.1649
G01 X-1.7362 Y4.1738
G01 X-1.7225 Y4.1837
G01 X-1.7095 Y4.1946
G01 X-1.6974 Y4.2064
G01 X-1.6898 Y4.2148
G01 X-1.6827 Y4.2235
G01 X-1.6728 Y4.2372
G01 X-1.6667 Y4.2468
G01 X-1.6612 Y4.2566
G01 X-1.6537 Y4.2718
G01 X-1.6474 Y4.2875
G01 X-1.6423 Y4.3037
G01 X-1.6384 Y4.3201
G01 X-1.6357 Y4.3368
G01 X-1.6343 Y4.3537
G01 X-1.6340 Y4.3650
G01 X-1.6340 Y7.0650
G01 X-1.6343 Y7.0763
G01 X-1.6351 Y7.0875
G01 X-1.6374 Y7.1043
G01 X-1.6396 Y7.1154
G01 X-1.6423 Y7.1263
G01 X-1.6474 Y7.1425
G01 X-1.6537 Y7.1582
G01 X-1.6612 Y7.1734
G01 X-1.6667 Y7.1832
G01 X-1.6728 Y7.1928
G01 X-1.6827 Y7.2065
G01 X-1.6936 Y7.2195
G01 X-1.7014 Y7.2276
G01 X-1.7095 Y7.2354
G01 X-1.7225 Y7.2463
G01 X-1.7316 Y7.2530
G01 X-1.7410 Y7.2593
G01 X-1.7556 Y7.2678
G01 X-1.7657 Y7.2729
G01 X-1.7760 Y7.2775
G01 X-1.7919 Y7.2834
G01 X-1.8081 Y7.2881
G01 X-1.8191 Y7.2906
G01 X-1.8358 Y7.2933
G01 X-1.8527 Y7.2947
G01 X-1.8640 Y7.2950
G01 X-3.4640 Y7.2950
G01 X-3.4753 Y7.2947
G01 X-3.4865 Y7.2939
G01 X-3.5033 Y7.2916
G01 X-3.5199 Y7.2881
G01 X-3.5308 Y7.2851
G01 X-3.5415 Y7.2816
G01 X-3.5572 Y7.2753
G01 X-3.5724 Y7.2678
G01 X-3.5870 Y7.2593
G01 X-3.6010 Y7.2497
G01 X-3.6142 Y7.2392
G01 X-3.6266 Y7.2276
G01 X-3.6382 Y7.2152
G01 X-3.6487 Y7.2020
G01 X-3.6583 Y7.1880
G01 X-3.6668 Y7.1734
G01 X-3.6743 Y7.1582
G01 X-3.6786 Y7.1478
G01 X-3.6824 Y7.1371
G01 X-3.6871 Y7.1209
G01 X-3.6896 Y7.1099
G01 X-3.6923 Y7.0932
G01 X-3.6934 Y7.0819
G01 X-3.6940 Y7.0650
G01 X-3.6940 Y4.3650
G01 X-3.6937 Y4.3537
G01 X-3.6923 Y4.3368
G01 X-3.6896 Y4.3201
G01 X-3.6857 Y4.3037
G01 X-3.6806 Y4.2875
G01 X-3.6765 Y4.2770
G01 X-3.6719 Y4.2667
G01 X-3.6641 Y4.2516
G01 X-3.6552 Y4.2372
G01 X-3.6453 Y4.2235
G01 X-3.6344 Y4.2105
G01 X-3.6266 Y4.2024
G01 X-3.6185 Y4.1946
G01 X-3.6055 Y4.1837
G01 X-3.5918 Y4.1738
G01 X-3.5774 Y4.1649
G01 X-3.5623 Y4.1571
G01 X-3.5468 Y4.1504
G01 X-3.5293 Y4.1445
G01 X-3.5293 Y0.6815
G00 Z2.0000
G00 X-3.6193 Y0.7408
G01 F60.00
G01 Z-0.0000
G01 F120.00
G01 X-3.6352 Y0.7314
G01 X-3.6546 Y0.7180
G01 X-3.6730 Y0.7033
G01 X-3.6847 Y0.6928
G01 X-3.7011 Y0.6759
G01 X-3.7114 Y0.6640
G01 X-3.7256 Y0.6453
G01 X-3.7344 Y0.6322
G01 X-3.7462 Y0.6118
G01 X-3.7533 Y0.5978
G01 X-3.7596 Y0.5835
G01 X-3.7678 Y0.5614
G01 X-3.7744 Y0.5388
G01 X-3.7793 Y0.5157
G01 X-3.7816 Y0.5002
G01 X-3.7836 Y0.4767
G01 X-3.7840 Y0.4610
G01 X-3.7839 Y-2.2469
G01 X-3.7825 Y-2.2704
G01 X-3.7793 Y-2.2937
G01 X-3.7744 Y-2.3168
G01 X-3.7702 Y-2.3319
G01 X-3.7626 Y-2.3542
G01 X-3.7565 Y-2.3687
G01 X-3.7498 Y-2.3829
G01 X-3.7385 Y-2.4035
G01 X-3.7301 Y-2.4168
G01 X-3.7163 Y-2.4359
G01 X-3.7063 Y-2.4480
G01 X-3.6903 Y-2.4653
G01 X-3.6789 Y-2.4761
G01 X-3.6609 Y-2.4913
G01 X-3.6418 Y-2.5051
G01 X-3.6285 Y-2.5135
G01 X-3.6079 Y-2.5248
G01 X-3.5937 Y-2.5315
G01 X-3.5718 Y-2.5403
G01 X-3.5569 Y-2.5452
G01 X-3.5341 Y-2.5512
G01 X-3.5187 Y-2.5543
G01 X-3.5032 Y-2.5566
G01 X-3.4797 Y-2.5586
G01 X-3.4640 Y-2.5590
G01 X-1.8561 Y-2.5589
G01 X-1.8405 Y-2.5581
G01 X-1.8170 Y-2.5555
G01 X-1.7939 Y-2.5512
G01 X-1.7787 Y-2.5474
G01 X-1.7562 Y-2.5403
G01 X-1.7343 Y-2.5315
G01 X-1.7132 Y-2.5212
G01 X-1.6995 Y-2.5135
G01 X-1.6797 Y-2.5006
G01 X-1.6671 Y-2.4913
G01 X-1.6491 Y-2.4761
G01 X-1.6377 Y-2.4653
G01 X-1.6269 Y-2.4539
G01 X-1.6117 Y-2.4359
G01 X-1.5979 Y-2.4168
G01 X-1.5895 Y-2.4035
G01 X-1.5782 Y-2.3829
G01 X-1.5715 Y-2.3687
G01 X-1.5654 Y-2.3542
G01 X-1.5578 Y-2.3319
G01 X-1.5536 Y-2.3168
G01 X-1.5487 Y-2.2937
G01 X-1.5455 Y-2.2704
G01 X-1.5441 Y-2.2469
G01 X-1.5440 Y0.4610
G01 X-1.5444 Y0.4767
G01 X-1.5464 Y0.5002
G01 X-1.5487 Y0.5157
G01 X-1.5536 Y0.5388
G01 X-1.5602 Y0.5614
G01 X-1.5654 Y0.5762
G01 X-1.5747 Y0.5978
G01 X-1.5818 Y0.6118
G01 X-1.5936 Y0.6322
G01 X-1.6070 Y0.6516
G01 X-1.6166 Y0.6640
G01 X-1.6269 Y0.6759
G01 X-1.6433 Y0.6928
G01 X-1.6550 Y0.7033
G01 X-1.6734 Y0.7180
G01 X-1.6928 Y0.7314
G01 X-1.7087 Y0.7408
G01 X-1.7087 Y4.0852
G01 X-1.6928 Y4.0946
G01 X-1.6734 Y4.1080
G01 X-1.6610 Y4.1176
G01 X-1.6433 Y4.1332
G01 X-1.6322 Y4.1443
G01 X-1.6166 Y4.1620
G01 X-1.6024 Y4.1807
G01 X-1.5936 Y4.1938
G01 X-1.5818 Y4.2142
G01 X-1.5747 Y4.2282
G01 X-1.5654 Y4.2498
G01 X-1.5602 Y4.2646
G01 X-1.5536 Y4.2872
G01 X-1.5501 Y4.3026
G01 X-1.5464 Y4.3258
G01 X-1.5444 Y4.3493
G01 X-1.5440 Y4.3650
G01 X-1.5440 Y7.0650
G01 X-1.5449 Y7.0885
G01 X-1.5464 Y7.1042
G01 X-1.5487 Y7.1197
G01 X-1.5536 Y7.1428
G01 X-1.5602 Y7.1654
G01 X-1.5684 Y7.1875
G01 X-1.5747 Y7.2018
G01 X-1.5818 Y7.2158
G01 X-1.5895 Y7.2295
G01 X-1.5979 Y7.2428
G01 X-1.6117 Y7.2619
G01 X-1.6269 Y7.2799
G01 X-1.6377 Y7.2913
G01 X-1.6491 Y7.3021
G01 X-1.6671 Y7.3173
G01 X-1.6862 Y7.3311
G01 X-1.6995 Y7.3395
G01 X-1.7132 Y7.3472
G01 X-1.7343 Y7.3575
G01 X-1.7562 Y7.3663
G01 X-1.7787 Y7.3734
G01 X-1.7939 Y7.3772
G01 X-1.8170 Y7.3815
G01 X-1.8405 Y7.3841
G01 X-1.8640 Y7.3850
G01 X-3.4640 Y7.3850
G01 X-3.4797 Y7.3846
G01 X-3.5032 Y7.3826
G01 X-3.5264 Y7.3789
G01 X-3.5493 Y7.3734
G01 X-3.5718 Y7.3663
G01 X-3.5937 Y7.3575
G01 X-3.6148 Y7.3472
G01 X-3.6352 Y7.3354
G01 X-3.6546 Y7.3220
G01 X-3.6730 Y7.3073
G01 X-3.6903 Y7.2913
G01 X-3.7063 Y7.2740
G01 X-3.7210 Y7.2556
G01 X-3.7344 Y7.2362
G01 X-3.7462 Y7.2158
G01 X-3.7565 Y7.1947
G01 X-3.7653 Y7.1728
G01 X-3.7724 Y7.1503
G01 X-3.7779 Y7.1274
G01 X-3.7816 Y7.1042
G01 X-3.7831 Y7.0885
G01 X-3.7840 Y7.0650
G01 X-3.7840 Y4.3650
G01 X-3.7836 Y4.3493
G01 X-3.7816 Y4.3258
G01 X-3.7779 Y4.3026
G01 X-3.7724 Y4.2797
G01 X-3.7678 Y4.2646
G01 X-3.7626 Y4.2498
G01 X-3.7533 Y4.2282
G01 X-3.7424 Y4.2073
G01 X-3.7344 Y4.1938
G01 X-3.7256 Y4.1807
G01 X-3.7114 Y4.1620
G01 X-3.7011 Y4.1501
G01 X-3.6847 Y4.1332
G01 X-3.6670 Y4.1176
G01 X-3.6546 Y4.1080
G01 X-3.6352 Y4.0946
G01 X-3.6193 Y4.0852
G01 X-3.6193 Y0.7408
G00 Z2.0000
G00 X-3.7093 Y0.7895
G01 F60.00
G01 Z-0.0000
G01 F120.00
G01 X-3.7318 Y0.7715
G01 X-3.7467 Y0.7579
G01 X-3.7609 Y0.7437
G01 X-3.7809 Y0.7211
G01 X-3.7933 Y0.7052
G01 X-3.8104 Y0.6803
G01 X-3.8207 Y0.6631
G01 X-3.8302 Y0.6453
G01 X-3.8388 Y0.6271
G01 X-3.8465 Y0.6086
G01 X-3.8563 Y0.5800
G01 X-3.8617 Y0.5606
G01 X-3.8680 Y0.5311
G01 X-3.8709 Y0.5112
G01 X-3.8729 Y0.4912
G01 X-3.8739 Y0.4711
G01 X-3.8739 Y-2.2491
G01 X-3.8720 Y-2.2792
G01 X-3.8696 Y-2.2992
G01 X-3.8640 Y-2.3288
G01 X-3.8591 Y-2.3484
G01 X-3.8500 Y-2.3771
G01 X-3.8388 Y-2.4051
G01 X-3.8256 Y-2.4323
G01 X-3.8157 Y-2.4498
G01 X-3.7992 Y-2.4751
G01 X-3.7872 Y-2.4912
G01 X-3.7678 Y-2.5143
G01 X-3.7539 Y-2.5289
G01 X-3.7393 Y-2.5428
G01 X-3.7241 Y-2.5559
G01 X-3.7082 Y-2.5683
G01 X-3.6833 Y-2.5854
G01 X-3.6573 Y-2.6006
G01 X-3.6393 Y-2.6096
G01 X-3.6116 Y-2.6215
G01 X-3.5926 Y-2.6283
G01 X-3.5734 Y-2.6341
G01 X-3.5440 Y-2.6411
G01 X-3.5142 Y-2.6459
G01 X-3.4942 Y-2.6479
G01 X-3.4640 Y-2.6490
G01 X-1.8539 Y-2.6489
G01 X-1.8338 Y-2.6479
G01 X-1.8038 Y-2.6446
G01 X-1.7742 Y-2.6390
G01 X-1.7546 Y-2.6341
G01 X-1.7259 Y-2.6250
G01 X-1.6979 Y-2.6138
G01 X-1.6797 Y-2.6052
G01 X-1.6532 Y-2.5907
G01 X-1.6279 Y-2.5742
G01 X-1.6039 Y-2.5559
G01 X-1.5887 Y-2.5428
G01 X-1.5671 Y-2.5217
G01 X-1.5471 Y-2.4991
G01 X-1.5347 Y-2.4832
G01 X-1.5231 Y-2.4668
G01 X-1.5073 Y-2.4411
G01 X-1.4978 Y-2.4233
G01 X-1.4852 Y-2.3959
G01 X-1.4780 Y-2.3771
G01 X-1.4689 Y-2.3484
G01 X-1.4619 Y-2.3190
G01 X-1.4584 Y-2.2992
G01 X-1.4560 Y-2.2792
G01 X-1.4541 Y-2.2491
G01 X-1.4540 Y0.4610
G01 X-1.4545 Y0.4811
G01 X-1.4560 Y0.5012
G01 X-1.4584 Y0.5212
G01 X-1.4619 Y0.5410
G01 X-1.4689 Y0.5704
G01 X-1.4747 Y0.5896
G01 X-1.4852 Y0.6179
G01 X-1.4934 Y0.6363
G01 X-1.5024 Y0.6543
G01 X-1.5123 Y0.6718
G01 X-1.5231 Y0.6888
G01 X-1.5347 Y0.7052
G01 X-1.5535 Y0.7288
G01 X-1.5671 Y0.7437
G01 X-1.5813 Y0.7579
G01 X-1.5962 Y0.7715
G01 X-1.6187 Y0.7895
G01 X-1.6187 Y4.0365
G01 X-1.5962 Y4.0545
G01 X-1.5813 Y4.0681
G01 X-1.5671 Y4.0823
G01 X-1.5535 Y4.0972
G01 X-1.5408 Y4.1128
G01 X-1.5288 Y4.1289
G01 X-1.5176 Y4.1457
G01 X-1.5024 Y4.1717
G01 X-1.4934 Y4.1897
G01 X-1.4852 Y4.2081
G01 X-1.4780 Y4.2269
G01 X-1.4689 Y4.2556
G01 X-1.4619 Y4.2850
G01 X-1.4584 Y4.3048
G01 X-1.4560 Y4.3248
G01 X-1.4545 Y4.3449
G01 X-1.4540 Y4.3650
G01 X-1.4540 Y7.0650
G01 X-1.4545 Y7.0851
G01 X-1.4560 Y7.1052
G01 X-1.4600 Y7.1351
G01 X-1.4663 Y7.1646
G01 X-1.4747 Y7.1936
G01 X-1.4852 Y7.2219
G01 X-1.4978 Y7.2493
G01 X-1.5073 Y7.2671
G01 X-1.5176 Y7.2843
G01 X-1.5347 Y7.3092
G01 X-1.5535 Y7.3328
G01 X-1.5741 Y7.3549
G01 X-1.5962 Y7.3755
G01 X-1.6118 Y7.3882
G01 X-1.6279 Y7.4002
G01 X-1.6532 Y7.4167
G01 X-1.6797 Y7.4312
G01 X-1.7071 Y7.4438
G01 X-1.7259 Y7.4510
G01 X-1.7450 Y7.4573
G01 X-1.7742 Y7.4650
G01 X-1.8038 Y7.4706
G01 X-1.8338 Y7.4739
G01 X-1.8640 Y7.4750
G01 X-3.4640 Y7.4750
G01 X-3.4841 Y7.4745
G01 X-3.5142 Y7.4719
G01 X-3.5440 Y7.4671
G01 X-3.5734 Y7.4601
G01 X-3.6021 Y7.4510
G01 X-3.6209 Y7.4438
G01 X-3.6483 Y7.4312
G01 X-3.6748 Y7.4167
G01 X-3.7001 Y7.4002
G01 X-3.7241 Y7.3819
G01 X-3.7467 Y7.3619
G01 X-3.7678 Y7.3403
G01 X-3.7872 Y7.3172
G01 X-3.8049 Y7.2928
G01 X-3.8207 Y7.2671
G01 X-3.8346 Y7.2403
G01 X-3.8465 Y7.2126
G01 X-3.8563 Y7.1840
G01 X-3.8640 Y7.1548
G01 X-3.8696 Y7.1252
G01 X-3.8729 Y7.0952
G01 X-3.8740 Y7.0650
G01 X-3.8739 Y4.3549
G01 X-3.8729 Y4.3348
G01 X-3.8696 Y4.3048
G01 X-3.8661 Y4.2850
G01 X-3.8617 Y4.2654
G01 X-3.8533 Y4.2364
G01 X-3.8465 Y4.2174
G01 X-3.8388 Y4.1989
G01 X-3.8302 Y4.1807
G01 X-3.8207 Y4.1629
G01 X-3.8104 Y4.1457
G01 X-3.7933 Y4.1208
G01 X-3.7809 Y4.1049
G01 X-3.7678 Y4.0897
G01 X-3.7467 Y4.0681
G01 X-3.7318 Y4.0545
G01 X-3.7093 Y4.0365
G01 X-3.7093 Y0.7895
G00 Z2.0000
G00 X-3.7993 Y0.8319
G01 F60.00
G01 Z-0.0000
G01 F120.00
G01 X-3.8176 Y0.8146
G01 X-3.8345 Y0.7968
G01 X-3.8505 Y0.7782
G01 X-3.8656 Y0.7588
G01 X-3.8797 Y0.7388
G01 X-3.8929 Y0.7181
G01 X-3.9050 Y0.6967
G01 X-3.9160 Y0.6748
G01 X-3.9259 Y0.6523
G01 X-3.9348 Y0.6294
G01 X-3.9388 Y0.6178
G01 X-3.9459 Y0.5944
G01 X-3.9519 Y0.5706
G01 X-3.9566 Y0.5465
G01 X-3.9602 Y0.5222
G01 X-3.9626 Y0.4978
G01 X-3.9638 Y0.4733
G01 X-3.9638 Y-2.2513
G01 X-3.9626 Y-2.2758
G01 X-3.9602 Y-2.3002
G01 X-3.9586 Y-2.3124
G01 X-3.9544 Y-2.3365
G01 X-3.9519 Y-2.3486
G01 X-3.9490 Y-2.3605
G01 X-3.9425 Y-2.3841
G01 X-3.9348 Y-2.4074
G01 X-3.9259 Y-2.4303
G01 X-3.9211 Y-2.4416
G01 X-3.9106 Y-2.4638
G01 X-3.9050 Y-2.4747
G01 X-3.8990 Y-2.4854
G01 X-3.8864 Y-2.5065
G01 X-3.8728 Y-2.5269
G01 X-3.8582 Y-2.5466
G01 X-3.8505 Y-2.5562
G01 X-3.8426 Y-2.5656
G01 X-3.8261 Y-2.5838
G01 X-3.8088 Y-2.6011
G01 X-3.7906 Y-2.6176
G01 X-3.7716 Y-2.6332
G01 X-3.7519 Y-2.6478
G01 X-3.7315 Y-2.6614
G01 X-3.7211 Y-2.6679
G01 X-3.7104 Y-2.6740
G01 X-3.6888 Y-2.6856
G01 X-3.6666 Y-2.6961
G01 X-3.6439 Y-2.7055
G01 X-3.6208 Y-2.7138
G01 X-3.5974 Y-2.7209
G01 X-3.5855 Y-2.7240
G01 X-3.5615 Y-2.7294
G01 X-3.5495 Y-2.7316
G01 X-3.5252 Y-2.7352
G01 X-3.5008 Y-2.7376
G01 X-3.4885 Y-2.7384
G01 X-3.4640 Y-2.7390
G01 X-1.8640 Y-2.7390
G01 X-1.8395 Y-2.7384
G01 X-1.8272 Y-2.7376
G01 X-1.8028 Y-2.7352
G01 X-1.7785 Y-2.7316
G01 X-1.7544 Y-2.7269
G01 X-1.7306 Y-2.7209
G01 X-1.7189 Y-2.7175
G01 X-1.7072 Y-2.7138
G01 X-1.6841 Y-2.7055
G01 X-1.6614 Y-2.6961
G01 X-1.6392 Y-2.6856
G01 X-1.6283 Y-2.6800
G01 X-1.6069 Y-2.6679
G01 X-1.5965 Y-2.6614
G01 X-1.5761 Y-2.6478
G01 X-1.5662 Y-2.6406
G01 X-1.5468 Y-2.6255
G01 X-1.5282 Y-2.6095
G01 X-1.5104 Y-2.5926
G01 X-1.5019 Y-2.5838
G01 X-1.4854 Y-2.5656
G01 X-1.4698 Y-2.5466
G01 X-1.4624 Y-2.5368
G01 X-1.4483 Y-2.5168
G01 X-1.4351 Y-2.4961
G01 X-1.4290 Y-2.4854
G01 X-1.4174 Y-2.4638
G01 X-1.4120 Y-2.4528
G01 X-1.4021 Y-2.4303
G01 X-1.3932 Y-2.4074
G01 X-1.3855 Y-2.3841
G01 X-1.3821 Y-2.3724
G01 X-1.3761 Y-2.3486
G01 X-1.3736 Y-2.3365
G01 X-1.3694 Y-2.3124
G01 X-1.3664 Y-2.2880
G01 X-1.3654 Y-2.2758
G01 X-1.3642 Y-2.2513
G01 X-1.3640 Y0.4610
G01 X-1.3646 Y0.4855
G01 X-1.3664 Y0.5100
G01 X-1.3694 Y0.5344
G01 X-1.3736 Y0.5585
G01 X-1.3790 Y0.5825
G01 X-1.3855 Y0.6061
G01 X-1.3932 Y0.6294
G01 X-1.4021 Y0.6523
G01 X-1.4120 Y0.6748
G01 X-1.4230 Y0.6967
G01 X-1.4351 Y0.7181
G01 X-1.4483 Y0.7388
G01 X-1.4624 Y0.7588
G01 X-1.4775 Y0.7782
G01 X-1.4935 Y0.7968
G01 X-1.5104 Y0.8146
G01 X-1.5287 Y0.8319
G01 X-1.5287 Y3.9941
G01 X-1.5104 Y4.0114
G01 X-1.4935 Y4.0292
G01 X-1.4775 Y4.0478
G01 X-1.4624 Y4.0672
G01 X-1.4483 Y4.0872
G01 X-1.4351 Y4.1079
G01 X-1.4230 Y4.1293
G01 X-1.4120 Y4.1512
G01 X-1.4021 Y4.1737
G01 X-1.3932 Y4.1966
G01 X-1.3855 Y4.2199
G01 X-1.3790 Y4.2435
G01 X-1.3736 Y4.2675
G01 X-1.3694 Y4.2916
G01 X-1.3664 Y4.3160
G01 X-1.3646 Y4.3405
G01 X-1.3640 Y4.3650
G01 X-1.3640 Y7.0650
G01 X-1.3646 Y7.0895
G01 X-1.3664 Y7.1140
G01 X-1.3678 Y7.1262
G01 X-1.3714 Y7.1505
G01 X-1.3761 Y7.1746
G01 X-1.3790 Y7.1865
G01 X-1.3821 Y7.1984
G01 X-1.3892 Y7.2218
G01 X-1.3975 Y7.2449
G01 X-1.4069 Y7.2676
G01 X-1.4120 Y7.2788
G01 X-1.4230 Y7.3007
G01 X-1.4351 Y7.3221
G01 X-1.4416 Y7.3325
G01 X-1.4552 Y7.3529
G01 X-1.4624 Y7.3628
G01 X-1.4775 Y7.3822
G01 X-1.4935 Y7.4008
G01 X-1.5019 Y7.4098
G01 X-1.5192 Y7.4271
G01 X-1.5374 Y7.4436
G01 X-1.5468 Y7.4515
G01 X-1.5662 Y7.4666
G01 X-1.5761 Y7.4738
G01 X-1.5965 Y7.4874
G01 X-1.6069 Y7.4939
G01 X-1.6283 Y7.5060
G01 X-1.6502 Y7.5170
G01 X-1.6727 Y7.5269
G01 X-1.6841 Y7.5315
G01 X-1.6956 Y7.5358
G01 X-1.7189 Y7.5435
G01 X-1.7425 Y7.5500
G01 X-1.7544 Y7.5529
G01 X-1.7785 Y7.5576
G01 X-1.7906 Y7.5596
G01 X-1.8028 Y7.5612
G01 X-1.8272 Y7.5636
G01 X-1.8517 Y7.5648
G01 X-1.8640 Y7.5650
G01 X-3.4640 Y7.5650
G01 X-3.4885 Y7.5644
G01 X-3.5008 Y7.5636
G01 X-3.5130 Y7.5626
G01 X-3.5374 Y7.5596
G01 X-3.5615 Y7.5554
G01 X-3.5736 Y7.5529
G01 X-3.5855 Y7.5500
G01 X-3.6091 Y7.5435
G01 X-3.6324 Y7.5358
G01 X-3.6439 Y7.5315
G01 X-3.6666 Y7.5221
G01 X-3.6778 Y7.5170
G01 X-3.6997 Y7.5060
G01 X-3.7104 Y7.5000
G01 X-3.7315 Y7.4874
G01 X-3.7519 Y7.4738
G01 X-3.7618 Y7.4666
G01 X-3.7812 Y7.4515
G01 X-3.7906 Y7.4436
G01 X-3.7998 Y7.4355
G01 X-3.8176 Y7.4186
G01 X-3.8261 Y7.4098
G01 X-3.8426 Y7.3916
G01 X-3.8505 Y7.3822
G01 X-3.8656 Y7.3628
G01 X-3.8728 Y7.3529
G01 X-3.8864 Y7.3325
G01 X-3.8990 Y7.3114
G01 X-3.9050 Y7.3007
G01 X-3.9160 Y7.2788
G01 X-3.9259 Y7.2563
G01 X-3.9305 Y7.2449
G01 X-3.9348 Y7.2334
G01 X-3.9425 Y7.2101
G01 X-3.9459 Y7.1984
G01 X-3.9519 Y7.1746
G01 X-3.9566 Y7.1505
G01 X-3.9586 Y7.1384
G01 X-3.9602 Y7.1262
G01 X-3.9626 Y7.1018
G01 X-3.9638 Y7.0773
G01 X-3.9640 Y7.0650
G01 X-3.9638 Y4.3527
G01 X-3.9626 Y4.3282
G01 X-3.9602 Y4.3038
G01 X-3.9566 Y4.2795
G01 X-3.9544 Y4.2675
G01 X-3.9490 Y4.2435
G01 X-3.9425 Y4.2199
G01 X-3.9348 Y4.1966
G01 X-3.9259 Y4.1737
G01 X-3.9160 Y4.1512
G01 X-3.9050 Y4.1293
G01 X-3.8929 Y4.1079
G01 X-3.8797 Y4.0872
G01 X-3.8656 Y4.0672
G01 X-3.8505 Y4.0478
G01 X-3.8345 Y4.0292
G01 X-3.8176 Y4.0114
G01 X-3.7993 Y3.9941
G01 X-3.7993 Y0.8319
G00 Z2.0000
G00 X-3.8893 Y0.8699
G01 F60.00
G01 Z-0.0000
G01 F120.00
G01 X-3.9012 Y0.8572
G01 X-3.9201 Y0.8353
G01 X-3.9379 Y0.8125
G01 X-3.9546 Y0.7888
G01 X-3.9701 Y0.7643
G01 X-3.9843 Y0.7391
G01 X-3.9974 Y0.7133
G01 X-4.0091 Y0.6868
G01 X-4.0145 Y0.6733
G01 X-4.0242 Y0.6461
G01 X-4.0326 Y0.6184
G01 X-4.0397 Y0.5903
G01 X-4.0453 Y0.5619
G01 X-4.0496 Y0.5332
G01 X-4.0524 Y0.5044
G01 X-4.0538 Y0.4755
G01 X-4.0538 Y-2.2535
G01 X-4.0524 Y-2.2824
G01 X-4.0512 Y-2.2968
G01 X-4.0476 Y-2.3256
G01 X-4.0453 Y-2.3399
G01 X-4.0427 Y-2.3541
G01 X-4.0363 Y-2.3824
G01 X-4.0326 Y-2.3964
G01 X-4.0242 Y-2.4241
G01 X-4.0195 Y-2.4378
G01 X-4.0091 Y-2.4648
G01 X-4.0034 Y-2.4781
G01 X-3.9910 Y-2.5043
G01 X-3.9774 Y-2.5298
G01 X-3.9701 Y-2.5423
G01 X-3.9546 Y-2.5668
G01 X-3.9464 Y-2.5787
G01 X-3.9291 Y-2.6020
G01 X-3.9108 Y-2.6244
G01 X-3.9012 Y-2.6352
G01 X-3.8812 Y-2.6562
G01 X-3.8602 Y-2.6762
G01 X-3.8383 Y-2.6951
G01 X-3.8155 Y-2.7129
G01 X-3.7918 Y-2.7296
G01 X-3.7796 Y-2.7375
G01 X-3.7548 Y-2.7524
G01 X-3.7293 Y-2.7660
G01 X-3.7163 Y-2.7724
G01 X-3.6898 Y-2.7841
G01 X-3.6628 Y-2.7945
G01 X-3.6353 Y-2.8036
G01 X-3.6074 Y-2.8113
G01 X-3.5933 Y-2.8147
G01 X-3.5649 Y-2.8203
G01 X-3.5362 Y-2.8246
G01 X-3.5074 Y-2.8274
G01 X-3.4929 Y-2.8283
G01 X-3.4640 Y-2.8290
G01 X-1.8640 Y-2.8290
G01 X-1.8351 Y-2.8283
G01 X-1.8206 Y-2.8274
G01 X-1.7918 Y-2.8246
G01 X-1.7774 Y-2.8226
G01 X-1.7489 Y-2.8177
G01 X-1.7206 Y-2.8113
G01 X-1.6927 Y-2.8036
G01 X-1.6789 Y-2.7992
G01 X-1.6517 Y-2.7895
G01 X-1.6382 Y-2.7841
G01 X-1.6117 Y-2.7724
G01 X-1.5987 Y-2.7660
G01 X-1.5732 Y-2.7524
G01 X-1.5484 Y-2.7375
G01 X-1.5362 Y-2.7296
G01 X-1.5125 Y-2.7129
G01 X-1.5010 Y-2.7041
G01 X-1.4786 Y-2.6858
G01 X-1.4572 Y-2.6663
G01 X-1.4468 Y-2.6562
G01 X-1.4268 Y-2.6352
G01 X-1.4079 Y-2.6133
G01 X-1.3901 Y-2.5905
G01 X-1.3816 Y-2.5787
G01 X-1.3655 Y-2.5546
G01 X-1.3506 Y-2.5298
G01 X-1.3437 Y-2.5171
G01 X-1.3306 Y-2.4913
G01 X-1.3189 Y-2.4648
G01 X-1.3085 Y-2.4378
G01 X-1.2994 Y-2.4103
G01 X-1.2954 Y-2.3964
G01 X-1.2917 Y-2.3824
G01 X-1.2853 Y-2.3541
G01 X-1.2804 Y-2.3256
G01 X-1.2768 Y-2.2968
G01 X-1.2756 Y-2.2824
G01 X-1.2742 Y-2.2535
G01 X-1.2740 Y0.4610
G01 X-1.2747 Y0.4899
G01 X-1.2768 Y0.5188
G01 X-1.2784 Y0.5332
G01 X-1.2827 Y0.5619
G01 X-1.2883 Y0.5903
G01 X-1.2954 Y0.6184
G01 X-1.3038 Y0.6461
G01 X-1.3135 Y0.6733
G01 X-1.3246 Y0.7001
G01 X-1.3370 Y0.7263
G01 X-1.3506 Y0.7518
G01 X-1.3655 Y0.7766
G01 X-1.3734 Y0.7888
G01 X-1.3901 Y0.8125
G01 X-1.4079 Y0.8353
G01 X-1.4268 Y0.8572
G01 X-1.4387 Y0.8699
G01 X-1.4387 Y3.9561
G01 X-1.4268 Y3.9688
G01 X-1.4079 Y3.9907
G01 X-1.3901 Y4.0135
G01 X-1.3734 Y4.0372
G01 X-1.3579 Y4.0617
G01 X-1.3437 Y4.0869
G01 X-1.3306 Y4.1127
G01 X-1.3189 Y4.1392
G01 X-1.3085 Y4.1662
G01 X-1.2994 Y4.1937
G01 X-1.2917 Y4.2216
G01 X-1.2853 Y4.2499
G01 X-1.2804 Y4.2784
G01 X-1.2768 Y4.3072
G01 X-1.2747 Y4.3361
G01 X-1.2742 Y4.3505
G01 X-1.2742 Y7.0795
G01 X-1.2747 Y7.0939
G01 X-1.2768 Y7.1228
G01 X-1.2804 Y7.1516
G01 X-1.2853 Y7.1801
G01 X-1.2917 Y7.2084
G01 X-1.2994 Y7.2363
G01 X-1.3038 Y7.2501
G01 X-1.3135 Y7.2773
G01 X-1.3246 Y7.3041
G01 X-1.3370 Y7.3303
G01 X-1.3437 Y7.3431
G01 X-1.3579 Y7.3683
G01 X-1.3655 Y7.3806
G01 X-1.3816 Y7.4047
G01 X-1.3989 Y7.4280
G01 X-1.4172 Y7.4504
G01 X-1.4268 Y7.4612
G01 X-1.4468 Y7.4822
G01 X-1.4572 Y7.4923
G01 X-1.4786 Y7.5118
G01 X-1.4897 Y7.5211
G01 X-1.5125 Y7.5389
G01 X-1.5243 Y7.5474
G01 X-1.5362 Y7.5556
G01 X-1.5607 Y7.5711
G01 X-1.5859 Y7.5853
G01 X-1.5987 Y7.5920
G01 X-1.6249 Y7.6044
G01 X-1.6517 Y7.6155
G01 X-1.6652 Y7.6205
G01 X-1.6927 Y7.6296
G01 X-1.7066 Y7.6336
G01 X-1.7347 Y7.6407
G01 X-1.7489 Y7.6437
G01 X-1.7774 Y7.6486
G01 X-1.8062 Y7.6522
G01 X-1.8206 Y7.6534
G01 X-1.8351 Y7.6543
G01 X-1.8640 Y7.6550
G01 X-3.4785 Y7.6548
G01 X-3.5074 Y7.6534
G01 X-3.5362 Y7.6506
G01 X-3.5649 Y7.6463
G01 X-3.5933 Y7.6407
G01 X-3.6074 Y7.6373
G01 X-3.6353 Y7.6296
G01 X-3.6628 Y7.6205
G01 X-3.6898 Y7.6101
G01 X-3.7163 Y7.5984
G01 X-3.7293 Y7.5920
G01 X-3.7548 Y7.5784
G01 X-3.7673 Y7.5711
G01 X-3.7918 Y7.5556
G01 X-3.8155 Y7.5389
G01 X-3.8383 Y7.5211
G01 X-3.8602 Y7.5022
G01 X-3.8812 Y7.4822
G01 X-3.9012 Y7.4612
G01 X-3.9108 Y7.4504
G01 X-3.9291 Y7.4280
G01 X-3.9379 Y7.4165
G01 X-3.9546 Y7.3928
G01 X-3.9701 Y7.3683
G01 X-3.9843 Y7.3431
G01 X-3.9910 Y7.3303
G01 X-4.0034 Y7.3041
G01 X-4.0145 Y7.2773
G01 X-4.0195 Y7.2638
G01 X-4.0286 Y7.2363
G01 X-4.0363 Y7.2084
G01 X-4.0427 Y7.1801
G01 X-4.0476 Y7.1516
G01 X-4.0512 Y7.1228
G01 X-4.0524 Y7.1084
G01 X-4.0538 Y7.0795
G01 X-4.0540 Y6.1622
G01 X-4.0740 Y6.2185
G01 X-4.0740 Y7.0650
G01 X-4.0747 Y7.0939
G01 X-4.0768 Y7.1228
G01 X-4.0784 Y7.1372
G01 X-4.0827 Y7.1659
G01 X-4.0883 Y7.1943
G01 X-4.0954 Y7.2224
G01 X-4.0994 Y7.2363
G01 X-4.1085 Y7.2638
G01 X-4.1135 Y7.2773
G01 X-4.1189 Y7.2908
G01 X-4.1306 Y7.3173
G01 X-4.1437 Y7.3431
G01 X-4.1579 Y7.3683
G01 X-4.1655 Y7.3806
G01 X-4.1734 Y7.3928
G01 X-4.1901 Y7.4165
G01 X-4.2079 Y7.4393
G01 X-4.2268 Y7.4612
G01 X-4.2468 Y7.4822
G01 X-4.2572 Y7.4923
G01 X-4.2786 Y7.5118
G01 X-4.2897 Y7.5211
G01 X-4.3125 Y7.5389
G01 X-4.3362 Y7.5556
G01 X-4.3607 Y7.5711
G01 X-4.3859 Y7.5853
G01 X-4.3987 Y7.5920
G01 X-4.4249 Y7.6044
G01 X-4.4517 Y7.6155
G01 X-4.4789 Y7.6252
G01 X-4.5066 Y7.6336
G01 X-4.5347 Y7.6407
G01 X-4.5631 Y7.6463
G01 X-4.5918 Y7.6506
G01 X-4.6206 Y7.6534
G01 X-4.6495 Y7.6548
G01 X-5.3117 Y7.6550
G01 X-6.2706 Y8.6138
G01 X-6.2706 Y9.2248
G01 X-6.2588 Y9.2386
G01 X-6.2410 Y9.2615
G01 X-6.1533 Y9.3798
G01 X-6.1366 Y9.4034
G01 X-6.1211 Y9.4279
G01 X-6.0454 Y9.5542
G01 X-6.0311 Y9.5794
G01 X-6.0181 Y9.6053
G01 X-5.9551 Y9.7384
G01 X-5.9434 Y9.7649
G01 X-5.9330 Y9.7919
G01 X-5.8834 Y9.9306
G01 X-5.8750 Y9.9558
G01 X-5.8666 Y9.9306
G01 X-5.8170 Y9.7919
G01 X-5.8066 Y9.7649
G01 X-5.7949 Y9.7384
G01 X-5.7319 Y9.6053
G01 X-5.7189 Y9.5794
G01 X-5.7046 Y9.5542
G01 X-5.6289 Y9.4279
G01 X-5.6134 Y9.4034
G01 X-5.5967 Y9.3798
G01 X-5.5090 Y9.2615
G01 X-5.5002 Y9.2499
G01 X-5.4818 Y9.2276
G01 X-5.3734 Y9.1076
G01 X-5.3534 Y9.0866
G01 X-5.3324 Y9.0666
G01 X-5.2233 Y8.9677
G01 X-5.2014 Y8.9488
G01 X-5.1785 Y8.9310
G01 X-5.0602 Y8.8433
G01 X-5.0366 Y8.8266
G01 X-5.0121 Y8.8111
G01 X-4.8858 Y8.7354
G01 X-4.8606 Y8.7211
G01 X-4.8347 Y8.7081
G01 X-4.7016 Y8.6451
G01 X-4.6884 Y8.6391
G01 X-4.6617 Y8.6280
G01 X-4.5094 Y8.5734
G01 X-4.4819 Y8.5643
G01 X-4.4540 Y8.5566
G01 X-4.3111 Y8.5208
G01 X-4.2829 Y8.5144
G01 X-4.2544 Y8.5095
G01 X-4.1087 Y8.4879
G01 X-4.0799 Y8.4843
G01 X-4.0510 Y8.4822
G01 X-3.9039 Y8.4750
G01 X-3.8750 Y8.4742
G01 X-3.8461 Y8.4750
G01 X-3.6990 Y8.4822
G01 X-3.6701 Y8.4843
G01 X-3.6413 Y8.4879
G01 X-3.4956 Y8.5095
G01 X-3.4671 Y8.5144
G01 X-3.4389 Y8.5208
G01 X-3.2960 Y8.5566
G01 X-3.2681 Y8.5643
G01 X-3.2406 Y8.5734
G01 X-3.1019 Y8.6230
G01 X-3.0749 Y8.6334
G01 X-3.0484 Y8.6451
G01 X-2.9153 Y8.7081
G01 X-2.8894 Y8.7211
G01 X-2.8642 Y8.7354
G01 X-2.7379 Y8.8111
G01 X-2.7134 Y8.8266
G01 X-2.6898 Y8.8433
G01 X-2.5715 Y8.9310
G01 X-2.5486 Y8.9488
G01 X-2.5267 Y8.9677
G01 X-2.4176 Y9.0666
G01 X-2.3966 Y9.0866
G01 X-2.3766 Y9.1076
G01 X-2.2777 Y9.2167
G01 X-2.2588 Y9.2386
G01 X-2.2410 Y9.2615
G01 X-2.1533 Y9.3798
G01 X-2.1366 Y9.4034
G01 X-2.1211 Y9.4279
G01 X-2.0454 Y9.5542
G01 X-2.0311 Y9.5794
G01 X-2.0181 Y9.6053
G01 X-1.9551 Y9.7384
G01 X-1.9434 Y9.7649
G01 X-1.9330 Y9.7919
G01 X-1.8834 Y9.9306
G01 X-1.8786 Y9.9443
G01 X-1.8702 Y9.9720
G01 X-1.8308 Y10.1289
G01 X-1.8244 Y10.1571
G01 X-1.8195 Y10.1856
G01 X-1.7979 Y10.3313
G01 X-1.7943 Y10.3601
G01 X-1.7922 Y10.3890
G01 X-1.7850 Y10.5361
G01 X-1.7842 Y10.5650
G01 X-1.7842 Y13.5650
G01 X-1.7850 Y13.5939
G01 X-1.7922 Y13.7410
G01 X-1.7943 Y13.7699
G01 X-1.7979 Y13.7987
G01 X-1.8195 Y13.9444
G01 X-1.8244 Y13.9729
G01 X-1.8308 Y14.0011
G01 X-1.8666 Y14.1440
G01 X-1.8743 Y14.1719
G01 X-1.8834 Y14.1994
G01 X-1.9330 Y14.3381
G01 X-1.9434 Y14.3651
G01 X-1.9494 Y14.3790
G01 X-1.9494 Y20.9884
G01 X-1.9284 Y20.9787
G01 X-1.9148 Y20.9730
G01 X-1.8874 Y20.9626
G01 X-1.8560 Y20.9523
G01 X-1.8279 Y20.9447
G01 X-1.7994 Y20.9385
G01 X-1.7650 Y20.9321
G01 X-1.7514 Y20.9300
G01 X-1.7241 Y20.9267
G01 X-1.7103 Y20.9255
G01 X-1.6828 Y20.9242
G01 X-1.6638 Y20.9239
G01 X-1.0922 Y20.9239
G01 X-1.0605 Y20.9248
G01 X-1.0447 Y20.9258
G01 X-1.0123 Y20.9291
G01 X-0.9976 Y20.9309
G01 X-0.9685 Y20.9355
G01 X-0.9540 Y20.9383
G01 X-0.9253 Y20.9451
G01 X-0.9076 Y20.9500
G01 X-0.8800 Y20.9587
G01 X-0.8664 Y20.9636
G01 X-0.8395 Y20.9743
G01 X-0.8169 Y20.9841
G01 X-0.7899 Y20.9967
G01 X-0.7635 Y21.0106
G01 X-0.7506 Y21.0181
G01 X-0.7254 Y21.0340
G01 X-0.7103 Y21.0443
G01 X-0.6987 Y21.0527
G01 X-0.6761 Y21.0702
G01 X-0.6543 Y21.0889
G01 X-0.6294 Y21.1114
G01 X-0.6076 Y21.1331
G01 X-0.5971 Y21.1444
G01 X-0.5770 Y21.1677
G01 X-0.5675 Y21.1797
G01 X-0.5567 Y21.1939
G01 X-0.5407 Y21.2167
G01 X-0.5259 Y21.2401
G01 X-0.5189 Y21.2521
G01 X-0.5071 Y21.2729
G01 X-0.4932 Y21.2990
G01 X-0.4868 Y21.3124
G01 X-0.4750 Y21.3394
G01 X-0.4682 Y21.3569
G01 X-0.4582 Y21.3856
G01 X-0.4496 Y21.4148
G01 X-0.4459 Y21.4295
G01 X-0.4397 Y21.4593
G01 X-0.4343 Y21.4888
G01 X-0.4304 Y21.5160
G01 X-0.4289 Y21.5297
G01 X-0.4269 Y21.5572
G01 X-0.4261 Y21.5900
G01 X-0.4263 Y49.7555
G01 X-0.4279 Y49.7859
G01 X-0.4301 Y49.8118
G01 X-0.4317 Y49.8261
G01 X-0.4369 Y49.8595
G01 X-0.4395 Y49.8734
G01 X-0.4457 Y49.9009
G01 X-0.4493 Y49.9146
G01 X-0.4575 Y49.9416
G01 X-0.4740 Y49.9871
G01 X-0.4858 Y50.0155
G01 X-0.4990 Y50.0433
G01 X-0.5156 Y50.0738
G01 X-0.5228 Y50.0860
G01 X-0.5380 Y50.1098
G01 X-0.5543 Y50.1328
G01 X-0.5828 Y50.1688
G01 X-0.6008 Y50.1897
G01 X-0.6197 Y50.2098
G01 X-0.6296 Y50.2195
G01 X-0.6548 Y50.2427
G01 X-0.6783 Y50.2622
G01 X-0.6905 Y50.2715
G01 X-0.7155 Y50.2892
G01 X-0.7510 Y50.3119
G01 X-0.7776 Y50.3273
G01 X-0.8049 Y50.3412
G01 X-0.8363 Y50.3553
G01 X-0.8623 Y50.3655
G01 X-0.8754 Y50.3701
G01 X-0.9021 Y50.3784
G01 X-0.9416 Y50.3887
G01 X-0.9552 Y50.3919
G01 X-0.9825 Y50.3973
G01 X-0.9963 Y50.3995
G01 X-1.0240 Y50.4029
G01 X-1.0571 Y50.4055
G01 X-1.0852 Y50.4063
G01 X-1.1134 Y50.4058
G01 X-1.1274 Y50.4050
G01 X-1.1747 Y50.4010
G01 X-1.2032 Y50.3970
G01 X-1.2173 Y50.3945
G01 X-1.2389 Y50.3900
G01 X-1.2389 Y51.7183
G01 X-1.1948 Y51.7100
G01 X-1.1659 Y51.7058
G01 X-1.1368 Y51.7031
G01 X-1.1223 Y51.7023
G01 X-1.0882 Y51.7016
G01 X-1.0595 Y51.7024
G01 X-1.0308 Y51.7047
G01 X-1.0165 Y51.7063
G01 X-0.9756 Y51.7123
G01 X-0.9462 Y51.7179
G01 X-0.9172 Y51.7250
G01 X-0.8837 Y51.7351
G01 X-0.8580 Y51.7442
G01 X-0.8453 Y51.7491
G01 X-0.8203 Y51.7599
G01 X-0.8080 Y51.7658
G01 X-0.7759 Y51.7820
G01 X-0.7521 Y51.7952
G01 X-0.7289 Y51.8094
G01 X-0.7176 Y51.8169
G01 X-0.6899 Y51.8368
G01 X-0.6658 Y51.8560
G01 X-0.6428 Y51.8764
G01 X-0.6317 Y51.8870
G01 X-0.6042 Y51.9150
G01 X-0.5856 Y51.9354
G01 X-0.5767 Y51.9460
G01 X-0.5596 Y51.9676
G01 X-0.5400 Y51.9952
G01 X-0.5239 Y52.0203
G01 X-0.5091 Y52.0462
G01 X-0.4878 Y52.0886
G01 X-0.4759 Y52.1153
G01 X-0.4652 Y52.1426
G01 X-0.4560 Y52.1703
G01 X-0.4519 Y52.1843
G01 X-0.4434 Y52.2171
G01 X-0.4404 Y52.2312
G01 X-0.4353 Y52.2594
G01 X-0.4292 Y52.3068
G01 X-0.4269 Y52.3372
G01 X-0.4261 Y52.3677
G01 X-0.4261 Y68.8472
G01 X-0.4268 Y68.8752
G01 X-0.4284 Y68.9004
G01 X-0.4298 Y68.9164
G01 X-0.4338 Y68.9482
G01 X-0.4404 Y68.9845
G01 X-0.4474 Y69.0145
G01 X-0.4560 Y69.0440
G01 X-0.4609 Y69.0585
G01 X-0.4769 Y69.1016
G01 X-0.4882 Y69.1280
G01 X-0.5009 Y69.1538
G01 X-0.5177 Y69.1843
G01 X-0.5332 Y69.2094
G01 X-0.5414 Y69.2217
G01 X-0.5588 Y69.2456
G01 X-0.5858 Y69.2794
G01 X-0.6058 Y69.3022
G01 X-0.6162 Y69.3132
G01 X-0.6379 Y69.3343
G01 X-0.6522 Y69.3473
G01 X-0.6731 Y69.3650
G01 X-0.6948 Y69.3816
G01 X-0.7173 Y69.3973
G01 X-0.7445 Y69.4149
G01 X-0.7707 Y69.4305
G01 X-0.7977 Y69.4447
G01 X-0.8254 Y69.4575
G01 X-0.8438 Y69.4653
G01 X-0.8708 Y69.4754
G01 X-0.8983 Y69.4842
G01 X-0.9445 Y69.4963
G01 X-0.9587 Y69.4995
G01 X-0.9871 Y69.5049
G01 X-1.0158 Y69.5089
G01 X-1.0502 Y69.5120
G01 X-1.0645 Y69.5127
G01 X-1.0933 Y69.5132
G01 X-1.1220 Y69.5122
G01 X-1.1605 Y69.5094
G01 X-1.1890 Y69.5061
G01 X-1.2173 Y69.5014
G01 X-1.2314 Y69.4986
G01 X-1.2647 Y69.4906
G01 X-1.2923 Y69.4825
G01 X-1.3194 Y69.4731
G01 X-1.3554 Y69.4585
G01 X-1.3839 Y69.4458
G01 X-1.4117 Y69.4317
G01 X-1.7579 Y69.2320
G01 X-2.2733 Y69.0939
G01 X-2.8067 Y69.0939
G01 X-3.3221 Y69.2320
G01 X-3.7840 Y69.4987
G01 X-4.1613 Y69.8760
G01 X-4.4280 Y70.3379
G01 X-4.5661 Y70.8533
G01 X-4.5661 Y71.3867
G01 X-4.4280 Y71.9021
G01 X-4.1613 Y72.3640
G01 X-3.7840 Y72.7413
G01 X-3.3221 Y73.0080
G01 X-2.8067 Y73.1461
G01 X-2.2733 Y73.1461
G01 X-1.7579 Y73.0080
G01 X-1.4253 Y72.8160
G01 X-1.4130 Y72.8090
G01 X-1.3878 Y72.7961
G01 X-1.3634 Y72.7844
G01 X-1.3488 Y72.7781
G01 X-1.3193 Y72.7666
G01 X-1.2996 Y72.7597
G01 X-1.2704 Y72.7510
G01 X-1.2408 Y72.7437
G01 X-1.2258 Y72.7406
G01 X-1.1911 Y72.7345
G01 X-1.1631 Y72.7306
G01 X-1.1349 Y72.7281
G01 X-1.1010 Y72.7268
G01 X-1.0717 Y72.7270
G01 X-1.0571 Y72.7276
G01 X-1.0279 Y72.7300
G01 X-1.0134 Y72.7318
G01 X-0.9753 Y72.7374
G01 X-0.9471 Y72.7428
G01 X-0.9191 Y72.7496
G01 X-0.8862 Y72.7594
G01 X-0.8596 Y72.7686
G01 X-0.8465 Y72.7737
G01 X-0.8207 Y72.7848
G01 X-0.8080 Y72.7908
G01 X-0.7757 Y72.8071
G01 X-0.7514 Y72.8206
G01 X-0.7278 Y72.8352
G01 X-0.7049 Y72.8508
G01 X-0.6937 Y72.8591
G01 X-0.6770 Y72.8719
G01 X-0.6651 Y72.8817
G01 X-0.6420 Y72.9022
G01 X-0.6309 Y72.9129
G01 X-0.6045 Y72.9398
G01 X-0.5861 Y72.9600
G01 X-0.5686 Y72.9811
G01 X-0.5489 Y73.0075
G01 X-0.5333 Y73.0303
G01 X-0.5189 Y73.0538
G01 X-0.5055 Y73.0779
G01 X-0.4869 Y73.1157
G01 X-0.4808 Y73.1289
G01 X-0.4697 Y73.1556
G01 X-0.4600 Y73.1829
G01 X-0.4515 Y73.2106
G01 X-0.4462 Y73.2304
G01 X-0.4397 Y73.2594
G01 X-0.4347 Y73.2887
G01 X-0.4294 Y73.3307
G01 X-0.4269 Y73.3617
G01 X-0.4263 Y73.3772
G01 X-0.4261 Y75.1078
G01 X-0.4270 Y75.1395
G01 X-0.4280 Y75.1553
G01 X-0.4313 Y75.1877
G01 X-0.4331 Y75.2024
G01 X-0.4377 Y75.2315
G01 X-0.4438 Y75.2603
G01 X-0.4473 Y75.2747
G01 X-0.4522 Y75.2924
G01 X-0.4609 Y75.3200
G01 X-0.4710 Y75.3471
G01 X-0.4765 Y75.3605
G01 X-0.4864 Y75.3834
G01 X-0.4993 Y75.4110
G01 X-0.5063 Y75.4246
G01 X-0.5213 Y75.4511
G01 X-0.5314 Y75.4674
G01 X-0.5477 Y75.4916
G01 X-0.5563 Y75.5035
G01 X-0.5744 Y75.5264
G01 X-0.5839 Y75.5376
G01 X-0.6032 Y75.5592
G01 X-0.6136 Y75.5706
G01 X-0.6353 Y75.5924
G01 X-0.6581 Y75.6131
G01 X-0.6850 Y75.6349
G01 X-0.7074 Y75.6514
G01 X-0.7189 Y75.6593
G01 X-0.7423 Y75.6741
G01 X-0.7881 Y75.7000
G01 X-0.8146 Y75.7132
G01 X-0.8280 Y75.7193
G01 X-0.8591 Y75.7318
G01 X-0.8734 Y75.7370
G01 X-0.9023 Y75.7463
G01 X-0.9317 Y75.7541
G01 X-0.9466 Y75.7574
G01 X-0.9774 Y75.7633
G01 X-1.0046 Y75.7678
G01 X-1.0182 Y75.7696
G01 X-1.0457 Y75.7723
G01 X-1.0594 Y75.7731
G01 X-1.0922 Y75.7739
G01 X-56.0578 Y75.7739
G01 X-56.0736 Y75.7737
G01 X-56.1053 Y75.7720
G01 X-56.1377 Y75.7687
G01 X-56.1670 Y75.7648
G01 X-56.1960 Y75.7595
G01 X-56.2103 Y75.7562
G01 X-56.2285 Y75.7517
G01 X-56.2563 Y75.7436
G01 X-56.2700 Y75.7391
G01 X-56.2971 Y75.7290
G01 X-56.3334 Y75.7136
G01 X-56.3610 Y75.7007
G01 X-56.3879 Y75.6864
G01 X-56.4011 Y75.6787
G01 X-56.4174 Y75.6686
G01 X-56.4416 Y75.6523
G01 X-56.4535 Y75.6437
G01 X-56.4764 Y75.6256
G01 X-56.4876 Y75.6161
G01 X-56.5092 Y75.5968
G01 X-56.5316 Y75.5757
G01 X-56.5424 Y75.5647
G01 X-56.5631 Y75.5419
G01 X-56.5849 Y75.5150
G01 X-56.6014 Y75.4926
G01 X-56.6093 Y75.4811
G01 X-56.6241 Y75.4577
G01 X-56.6500 Y75.4119
G01 X-56.6632 Y75.3854
G01 X-56.6693 Y75.3720
G01 X-56.6818 Y75.3409
G01 X-56.6918 Y75.3122
G01 X-56.7004 Y75.2830
G01 X-56.7041 Y75.2683
G01 X-56.7074 Y75.2534
G01 X-56.7133 Y75.2226
G01 X-56.7178 Y75.1954
G01 X-56.7196 Y75.1818
G01 X-56.7211 Y75.1681
G01 X-56.7231 Y75.1406
G01 X-56.7239 Y75.1078
G01 X-56.7239 Y21.5900
G01 X-56.7237 Y21.5742
G01 X-56.7220 Y21.5425
G01 X-56.7187 Y21.5101
G01 X-56.7148 Y21.4808
G01 X-56.7095 Y21.4518
G01 X-56.7062 Y21.4375
G01 X-56.7017 Y21.4193
G01 X-56.6936 Y21.3915
G01 X-56.6891 Y21.3778
G01 X-56.6790 Y21.3507
G01 X-56.6636 Y21.3144
G01 X-56.6507 Y21.2868
G01 X-56.6437 Y21.2732
G01 X-56.6287 Y21.2467
G01 X-56.6186 Y21.2304
G01 X-56.6023 Y21.2062
G01 X-56.5848 Y21.1827
G01 X-56.5756 Y21.1714
G01 X-56.5661 Y21.1602
G01 X-56.5468 Y21.1386
G01 X-56.5257 Y21.1162
G01 X-56.5147 Y21.1054
G01 X-56.4919 Y21.0847
G01 X-56.4650 Y21.0629
G01 X-56.4426 Y21.0464
G01 X-56.4311 Y21.0385
G01 X-56.4077 Y21.0237
G01 X-56.3621 Y20.9979
G01 X-56.3358 Y20.9848
G01 X-56.3224 Y20.9787
G01 X-56.2952 Y20.9676
G01 X-56.2639 Y20.9566
G01 X-56.2360 Y20.9483
G01 X-56.2219 Y20.9447
G01 X-56.2077 Y20.9414
G01 X-56.1726 Y20.9345
G01 X-56.1454 Y20.9300
G01 X-56.1318 Y20.9282
G01 X-56.1181 Y20.9267
G01 X-56.0906 Y20.9247
G01 X-56.0578 Y20.9239
G01 X-9.7356 Y20.9239
G01 X-9.7356 Y14.5168
G01 X-9.7949 Y14.3916
G01 X-9.8066 Y14.3651
G01 X-9.8170 Y14.3381
G01 X-9.8666 Y14.1994
G01 X-9.8757 Y14.1719
G01 X-9.8798 Y14.1580
G01 X-9.9192 Y14.0011
G01 X-9.9256 Y13.9729
G01 X-9.9305 Y13.9444
G01 X-9.9521 Y13.7987
G01 X-9.9557 Y13.7699
G01 X-9.9578 Y13.7410
G01 X-9.9656 Y13.5795
G01 X-9.9656 Y10.5505
G01 X-9.9578 Y10.3890
G01 X-9.9557 Y10.3601
G01 X-9.9521 Y10.3313
G01 X-9.9305 Y10.1856
G01 X-9.9256 Y10.1571
G01 X-9.9192 Y10.1289
G01 X-9.8834 Y9.9860
G01 X-9.8757 Y9.9581
G01 X-9.8666 Y9.9306
G01 X-9.8170 Y9.7919
G01 X-9.8066 Y9.7649
G01 X-9.7949 Y9.7384
G01 X-9.7319 Y9.6053
G01 X-9.7189 Y9.5794
G01 X-9.7046 Y9.5542
G01 X-9.6289 Y9.4279
G01 X-9.6134 Y9.4034
G01 X-9.5967 Y9.3798
G01 X-9.5090 Y9.2615
G01 X-9.4912 Y9.2386
G01 X-9.4723 Y9.2167
G01 X-9.3734 Y9.1076
G01 X-9.3534 Y9.0866
G01 X-9.3324 Y9.0666
G01 X-9.2294 Y8.9733
G01 X-9.2294 Y8.0010
G01 X-9.2287 Y7.9721
G01 X-9.2245 Y7.8849
G01 X-9.2223 Y7.8560
G01 X-9.2188 Y7.8272
G01 X-9.2060 Y7.7409
G01 X-9.2010 Y7.7124
G01 X-9.1947 Y7.6841
G01 X-9.1735 Y7.5994
G01 X-9.1657 Y7.5715
G01 X-9.1567 Y7.5440
G01 X-9.1273 Y7.4619
G01 X-9.1168 Y7.4348
G01 X-9.1051 Y7.4084
G01 X-9.0678 Y7.3295
G01 X-9.0548 Y7.3036
G01 X-9.0405 Y7.2784
G01 X-8.9956 Y7.2035
G01 X-8.9801 Y7.1791
G01 X-8.9634 Y7.1554
G01 X-8.9114 Y7.0853
G01 X-8.8936 Y7.0625
G01 X-8.8747 Y7.0405
G01 X-8.8062 Y6.9652
G01 X-6.8540 Y5.0127
G01 X-6.8538 Y4.3505
G01 X-6.8524 Y4.3216
G01 X-6.8496 Y4.2928
G01 X-6.8453 Y4.2641
G01 X-6.8427 Y4.2499
G01 X-6.8397 Y4.2357
G01 X-6.8326 Y4.2076
G01 X-6.8242 Y4.1799
G01 X-6.8145 Y4.1527
G01 X-6.8034 Y4.1259
G01 X-6.7910 Y4.0997
G01 X-6.7843 Y4.0869
G01 X-6.7701 Y4.0617
G01 X-6.7625 Y4.0494
G01 X-6.7464 Y4.0253
G01 X-6.7291 Y4.0020
G01 X-6.7108 Y3.9796
G01 X-6.7012 Y3.9688
G01 X-6.6812 Y3.9478
G01 X-6.6602 Y3.9278
G01 X-6.6383 Y3.9089
G01 X-6.6270 Y3.8999
G01 X-6.6037 Y3.8826
G01 X-6.5796 Y3.8665
G01 X-6.5548 Y3.8516
G01 X-6.5421 Y3.8447
G01 X-6.5163 Y3.8316
G01 X-6.4898 Y3.8199
G01 X-6.4628 Y3.8095
G01 X-6.4353 Y3.8004
G01 X-6.4214 Y3.7964
G01 X-6.4074 Y3.7927
G01 X-6.3791 Y3.7863
G01 X-6.3506 Y3.7814
G01 X-6.3218 Y3.7778
G01 X-6.3074 Y3.7766
G01 X-6.2785 Y3.7752
G01 X-4.6495 Y3.7752
G01 X-4.6206 Y3.7766
G01 X-4.6062 Y3.7778
G01 X-4.5774 Y3.7814
G01 X-4.5489 Y3.7863
G01 X-4.5206 Y3.7927
G01 X-4.5066 Y3.7964
G01 X-4.4789 Y3.8048
G01 X-4.4517 Y3.8145
G01 X-4.4249 Y3.8256
G01 X-4.3987 Y3.8380
G01 X-4.3859 Y3.8447
G01 X-4.3607 Y3.8589
G01 X-4.3484 Y3.8665
G01 X-4.3243 Y3.8826
G01 X-4.3010 Y3.8999
G01 X-4.2786 Y3.9182
G01 X-4.2572 Y3.9377
G01 X-4.2367 Y3.9582
G01 X-4.2268 Y3.9688
G01 X-4.2079 Y3.9907
G01 X-4.1901 Y4.0135
G01 X-4.1734 Y4.0372
G01 X-4.1579 Y4.0617
G01 X-4.1437 Y4.0869
G01 X-4.1306 Y4.1127
G01 X-4.1189 Y4.1392
G01 X-4.1085 Y4.1662
G01 X-4.0994 Y4.1937
G01 X-4.0954 Y4.2076
G01 X-4.0883 Y4.2357
G01 X-4.0827 Y4.2641
G01 X-4.0784 Y4.2928
G01 X-4.0756 Y4.3216
G01 X-4.0742 Y4.3505
G01 X-4.0740 Y5.2115
G01 X-4.0540 Y5.2678
G01 X-4.0540 Y4.3650
G01 X-4.0533 Y4.3361
G01 X-4.0524 Y4.3216
G01 X-4.0496 Y4.2928
G01 X-4.0453 Y4.2641
G01 X-4.0427 Y4.2499
G01 X-4.0397 Y4.2357
G01 X-4.0326 Y4.2076
G01 X-4.0286 Y4.1937
G01 X-4.0195 Y4.1662
G01 X-4.0091 Y4.1392
G01 X-3.9974 Y4.1127
G01 X-3.9910 Y4.0997
G01 X-3.9774 Y4.0742
G01 X-3.9625 Y4.0494
G01 X-3.9464 Y4.0253
G01 X-3.9379 Y4.0135
G01 X-3.9201 Y3.9907
G01 X-3.9012 Y3.9688
G01 X-3.8893 Y3.9561
G01 X-3.8893 Y0.8699
G00 Z2.0000
G00 X-3.9793 Y0.9047
G01 F60.00
G01 Z-0.0000
G01 F120.00
G01 X-4.0001 Y0.8794
G01 X-4.0102 Y0.8661
G01 X-4.0294 Y0.8388
G01 X-4.0473 Y0.8106
G01 X-4.0640 Y0.7810
G01 X-4.0807 Y0.8106
G01 X-4.0986 Y0.8388
G01 X-4.1080 Y0.8525
G01 X-4.1279 Y0.8794
G01 X-4.1491 Y0.9052
G01 X-4.1602 Y0.9177
G01 X-4.1832 Y0.9418
G01 X-4.2073 Y0.9648
G01 X-4.2198 Y0.9759
G01 X-4.2326 Y0.9866
G01 X-4.2589 Y1.0072
G01 X-4.2862 Y1.0264
G01 X-4.3144 Y1.0443
G01 X-4.3288 Y1.0527
G01 X-4.3583 Y1.0684
G01 X-4.3884 Y1.0827
G01 X-4.4193 Y1.0954
G01 X-4.4349 Y1.1012
G01 X-4.4507 Y1.1067
G01 X-4.4826 Y1.1164
G01 X-4.5150 Y1.1245
G01 X-4.5313 Y1.1279
G01 X-4.5642 Y1.1336
G01 X-4.5973 Y1.1377
G01 X-4.6306 Y1.1402
G01 X-4.6640 Y1.1410
G01 X-6.2640 Y1.1410
G01 X-6.2807 Y1.1408
G01 X-6.3140 Y1.1392
G01 X-6.3472 Y1.1359
G01 X-6.3803 Y1.1310
G01 X-6.4130 Y1.1245
G01 X-6.4454 Y1.1164
G01 X-6.4773 Y1.1067
G01 X-6.5087 Y1.0954
G01 X-6.5396 Y1.0827
G01 X-6.5697 Y1.0684
G01 X-6.5992 Y1.0527
G01 X-6.6278 Y1.0355
G01 X-6.6555 Y1.0170
G01 X-6.6824 Y0.9971
G01 X-6.7082 Y0.9759
G01 X-6.7329 Y0.9535
G01 X-6.7565 Y0.9299
G01 X-6.7789 Y0.9052
G01 X-6.8001 Y0.8794
G01 X-6.8200 Y0.8525
G01 X-6.8385 Y0.8248
G01 X-6.8473 Y0.8106
G01 X-6.8637 Y0.7815
G01 X-6.8787 Y0.7517
G01 X-6.8922 Y0.7212
G01 X-6.9042 Y0.6901
G01 X-6.9147 Y0.6584
G01 X-6.9236 Y0.6262
G01 X-6.9309 Y0.5937
G01 X-6.9366 Y0.5608
G01 X-6.9407 Y0.5277
G01 X-6.9432 Y0.4944
G01 X-6.9440 Y0.4610
G01 X-6.9440 Y0.4263
G01 X-10.9643 Y0.4263
G01 X-14.1887 Y8.7029
G01 X-14.2046 Y9.1636
G01 X-14.1893 Y9.1815
G01 X-14.1687 Y9.2079
G01 X-14.0810 Y9.3262
G01 X-14.0618 Y9.3534
G01 X-14.0439 Y9.3816
G01 X-13.9682 Y9.5080
G01 X-13.9517 Y9.5370
G01 X-13.9367 Y9.5668
G01 X-13.8738 Y9.7000
G01 X-13.8602 Y9.7305
G01 X-13.8482 Y9.7616
G01 X-13.7986 Y9.9003
G01 X-13.7882 Y9.9320
G01 X-13.7793 Y9.9641
G01 X-13.7435 Y10.1070
G01 X-13.7362 Y10.1396
G01 X-13.7304 Y10.1724
G01 X-13.7088 Y10.3181
G01 X-13.7048 Y10.3512
G01 X-13.7023 Y10.3845
G01 X-13.6951 Y10.5316
G01 X-13.6942 Y10.5650
G01 X-13.6942 Y13.5650
G01 X-13.6951 Y13.5984
G01 X-13.7023 Y13.7455
G01 X-13.7048 Y13.7788
G01 X-13.7066 Y13.7953
G01 X-13.7304 Y13.9576
G01 X-13.7362 Y13.9904
G01 X-13.7435 Y14.0230
G01 X-13.7793 Y14.1659
G01 X-13.7882 Y14.1980
G01 X-13.7986 Y14.2297
G01 X-13.8482 Y14.3684
G01 X-13.8602 Y14.3995
G01 X-13.8738 Y14.4300
G01 X-13.9367 Y14.5632
G01 X-13.9517 Y14.5930
G01 X-13.9682 Y14.6220
G01 X-14.0439 Y14.7484
G01 X-14.0618 Y14.7766
G01 X-14.0810 Y14.8038
G01 X-14.1687 Y14.9221
G01 X-14.1893 Y14.9485
G01 X-14.2111 Y14.9737
G01 X-14.3100 Y15.0829
G01 X-14.3330 Y15.1070
G01 X-14.3571 Y15.1300
G01 X-14.4663 Y15.2289
G01 X-14.4915 Y15.2507
G01 X-14.5179 Y15.2713
G01 X-14.6362 Y15.3590
G01 X-14.6634 Y15.3782
G01 X-14.6916 Y15.3961
G01 X-14.8180 Y15.4718
G01 X-14.8324 Y15.4802
G01 X-14.8618 Y15.4959
G01 X-15.0251 Y15.5732
G01 X-15.0405 Y15.5798
G01 X-15.0716 Y15.5918
G01 X-15.2103 Y15.6414
G01 X-15.2420 Y15.6518
G01 X-15.2741 Y15.6607
G01 X-15.4170 Y15.6965
G01 X-15.4496 Y15.7038
G01 X-15.4824 Y15.7096
G01 X-15.6281 Y15.7312
G01 X-15.6612 Y15.7352
G01 X-15.6945 Y15.7377
G01 X-15.8416 Y15.7449
G01 X-15.8750 Y15.7458
G01 X-15.9084 Y15.7449
G01 X-16.0555 Y15.7377
G01 X-16.0888 Y15.7352
G01 X-16.1219 Y15.7312
G01 X-16.2676 Y15.7096
G01 X-16.3004 Y15.7038
G01 X-16.3330 Y15.6965
G01 X-16.4759 Y15.6607
G01 X-16.5080 Y15.6518
G01 X-16.5397 Y15.6414
G01 X-16.6784 Y15.5918
G01 X-16.7095 Y15.5798
G01 X-16.7400 Y15.5662
G01 X-16.8732 Y15.5033
G01 X-16.9030 Y15.4883
G01 X-16.9320 Y15.4718
G01 X-17.0584 Y15.3961
G01 X-17.0866 Y15.3782
G01 X-17.1138 Y15.3590
G01 X-17.2321 Y15.2713
G01 X-17.2585 Y15.2507
G01 X-17.2837 Y15.2289
G01 X-17.3929 Y15.1300
G01 X-17.4170 Y15.1070
G01 X-17.4400 Y15.0829
G01 X-17.5389 Y14.9737
G01 X-17.5607 Y14.9485
G01 X-17.5813 Y14.9221
G01 X-17.6690 Y14.8038
G01 X-17.6882 Y14.7766
G01 X-17.7061 Y14.7484
G01 X-17.7818 Y14.6220
G01 X-17.7983 Y14.5930
G01 X-17.8133 Y14.5632
G01 X-17.8750 Y14.4326
G01 X-17.9367 Y14.5632
G01 X-17.9517 Y14.5930
G01 X-17.9682 Y14.6220
G01 X-18.0439 Y14.7484
G01 X-18.0618 Y14.7766
G01 X-18.0810 Y14.8038
G01 X-18.1687 Y14.9221
G01 X-18.1893 Y14.9485
G01 X-18.2111 Y14.9737
G01 X-18.3100 Y15.0829
G01 X-18.3330 Y15.1070
G01 X-18.3571 Y15.1300
G01 X-18.4788 Y15.2400
G01 X-18.4915 Y15.2507
G01 X-18.5179 Y15.2713
G01 X-18.6362 Y15.3590
G01 X-18.6634 Y15.3782
G01 X-18.6916 Y15.3961
G01 X-18.8180 Y15.4718
G01 X-18.8470 Y15.4883
G01 X-18.8768 Y15.5033
G01 X-19.0100 Y15.5662
G01 X-19.0405 Y15.5798
G01 X-19.0716 Y15.5918
G01 X-19.2103 Y15.6414
G01 X-19.2420 Y15.6518
G01 X-19.2741 Y15.6607
G01 X-19.4332 Y15.7004
G01 X-19.4660 Y15.7069
G01 X-19.4824 Y15.7096
G01 X-19.6281 Y15.7312
G01 X-19.6612 Y15.7352
G01 X-19.6945 Y15.7377
G01 X-19.8416 Y15.7449
G01 X-19.8750 Y15.7458
G01 X-19.9084 Y15.7449
G01 X-20.0555 Y15.7377
G01 X-20.0888 Y15.7352
G01 X-20.1219 Y15.7312
G01 X-20.2840 Y15.7069
G01 X-20.3168 Y15.7004
G01 X-20.3330 Y15.6965
G01 X-20.4759 Y15.6607
G01 X-20.5080 Y15.6518
G01 X-20.5397 Y15.6414
G01 X-20.6784 Y15.5918
G01 X-20.7095 Y15.5798
G01 X-20.7400 Y15.5662
G01 X-20.8732 Y15.5033
G01 X-20.9030 Y15.4883
G01 X-20.9320 Y15.4718
G01 X-21.0584 Y15.3961
G01 X-21.0866 Y15.3782
G01 X-21.1138 Y15.3590
G01 X-21.2321 Y15.2713
G01 X-21.2585 Y15.2507
G01 X-21.2837 Y15.2289
G01 X-21.3929 Y15.1300
G01 X-21.4170 Y15.1070
G01 X-21.4400 Y15.0829
G01 X-21.5389 Y14.9737
G01 X-21.5607 Y14.9485
G01 X-21.5813 Y14.9221
G01 X-21.6788 Y14.7903
G01 X-21.6882 Y14.7766
G01 X-21.7061 Y14.7484
G01 X-21.7818 Y14.6220
G01 X-21.7983 Y14.5930
G01 X-21.8133 Y14.5632
G01 X-21.8750 Y14.4326
G01 X-21.9367 Y14.5632
G01 X-21.9517 Y14.5930
G01 X-21.9682 Y14.6220
G01 X-22.0439 Y14.7484
G01 X-22.0618 Y14.7766
G01 X-22.0810 Y14.8038
G01 X-22.1687 Y14.9221
G01 X-22.1893 Y14.9485
G01 X-22.2111 Y14.9737
G01 X-22.3100 Y15.0829
G01 X-22.3330 Y15.1070
G01 X-22.3571 Y15.1300
G01 X-22.4663 Y15.2289
G01 X-22.4915 Y15.2507
G01 X-22.5046 Y15.2612
G01 X-22.6362 Y15.3590
G01 X-22.6634 Y15.3782
G01 X-22.6916 Y15.3961
G01 X-22.8180 Y15.4718
G01 X-22.8470 Y15.4883
G01 X-22.8768 Y15.5033
G01 X-23.0251 Y15.5732
G01 X-23.0560 Y15.5859
G01 X-23.0716 Y15.5918
G01 X-23.2103 Y15.6414
G01 X-23.2420 Y15.6518
G01 X-23.2741 Y15.6607
G01 X-23.4170 Y15.6965
G01 X-23.4496 Y15.7038
G01 X-23.4824 Y15.7096
G01 X-23.6281 Y15.7312
G01 X-23.6612 Y15.7352
G01 X-23.6945 Y15.7377
G01 X-23.8416 Y15.7449
G01 X-23.8750 Y15.7458
G01 X-23.9084 Y15.7449
G01 X-24.0555 Y15.7377
G01 X-24.0888 Y15.7352
G01 X-24.1219 Y15.7312
G01 X-24.2676 Y15.7096
G01 X-24.3004 Y15.7038
G01 X-24.3330 Y15.6965
G01 X-24.4759 Y15.6607
G01 X-24.5080 Y15.6518
G01 X-24.5397 Y15.6414
G01 X-24.6784 Y15.5918
G01 X-24.7095 Y15.5798
G01 X-24.7400 Y15.5662
G01 X-24.8732 Y15.5033
G01 X-24.9030 Y15.4883
G01 X-24.9320 Y15.4718
G01 X-25.0584 Y15.3961
G01 X-25.0866 Y15.3782
G01 X-25.1138 Y15.3590
G01 X-25.2321 Y15.2713
G01 X-25.2585 Y15.2507
G01 X-25.2837 Y15.2289
G01 X-25.3929 Y15.1300
G01 X-25.4170 Y15.1070
G01 X-25.4400 Y15.0829
G01 X-25.5389 Y14.9737
G01 X-25.5607 Y14.9485
G01 X-25.5813 Y14.9221
G01 X-25.6690 Y14.8038
G01 X-25.6882 Y14.7766
G01 X-25.7061 Y14.7484
G01 X-25.7818 Y14.6220
G01 X-25.7983 Y14.5930
G01 X-25.8133 Y14.5632
G01 X-25.8750 Y14.4326
G01 X-25.9367 Y14.5632
G01 X-25.9517 Y14.5930
G01 X-25.9682 Y14.6220
G01 X-26.0439 Y14.7484
G01 X-26.0618 Y14.7766
G01 X-26.0810 Y14.8038
G01 X-26.1687 Y14.9221
G01 X-26.1893 Y14.9485
G01 X-26.2111 Y14.9737
G01 X-26.3100 Y15.0829
G01 X-26.3330 Y15.1070
G01 X-26.3571 Y15.1300
G01 X-26.4663 Y15.2289
G01 X-26.4915 Y15.2507
G01 X-26.5179 Y15.2713
G01 X-26.6362 Y15.3590
G01 X-26.6634 Y15.3782
G01 X-26.6916 Y15.3961
G01 X-26.8180 Y15.4718
G01 X-26.8470 Y15.4883
G01 X-26.8768 Y15.5033
G01 X-27.0100 Y15.5662
G01 X-27.0405 Y15.5798
G01 X-27.0716 Y15.5918
G01 X-27.2103 Y15.6414
G01 X-27.2420 Y15.6518
G01 X-27.2741 Y15.6607
G01 X-27.4170 Y15.6965
G01 X-27.4496 Y15.7038
G01 X-27.4824 Y15.7096
G01 X-27.6281 Y15.7312
G01 X-27.6612 Y15.7352
G01 X-27.6945 Y15.7377
G01 X-27.8583 Y15.7455
G01 X-27.8750 Y15.7458
G01 X-27.9084 Y15.7449
G01 X-28.0555 Y15.7377
G01 X-28.0888 Y15.7352
G01 X-28.1219 Y15.7312
G01 X-28.2840 Y15.7069
G01 X-28.3168 Y15.7004
G01 X-28.3330 Y15.6965
G01 X-28.4920 Y15.6565
G01 X-28.5080 Y15.6518
G01 X-28.5397 Y15.6414
G01 X-28.6524 Y15.6011
G01 X-30.8927 Y17.8413
G01 X-30.9169 Y17.8643
G01 X-31.0093 Y17.9481
G01 X-31.0345 Y17.9699
G01 X-31.0476 Y17.9803
G01 X-31.1610 Y18.0647
G01 X-31.1883 Y18.0839
G01 X-31.2165 Y18.1017
G01 X-31.3379 Y18.1743
G01 X-31.3673 Y18.1900
G01 X-31.3823 Y18.1973
G01 X-31.4950 Y18.2506
G01 X-31.5255 Y18.2642
G01 X-31.5567 Y18.2762
G01 X-31.6741 Y18.3182
G01 X-31.7058 Y18.3286
G01 X-31.7379 Y18.3375
G01 X-31.8589 Y18.3678
G01 X-31.8914 Y18.3752
G01 X-31.9243 Y18.3809
G01 X-32.0477 Y18.3992
G01 X-32.0808 Y18.4032
G01 X-32.1141 Y18.4057
G01 X-32.2386 Y18.4118
G01 X-32.2720 Y18.4126
G01 X-36.4657 Y18.4124
G01 X-36.6069 Y18.4057
G01 X-36.6402 Y18.4032
G01 X-36.6733 Y18.3992
G01 X-36.7967 Y18.3809
G01 X-36.8296 Y18.3752
G01 X-36.8621 Y18.3678
G01 X-36.9831 Y18.3375
G01 X-37.0152 Y18.3286
G01 X-37.0469 Y18.3182
G01 X-37.1643 Y18.2762
G01 X-37.1955 Y18.2642
G01 X-37.2260 Y18.2506
G01 X-37.3387 Y18.1973
G01 X-37.3685 Y18.1823
G01 X-37.3976 Y18.1659
G01 X-37.5045 Y18.1017
G01 X-37.5327 Y18.0839
G01 X-37.5600 Y18.0647
G01 X-37.6602 Y17.9904
G01 X-37.6865 Y17.9699
G01 X-37.7117 Y17.9481
G01 X-37.8041 Y17.8643
G01 X-37.8283 Y17.8413
G01 X-37.8400 Y17.8294
G01 X-37.9351 Y17.7247
G01 X-37.9569 Y17.6995
G01 X-37.9774 Y17.6732
G01 X-38.0517 Y17.5730
G01 X-38.0709 Y17.5457
G01 X-38.0887 Y17.5175
G01 X-38.1613 Y17.3961
G01 X-38.1693 Y17.3815
G01 X-38.1843 Y17.3517
G01 X-38.2376 Y17.2390
G01 X-38.2512 Y17.2085
G01 X-38.2632 Y17.1773
G01 X-38.3052 Y17.0599
G01 X-38.3156 Y17.0282
G01 X-38.3245 Y16.9961
G01 X-38.3548 Y16.8751
G01 X-38.3622 Y16.8426
G01 X-38.3679 Y16.8097
G01 X-38.3862 Y16.6863
G01 X-38.3902 Y16.6532
G01 X-38.3927 Y16.6199
G01 X-38.3988 Y16.4954
G01 X-38.3996 Y16.4620
G01 X-38.3988 Y16.4286
G01 X-38.3917 Y16.2874
G01 X-38.3902 Y16.2708
G01 X-38.3862 Y16.2377
G01 X-38.3679 Y16.1143
G01 X-38.3622 Y16.0814
G01 X-38.3548 Y16.0489
G01 X-38.3245 Y15.9279
G01 X-38.3156 Y15.8958
G01 X-38.3052 Y15.8641
G01 X-38.2632 Y15.7467
G01 X-38.2512 Y15.7155
G01 X-38.2376 Y15.6850
G01 X-38.1843 Y15.5723
G01 X-38.1693 Y15.5425
G01 X-38.1529 Y15.5134
G01 X-38.0887 Y15.4065
G01 X-38.0709 Y15.3783
G01 X-38.0517 Y15.3510
G01 X-37.9774 Y15.2508
G01 X-37.9569 Y15.2245
G01 X-37.9351 Y15.1993
G01 X-37.8513 Y15.1069
G01 X-37.8283 Y15.0827
G01 X-37.8041 Y15.0597
G01 X-37.7117 Y14.9759
G01 X-37.6865 Y14.9541
G01 X-37.6602 Y14.9336
G01 X-37.5600 Y14.8593
G01 X-37.5327 Y14.8401
G01 X-37.5045 Y14.8223
G01 X-37.3976 Y14.7581
G01 X-37.3685 Y14.7417
G01 X-37.3387 Y14.7267
G01 X-37.2260 Y14.6734
G01 X-37.1955 Y14.6598
G01 X-37.1800 Y14.6537
G01 X-37.0469 Y14.6058
G01 X-37.0152 Y14.5954
G01 X-36.9831 Y14.5865
G01 X-36.8621 Y14.5562
G01 X-36.8296 Y14.5488
G01 X-36.7967 Y14.5431
G01 X-36.6733 Y14.5248
G01 X-36.6402 Y14.5208
G01 X-36.6069 Y14.5183
G01 X-36.4657 Y14.5116
G01 X-33.0800 Y14.5114
G01 X-30.0558 Y11.4871
G01 X-30.0558 Y10.5650
G01 X-30.0549 Y10.5316
G01 X-30.0477 Y10.3845
G01 X-30.0452 Y10.3512
G01 X-30.0412 Y10.3181
G01 X-30.0196 Y10.1724
G01 X-30.0138 Y10.1396
G01 X-30.0065 Y10.1070
G01 X-29.9707 Y9.9641
G01 X-29.9618 Y9.9320
G01 X-29.9514 Y9.9003
G01 X-29.9018 Y9.7616
G01 X-29.8898 Y9.7305
G01 X-29.8762 Y9.7000
G01 X-29.8133 Y9.5668
G01 X-29.7983 Y9.5370
G01 X-29.7818 Y9.5080
G01 X-29.7061 Y9.3816
G01 X-29.6882 Y9.3534
G01 X-29.6690 Y9.3262
G01 X-29.5813 Y9.2079
G01 X-29.5607 Y9.1815
G01 X-29.5389 Y9.1563
G01 X-29.4400 Y9.0471
G01 X-29.4170 Y9.0230
G01 X-29.3929 Y9.0000
G01 X-29.2712 Y8.8900
G01 X-29.2585 Y8.8793
G01 X-29.2321 Y8.8587
G01 X-29.1138 Y8.7710
G01 X-29.0866 Y8.7518
G01 X-29.0584 Y8.7339
G01 X-28.9320 Y8.6582
G01 X-28.9030 Y8.6417
G01 X-28.8732 Y8.6267
G01 X-28.7400 Y8.5638
G01 X-28.7095 Y8.5502
G01 X-28.6784 Y8.5382
G01 X-28.5397 Y8.4886
G01 X-28.5080 Y8.4782
G01 X-28.4759 Y8.4693
G01 X-28.3330 Y8.4335
G01 X-28.3004 Y8.4262
G01 X-28.2676 Y8.4204
G01 X-28.1219 Y8.3988
G01 X-28.0888 Y8.3948
G01 X-28.0555 Y8.3923
G01 X-27.9084 Y8.3851
G01 X-27.8750 Y8.3842
G01 X-27.8416 Y8.3851
G01 X-27.6945 Y8.3923
G01 X-27.6612 Y8.3948
G01 X-27.6281 Y8.3988
G01 X-27.4824 Y8.4204
G01 X-27.4496 Y8.4262
G01 X-27.4170 Y8.4335
G01 X-27.2741 Y8.4693
G01 X-27.2420 Y8.4782
G01 X-27.2103 Y8.4886
G01 X-27.0716 Y8.5382
G01 X-27.0405 Y8.5502
G01 X-27.0100 Y8.5638
G01 X-26.8768 Y8.6267
G01 X-26.8618 Y8.6341
G01 X-26.8324 Y8.6498
G01 X-26.6916 Y8.7339
G01 X-26.6774 Y8.7427
G01 X-26.6497 Y8.7612
G01 X-26.5046 Y8.8688
G01 X-26.4915 Y8.8793
G01 X-26.4663 Y8.9011
G01 X-26.3571 Y9.0000
G01 X-26.3330 Y9.0230
G01 X-26.3213 Y9.0349
G01 X-26.2000 Y9.1688
G01 X-26.1788 Y9.1946
G01 X-26.1687 Y9.2079
G01 X-26.0712 Y9.3397
G01 X-26.0527 Y9.3674
G01 X-26.0439 Y9.3816
G01 X-25.9682 Y9.5080
G01 X-25.9517 Y9.5370
G01 X-25.9367 Y9.5668
G01 X-25.8750 Y9.6974
G01 X-25.8133 Y9.5668
G01 X-25.7983 Y9.5370
G01 X-25.7818 Y9.5080
G01 X-25.6973 Y9.3674
G01 X-25.6882 Y9.3534
G01 X-25.6690 Y9.3262
G01 X-25.5712 Y9.1946
G01 X-25.5500 Y9.1688
G01 X-25.5080 Y9.1221
G01 X-25.5080 Y8.3810
G01 X-25.5072 Y8.3476
G01 X-25.5015 Y8.2376
G01 X-25.5001 Y8.2209
G01 X-25.4960 Y8.1878
G01 X-25.4823 Y8.0953
G01 X-25.4766 Y8.0624
G01 X-25.4693 Y8.0299
G01 X-25.4423 Y7.9230
G01 X-25.4326 Y7.8911
G01 X-25.4272 Y7.8753
G01 X-25.3957 Y7.7872
G01 X-25.3837 Y7.7561
G01 X-25.3701 Y7.7256
G01 X-25.3302 Y7.6410
G01 X-25.3152 Y7.6112
G01 X-25.3071 Y7.5966
G01 X-25.2419 Y7.4878
G01 X-25.2233 Y7.4600
G01 X-25.2136 Y7.4465
G01 X-25.1578 Y7.3714
G01 X-25.1373 Y7.3451
G01 X-25.1155 Y7.3198
G01 X-25.0527 Y7.2505
G01 X-25.0297 Y7.2263
G01 X-25.0010 Y7.1976
G01 X-25.0010 Y-4.7164
G01 X-25.0650 Y-4.7804
G01 X-32.2120 Y-4.7804
G01 X-32.2147 Y-4.7776
G01 X-32.2181 Y-4.7428
G01 X-32.2204 Y-4.7262
G01 X-32.2261 Y-4.6933
G01 X-32.2334 Y-4.6608
G01 X-32.2423 Y-4.6286
G01 X-32.2473 Y-4.6127
G01 X-32.2586 Y-4.5813
G01 X-32.2713 Y-4.5504
G01 X-32.2856 Y-4.5203
G01 X-32.3013 Y-4.4908
G01 X-32.3097 Y-4.4764
G01 X-32.3276 Y-4.4482
G01 X-32.3468 Y-4.4209
G01 X-32.3674 Y-4.3946
G01 X-32.3781 Y-4.3818
G01 X-32.4005 Y-4.3571
G01 X-32.4241 Y-4.3335
G01 X-32.4363 Y-4.3222
G01 X-32.4616 Y-4.3004
G01 X-32.4746 Y-4.2899
G01 X-32.5015 Y-4.2700
G01 X-32.5292 Y-4.2515
G01 X-32.5434 Y-4.2427
G01 X-32.5725 Y-4.2263
G01 X-32.5873 Y-4.2186
G01 X-32.6174 Y-4.2043
G01 X-32.6483 Y-4.1916
G01 X-32.6797 Y-4.1803
G01 X-32.7116 Y-4.1706
G01 X-32.7278 Y-4.1664
G01 X-32.7440 Y-4.1625
G01 X-32.7767 Y-4.1560
G01 X-32.7932 Y-4.1534
G01 X-32.8263 Y-4.1493
G01 X-32.8430 Y-4.1478
G01 X-32.8763 Y-4.1462
G01 X-32.9473 Y-4.1460
G01 X-32.9749 Y-4.1297
G01 X-32.9895 Y-4.1217
G01 X-33.0193 Y-4.1067
G01 X-33.1320 Y-4.0534
G01 X-33.1472 Y-4.0464
G01 X-33.1780 Y-4.0337
G01 X-33.3111 Y-3.9858
G01 X-33.3428 Y-3.9754
G01 X-33.3749 Y-3.9665
G01 X-33.4959 Y-3.9362
G01 X-33.5284 Y-3.9288
G01 X-33.5613 Y-3.9231
G01 X-33.6847 Y-3.9048
G01 X-33.7178 Y-3.9008
G01 X-33.7511 Y-3.8983
G01 X-33.8756 Y-3.8922
G01 X-33.9090 Y-3.8914
G01 X-33.9424 Y-3.8922
G01 X-34.0669 Y-3.8983
G01 X-34.1002 Y-3.9008
G01 X-34.1333 Y-3.9048
G01 X-34.2731 Y-3.9258
G01 X-34.3059 Y-3.9323
G01 X-34.3221 Y-3.9362
G01 X-34.4431 Y-3.9665
G01 X-34.4752 Y-3.9754
G01 X-34.5069 Y-3.9858
G01 X-34.6243 Y-4.0278
G01 X-34.6555 Y-4.0398
G01 X-34.6708 Y-4.0464
G01 X-34.7987 Y-4.1067
G01 X-34.8285 Y-4.1217
G01 X-34.8431 Y-4.1297
G01 X-34.8707 Y-4.1460
G01 X-34.9250 Y-4.1460
G01 X-34.9584 Y-4.1468
G01 X-34.9750 Y-4.1478
G01 X-35.0082 Y-4.1511
G01 X-35.0413 Y-4.1560
G01 X-35.0740 Y-4.1625
G01 X-35.1064 Y-4.1706
G01 X-35.1383 Y-4.1803
G01 X-35.1541 Y-4.1858
G01 X-35.1852 Y-4.1978
G01 X-35.2157 Y-4.2113
G01 X-35.2455 Y-4.2263
G01 X-35.2746 Y-4.2427
G01 X-35.2888 Y-4.2515
G01 X-35.3165 Y-4.2700
G01 X-35.3434 Y-4.2899
G01 X-35.3692 Y-4.3111
G01 X-35.3817 Y-4.3222
G01 X-35.4058 Y-4.3452
G01 X-35.4288 Y-4.3693
G01 X-35.4399 Y-4.3818
G01 X-35.4611 Y-4.4076
G01 X-35.4810 Y-4.4345
G01 X-35.4995 Y-4.4622
G01 X-35.5167 Y-4.4908
G01 X-35.5247 Y-4.5055
G01 X-35.5397 Y-4.5353
G01 X-35.5467 Y-4.5504
G01 X-35.5532 Y-4.5658
G01 X-35.5652 Y-4.5969
G01 X-35.5707 Y-4.6127
G01 X-35.5804 Y-4.6446
G01 X-35.5885 Y-4.6770
G01 X-35.5950 Y-4.7097
G01 X-35.5976 Y-4.7262
G01 X-35.6017 Y-4.7593
G01 X-35.6032 Y-4.7760
G01 X-35.6048 Y-4.8093
G01 X-35.6050 Y-4.8803
G01 X-35.6213 Y-4.9079
G01 X-35.6370 Y-4.9373
G01 X-35.6976 Y-5.0650
G01 X-35.7112 Y-5.0955
G01 X-35.7232 Y-5.1267
G01 X-35.7652 Y-5.2441
G01 X-35.7706 Y-5.2599
G01 X-35.7803 Y-5.2918
G01 X-35.8148 Y-5.4289
G01 X-35.8222 Y-5.4614
G01 X-35.8279 Y-5.4943
G01 X-35.8462 Y-5.6177
G01 X-35.8502 Y-5.6508
G01 X-35.8527 Y-5.6841
G01 X-35.8588 Y-5.8086
G01 X-35.8596 Y-5.8420
G01 X-35.8588 Y-5.8754
G01 X-35.8527 Y-5.9999
G01 X-35.8502 Y-6.0332
G01 X-35.8462 Y-6.0663
G01 X-35.8279 Y-6.1897
G01 X-35.8222 Y-6.2226
G01 X-35.8148 Y-6.2551
G01 X-35.7845 Y-6.3761
G01 X-35.7756 Y-6.4082
G01 X-35.7652 Y-6.4399
G01 X-35.7232 Y-6.5573
G01 X-35.7173 Y-6.5730
G01 X-35.7046 Y-6.6038
G01 X-35.6370 Y-6.7467
G01 X-35.6213 Y-6.7761
G01 X-35.6050 Y-6.8037
G01 X-35.6050 Y-6.8580
G01 X-35.6042 Y-6.8914
G01 X-35.6017 Y-6.9247
G01 X-35.5976 Y-6.9578
G01 X-35.5919 Y-6.9907
G01 X-35.5846 Y-7.0232
G01 X-35.5757 Y-7.0554
G01 X-35.5652 Y-7.0871
G01 X-35.5594 Y-7.1027
G01 X-35.5467 Y-7.1336
G01 X-35.5324 Y-7.1637
G01 X-35.5167 Y-7.1932
G01 X-35.4995 Y-7.2218
G01 X-35.4904 Y-7.2358
G01 X-35.4712 Y-7.2631
G01 X-35.4506 Y-7.2894
G01 X-35.4288 Y-7.3147
G01 X-35.4058 Y-7.3388
G01 X-35.3817 Y-7.3618
G01 X-35.3564 Y-7.3836
G01 X-35.3301 Y-7.4042
G01 X-35.3028 Y-7.4234
G01 X-35.2746 Y-7.4413
G01 X-35.2455 Y-7.4577
G01 X-35.2157 Y-7.4727
G01 X-35.1852 Y-7.4862
G01 X-35.1541 Y-7.4982
G01 X-35.1224 Y-7.5087
G01 X-35.0902 Y-7.5176
G01 X-35.0577 Y-7.5249
G01 X-35.0248 Y-7.5306
G01 X-34.9917 Y-7.5347
G01 X-34.9734 Y-7.5363
G01 X-34.3993 Y-8.1103
G01 X-34.3751 Y-8.1333
G01 X-34.2702 Y-8.2281
G01 X-34.2575 Y-8.2389
G01 X-34.2312 Y-8.2594
G01 X-34.1310 Y-8.3337
G01 X-34.1037 Y-8.3529
G01 X-34.0755 Y-8.3707
G01 X-33.9686 Y-8.4349
G01 X-33.9541 Y-8.4433
G01 X-33.9247 Y-8.4590
G01 X-33.7970 Y-8.5196
G01 X-33.7818 Y-8.5266
G01 X-33.7510 Y-8.5393
G01 X-33.6021 Y-8.5926
G01 X-33.5702 Y-8.6023
G01 X-33.5541 Y-8.6065
G01 X-33.4331 Y-8.6368
G01 X-33.4006 Y-8.6442
G01 X-33.3677 Y-8.6499
G01 X-33.2443 Y-8.6682
G01 X-33.2112 Y-8.6722
G01 X-33.1946 Y-8.6737
G01 X-33.0367 Y-8.6814
G01 X-24.2570 Y-8.6816
G01 X-24.2236 Y-8.6808
G01 X-24.0991 Y-8.6747
G01 X-24.0824 Y-8.6737
G01 X-24.0492 Y-8.6704
G01 X-23.9093 Y-8.6499
G01 X-23.8764 Y-8.6442
G01 X-23.8439 Y-8.6368
G01 X-23.7229 Y-8.6065
G01 X-23.6908 Y-8.5976
G01 X-23.6591 Y-8.5872
G01 X-23.5417 Y-8.5452
G01 X-23.5105 Y-8.5332
G01 X-23.4800 Y-8.5196
G01 X-23.3673 Y-8.4663
G01 X-23.3375 Y-8.4513
G01 X-23.3084 Y-8.4349
G01 X-23.2015 Y-8.3707
G01 X-23.1733 Y-8.3529
G01 X-23.1460 Y-8.3337
G01 X-23.0458 Y-8.2594
G01 X-23.0195 Y-8.2389
G01 X-22.9943 Y-8.2171
G01 X-22.9019 Y-8.1333
G01 X-22.8777 Y-8.1103
G01 X-21.9770 Y-7.2094
G01 X-21.8819 Y-7.1047
G01 X-21.8601 Y-7.0795
G01 X-21.8396 Y-7.0532
G01 X-21.7653 Y-6.9530
G01 X-21.7461 Y-6.9257
G01 X-21.7283 Y-6.8975
G01 X-21.6641 Y-6.7906
G01 X-21.6477 Y-6.7615
G01 X-21.6327 Y-6.7317
G01 X-21.5794 Y-6.6190
G01 X-21.5658 Y-6.5885
G01 X-21.5538 Y-6.5573
G01 X-21.5118 Y-6.4399
G01 X-21.5014 Y-6.4082
G01 X-21.4925 Y-6.3761
G01 X-21.4622 Y-6.2551
G01 X-21.4548 Y-6.2226
G01 X-21.4491 Y-6.1897
G01 X-21.4308 Y-6.0663
G01 X-21.4268 Y-6.0332
G01 X-21.4243 Y-5.9999
G01 X-21.4182 Y-5.8754
G01 X-21.4174 Y-5.8420
G01 X-21.4182 Y-5.8086
G01 X-21.4243 Y-5.6841
G01 X-21.4268 Y-5.6508
G01 X-21.4308 Y-5.6177
G01 X-21.4491 Y-5.4943
G01 X-21.4548 Y-5.4614
G01 X-21.4622 Y-5.4289
G01 X-21.4925 Y-5.3079
G01 X-21.5014 Y-5.2758
G01 X-21.5118 Y-5.2441
G01 X-21.5538 Y-5.1267
G01 X-21.5658 Y-5.0955
G01 X-21.5794 Y-5.0650
G01 X-21.6327 Y-4.9523
G01 X-21.6477 Y-4.9225
G01 X-21.6641 Y-4.8934
G01 X-21.7350 Y-4.7755
G01 X-21.7352 Y7.8907
G01 X-21.7404 Y8.0008
G01 X-21.7429 Y8.0341
G01 X-21.7470 Y8.0672
G01 X-21.7607 Y8.1597
G01 X-21.7664 Y8.1926
G01 X-21.7737 Y8.2251
G01 X-21.7964 Y8.3159
G01 X-21.8053 Y8.3480
G01 X-21.8158 Y8.3797
G01 X-21.8473 Y8.4678
G01 X-21.8593 Y8.4989
G01 X-21.8659 Y8.5143
G01 X-21.9128 Y8.6140
G01 X-21.9278 Y8.6438
G01 X-21.9443 Y8.6728
G01 X-21.9924 Y8.7530
G01 X-22.0102 Y8.7812
G01 X-22.0197 Y8.7950
G01 X-22.0852 Y8.8836
G01 X-22.1057 Y8.9099
G01 X-22.1164 Y8.9227
G01 X-22.2017 Y9.0167
G01 X-22.2420 Y9.0574
G01 X-22.2420 Y9.1221
G01 X-22.2000 Y9.1688
G01 X-22.1788 Y9.1946
G01 X-22.0810 Y9.3262
G01 X-22.0712 Y9.3397
G01 X-22.0527 Y9.3674
G01 X-21.9682 Y9.5080
G01 X-21.9517 Y9.5370
G01 X-21.9367 Y9.5668
G01 X-21.8750 Y9.6974
G01 X-21.8133 Y9.5668
G01 X-21.7983 Y9.5370
G01 X-21.7818 Y9.5080
G01 X-21.7061 Y9.3816
G01 X-21.6882 Y9.3534
G01 X-21.6690 Y9.3262
G01 X-21.5813 Y9.2079
G01 X-21.5607 Y9.1815
G01 X-21.5389 Y9.1563
G01 X-21.4400 Y9.0471
G01 X-21.4170 Y9.0230
G01 X-21.3929 Y9.0000
G01 X-21.2837 Y8.9011
G01 X-21.2585 Y8.8793
G01 X-21.2321 Y8.8587
G01 X-21.1138 Y8.7710
G01 X-21.0866 Y8.7518
G01 X-21.0584 Y8.7339
G01 X-20.9320 Y8.6582
G01 X-20.9030 Y8.6417
G01 X-20.8732 Y8.6267
G01 X-20.7287 Y8.5586
G01 X-18.6992 Y-0.9127
G01 X-18.6992 Y-2.0652
G01 X-18.6984 Y-2.0986
G01 X-18.6959 Y-2.1319
G01 X-18.6918 Y-2.1650
G01 X-18.6861 Y-2.1979
G01 X-18.6788 Y-2.2304
G01 X-18.6699 Y-2.2626
G01 X-18.6594 Y-2.2943
G01 X-18.6474 Y-2.3254
G01 X-18.6339 Y-2.3559
G01 X-18.6266 Y-2.3709
G01 X-18.6109 Y-2.4004
G01 X-18.5937 Y-2.4290
G01 X-18.5752 Y-2.4567
G01 X-18.5553 Y-2.4836
G01 X-18.5341 Y-2.5094
G01 X-18.5117 Y-2.5341
G01 X-18.4881 Y-2.5577
G01 X-18.4634 Y-2.5801
G01 X-18.4506 Y-2.5908
G01 X-18.4243 Y-2.6114
G01 X-18.3970 Y-2.6306
G01 X-18.3688 Y-2.6485
G01 X-18.3397 Y-2.6649
G01 X-18.3249 Y-2.6726
G01 X-18.2948 Y-2.6869
G01 X-18.2639 Y-2.6996
G01 X-18.2325 Y-2.7109
G01 X-18.2166 Y-2.7159
G01 X-18.1844 Y-2.7248
G01 X-18.1682 Y-2.7287
G01 X-18.1355 Y-2.7352
G01 X-18.1024 Y-2.7401
G01 X-18.0859 Y-2.7419
G01 X-18.0526 Y-2.7444
G01 X-18.0359 Y-2.7450
G01 X-16.0888 Y-2.7452
G01 X-16.0554 Y-2.7444
G01 X-16.0388 Y-2.7434
G01 X-16.0056 Y-2.7401
G01 X-15.9725 Y-2.7352
G01 X-15.9561 Y-2.7321
G01 X-15.9236 Y-2.7248
G01 X-15.8914 Y-2.7159
G01 X-15.8597 Y-2.7054
G01 X-15.8286 Y-2.6934
G01 X-15.8132 Y-2.6869
G01 X-15.7831 Y-2.6726
G01 X-15.7536 Y-2.6569
G01 X-15.7250 Y-2.6397
G01 X-15.6973 Y-2.6212
G01 X-15.6704 Y-2.6013
G01 X-15.6574 Y-2.5908
G01 X-15.6321 Y-2.5690
G01 X-15.6080 Y-2.5460
G01 X-15.5963 Y-2.5341
G01 X-15.5739 Y-2.5094
G01 X-15.5632 Y-2.4966
G01 X-15.5426 Y-2.4703
G01 X-15.5234 Y-2.4430
G01 X-15.5143 Y-2.4290
G01 X-15.4971 Y-2.4004
G01 X-15.4891 Y-2.3857
G01 X-15.4741 Y-2.3559
G01 X-15.4606 Y-2.3254
G01 X-15.4486 Y-2.2943
G01 X-15.4431 Y-2.2785
G01 X-15.4334 Y-2.2466
G01 X-15.4253 Y-2.2142
G01 X-15.4219 Y-2.1979
G01 X-15.4162 Y-2.1650
G01 X-15.4121 Y-2.1319
G01 X-15.4096 Y-2.0986
G01 X-15.4088 Y-2.0652
G01 X-15.4088 Y-0.1348
G01 X-15.4096 Y-0.1014
G01 X-15.4121 Y-0.0681
G01 X-15.4162 Y-0.0350
G01 X-15.4219 Y-0.0021
G01 X-15.4253 Y0.0142
G01 X-15.4334 Y0.0466
G01 X-15.4431 Y0.0785
G01 X-15.4544 Y0.1099
G01 X-15.4606 Y0.1254
G01 X-15.4741 Y0.1559
G01 X-15.4814 Y0.1709
G01 X-15.4971 Y0.2004
G01 X-15.5143 Y0.2290
G01 X-15.5328 Y0.2567
G01 X-15.5527 Y0.2836
G01 X-15.5739 Y0.3094
G01 X-15.5963 Y0.3341
G01 X-15.6199 Y0.3577
G01 X-15.6446 Y0.3801
G01 X-15.6574 Y0.3908
G01 X-15.6837 Y0.4114
G01 X-15.6973 Y0.4212
G01 X-15.7250 Y0.4397
G01 X-15.7536 Y0.4569
G01 X-15.7683 Y0.4649
G01 X-15.7862 Y0.4741
G01 X-17.6892 Y9.3550
G01 X-17.6690 Y9.3262
G01 X-17.5813 Y9.2079
G01 X-17.5712 Y9.1946
G01 X-17.5500 Y9.1688
G01 X-17.4287 Y9.0349
G01 X-17.4051 Y9.0113
G01 X-17.3380 Y8.9502
G01 X-17.3165 Y8.3279
G01 X-17.3156 Y8.3088
G01 X-17.3141 Y8.2898
G01 X-17.3035 Y8.1751
G01 X-17.2994 Y8.1449
G01 X-17.2939 Y8.1148
G01 X-17.2738 Y8.0170
G01 X-17.2670 Y7.9872
G01 X-17.2588 Y7.9578
G01 X-17.2542 Y7.9432
G01 X-17.2171 Y7.8302
G01 X-17.2104 Y7.8123
G01 X-13.6945 Y-1.2126
G01 X-13.6927 Y-1.2446
G01 X-13.6894 Y-1.2778
G01 X-13.6733 Y-1.3881
G01 X-13.6706 Y-1.4046
G01 X-13.6641 Y-1.4373
G01 X-13.6373 Y-1.5454
G01 X-13.6284 Y-1.5776
G01 X-13.6179 Y-1.6093
G01 X-13.5802 Y-1.7141
G01 X-13.5674 Y-1.7449
G01 X-13.5199 Y-1.8457
G01 X-13.5049 Y-1.8755
G01 X-13.4885 Y-1.9046
G01 X-13.4398 Y-1.9858
G01 X-13.4219 Y-2.0140
G01 X-13.4027 Y-2.0413
G01 X-13.3362 Y-2.1307
G01 X-13.3150 Y-2.1565
G01 X-13.3040 Y-2.1690
G01 X-13.2290 Y-2.2514
G01 X-13.2054 Y-2.2750
G01 X-13.1230 Y-2.3500
G01 X-13.0977 Y-2.3718
G01 X-13.0714 Y-2.3923
G01 X-12.9953 Y-2.4487
G01 X-12.9680 Y-2.4679
G01 X-12.9398 Y-2.4858
G01 X-12.8442 Y-2.5429
G01 X-12.8295 Y-2.5509
G01 X-12.7997 Y-2.5659
G01 X-12.7141 Y-2.6064
G01 X-12.6836 Y-2.6200
G01 X-12.6525 Y-2.6320
G01 X-12.5633 Y-2.6639
G01 X-12.5316 Y-2.6744
G01 X-12.4994 Y-2.6833
G01 X-12.4075 Y-2.7063
G01 X-12.3750 Y-2.7136
G01 X-12.3421 Y-2.7193
G01 X-12.2484 Y-2.7332
G01 X-12.2153 Y-2.7373
G01 X-12.1820 Y-2.7397
G01 X-12.0707 Y-2.7450
G01 X-12.0540 Y-2.7452
G01 X-12.0206 Y-2.7444
G01 X-11.9094 Y-2.7387
G01 X-11.8762 Y-2.7354
G01 X-11.7659 Y-2.7193
G01 X-11.7330 Y-2.7136
G01 X-11.7167 Y-2.7101
G01 X-11.6086 Y-2.6833
G01 X-11.5764 Y-2.6744
G01 X-11.5447 Y-2.6639
G01 X-11.4555 Y-2.6320
G01 X-11.4244 Y-2.6200
G01 X-11.4091 Y-2.6134
G01 X-11.3083 Y-2.5659
G01 X-11.2785 Y-2.5509
G01 X-11.2494 Y-2.5345
G01 X-11.1682 Y-2.4858
G01 X-11.1400 Y-2.4679
G01 X-11.1262 Y-2.4585
G01 X-11.0366 Y-2.3923
G01 X-11.0233 Y-2.3822
G01 X-10.9975 Y-2.3610
G01 X-10.9026 Y-2.2750
G01 X-10.8790 Y-2.2514
G01 X-10.8361 Y-2.2043
G01 X-6.9440 Y-2.2043
G01 X-6.9440 Y-2.2390
G01 X-6.9432 Y-2.2724
G01 X-6.9407 Y-2.3057
G01 X-6.9366 Y-2.3388
G01 X-6.9309 Y-2.3717
G01 X-6.9236 Y-2.4042
G01 X-6.9147 Y-2.4364
G01 X-6.9042 Y-2.4681
G01 X-6.8922 Y-2.4992
G01 X-6.8787 Y-2.5297
G01 X-6.8637 Y-2.5595
G01 X-6.8473 Y-2.5886
G01 X-6.8294 Y-2.6168
G01 X-6.8102 Y-2.6441
G01 X-6.7896 Y-2.6704
G01 X-6.7678 Y-2.6957
G01 X-6.7448 Y-2.7198
G01 X-6.7207 Y-2.7428
G01 X-6.6954 Y-2.7646
G01 X-6.6691 Y-2.7852
G01 X-6.6555 Y-2.7950
G01 X-6.6278 Y-2.8135
G01 X-6.5992 Y-2.8307
G01 X-6.5697 Y-2.8464
G01 X-6.5396 Y-2.8607
G01 X-6.5087 Y-2.8734
G01 X-6.4773 Y-2.8847
G01 X-6.4454 Y-2.8944
G01 X-6.4130 Y-2.9025
G01 X-6.3803 Y-2.9090
G01 X-6.3472 Y-2.9139
G01 X-6.3140 Y-2.9172
G01 X-6.2807 Y-2.9188
G01 X-4.6640 Y-2.9190
G01 X-4.6473 Y-2.9188
G01 X-4.6140 Y-2.9172
G01 X-4.5808 Y-2.9139
G01 X-4.5477 Y-2.9090
G01 X-4.5150 Y-2.9025
G01 X-4.4988 Y-2.8986
G01 X-4.4666 Y-2.8897
G01 X-4.4507 Y-2.8847
G01 X-4.4193 Y-2.8734
G01 X-4.3884 Y-2.8607
G01 X-4.3583 Y-2.8464
G01 X-4.3435 Y-2.8387
G01 X-4.3144 Y-2.8223
G01 X-4.2862 Y-2.8044
G01 X-4.2589 Y-2.7852
G01 X-4.2326 Y-2.7646
G01 X-4.2198 Y-2.7539
G01 X-4.1951 Y-2.7315
G01 X-4.1715 Y-2.7079
G01 X-4.1491 Y-2.6832
G01 X-4.1279 Y-2.6574
G01 X-4.1178 Y-2.6441
G01 X-4.0986 Y-2.6168
G01 X-4.0807 Y-2.5886
G01 X-4.0640 Y-2.5590
G01 X-4.0473 Y-2.5886
G01 X-4.0294 Y-2.6168
G01 X-4.0102 Y-2.6441
G01 X-4.0001 Y-2.6574
G01 X-3.9789 Y-2.6832
G01 X-3.9678 Y-2.6957
G01 X-3.9448 Y-2.7198
G01 X-3.9207 Y-2.7428
G01 X-3.9082 Y-2.7539
G01 X-3.8824 Y-2.7751
G01 X-3.8555 Y-2.7950
G01 X-3.8418 Y-2.8044
G01 X-3.8136 Y-2.8223
G01 X-3.7845 Y-2.8387
G01 X-3.7547 Y-2.8537
G01 X-3.7242 Y-2.8672
G01 X-3.6931 Y-2.8792
G01 X-3.6773 Y-2.8847
G01 X-3.6454 Y-2.8944
G01 X-3.6130 Y-2.9025
G01 X-3.5967 Y-2.9059
G01 X-3.5638 Y-2.9116
G01 X-3.5307 Y-2.9157
G01 X-3.5140 Y-2.9172
G01 X-3.4974 Y-2.9182
G01 X-3.4640 Y-2.9190
G01 X-1.8640 Y-2.9190
G01 X-1.8473 Y-2.9188
G01 X-1.8140 Y-2.9172
G01 X-1.7808 Y-2.9139
G01 X-1.7477 Y-2.9090
G01 X-1.7150 Y-2.9025
G01 X-1.6988 Y-2.8986
G01 X-1.6666 Y-2.8897
G01 X-1.6507 Y-2.8847
G01 X-1.6193 Y-2.8734
G01 X-1.5884 Y-2.8607
G01 X-1.5583 Y-2.8464
G01 X-1.5435 Y-2.8387
G01 X-1.5144 Y-2.8223
G01 X-1.4862 Y-2.8044
G01 X-1.4589 Y-2.7852
G01 X-1.4456 Y-2.7751
G01 X-1.4198 Y-2.7539
G01 X-1.3951 Y-2.7315
G01 X-1.3715 Y-2.7079
G01 X-1.3602 Y-2.6957
G01 X-1.3384 Y-2.6704
G01 X-1.3178 Y-2.6441
G01 X-1.3080 Y-2.6305
G01 X-1.2895 Y-2.6028
G01 X-1.2723 Y-2.5742
G01 X-1.2643 Y-2.5595
G01 X-1.2566 Y-2.5447
G01 X-1.2423 Y-2.5146
G01 X-1.2358 Y-2.4992
G01 X-1.2238 Y-2.4681
G01 X-1.2183 Y-2.4523
G01 X-1.2086 Y-2.4204
G01 X-1.2044 Y-2.4042
G01 X-1.1971 Y-2.3717
G01 X-1.1914 Y-2.3388
G01 X-1.1891 Y-2.3222
G01 X-1.1858 Y-2.2890
G01 X-1.1842 Y-2.2557
G01 X-1.1840 Y-2.2390
G01 X-1.1840 Y0.4610
G01 X-1.1848 Y0.4944
G01 X-1.1858 Y0.5110
G01 X-1.1891 Y0.5442
G01 X-1.1914 Y0.5608
G01 X-1.1971 Y0.5937
G01 X-1.2044 Y0.6262
G01 X-1.2133 Y0.6584
G01 X-1.2183 Y0.6743
G01 X-1.2296 Y0.7057
G01 X-1.2423 Y0.7366
G01 X-1.2566 Y0.7667
G01 X-1.2643 Y0.7815
G01 X-1.2807 Y0.8106
G01 X-1.2986 Y0.8388
G01 X-1.3080 Y0.8525
G01 X-1.3279 Y0.8794
G01 X-1.3487 Y0.9047
G01 X-1.3487 Y3.9213
G01 X-1.3279 Y3.9466
G01 X-1.3080 Y3.9735
G01 X-1.2986 Y3.9872
G01 X-1.2807 Y4.0154
G01 X-1.2723 Y4.0298
G01 X-1.2566 Y4.0593
G01 X-1.2423 Y4.0894
G01 X-1.2296 Y4.1203
G01 X-1.2183 Y4.1517
G01 X-1.2086 Y4.1836
G01 X-1.2005 Y4.2160
G01 X-1.1971 Y4.2323
G01 X-1.1940 Y4.2487
G01 X-1.1891 Y4.2818
G01 X-1.1858 Y4.3150
G01 X-1.1842 Y4.3483
G01 X-1.1842 Y7.0817
G01 X-1.1858 Y7.1150
G01 X-1.1891 Y7.1482
G01 X-1.1940 Y7.1813
G01 X-1.2005 Y7.2140
G01 X-1.2086 Y7.2464
G01 X-1.2183 Y7.2783
G01 X-1.2296 Y7.3097
G01 X-1.2358 Y7.3252
G01 X-1.2493 Y7.3557
G01 X-1.2566 Y7.3707
G01 X-1.2723 Y7.4002
G01 X-1.2895 Y7.4288
G01 X-1.2986 Y7.4428
G01 X-1.3080 Y7.4565
G01 X-1.3279 Y7.4834
G01 X-1.3491 Y7.5092
G01 X-1.3602 Y7.5217
G01 X-1.3715 Y7.5339
G01 X-1.3951 Y7.5575
G01 X-1.4198 Y7.5799
G01 X-1.4326 Y7.5906
G01 X-1.4589 Y7.6112
G01 X-1.4862 Y7.6304
G01 X-1.5002 Y7.6395
G01 X-1.5288 Y7.6567
G01 X-1.5435 Y7.6647
G01 X-1.5583 Y7.6724
G01 X-1.5884 Y7.6867
G01 X-1.6193 Y7.6994
G01 X-1.6349 Y7.7052
G01 X-1.6666 Y7.7157
G01 X-1.6826 Y7.7204
G01 X-1.7150 Y7.7285
G01 X-1.7477 Y7.7350
G01 X-1.7808 Y7.7399
G01 X-1.7973 Y7.7417
G01 X-1.8306 Y7.7442
G01 X-1.8640 Y7.7450
G01 X-3.4640 Y7.7450
G01 X-3.4974 Y7.7442
G01 X-3.5140 Y7.7432
G01 X-3.5307 Y7.7417
G01 X-3.5638 Y7.7376
G01 X-3.5803 Y7.7350
G01 X-3.6130 Y7.7285
G01 X-3.6454 Y7.7204
G01 X-3.6773 Y7.7107
G01 X-3.6931 Y7.7052
G01 X-3.7242 Y7.6932
G01 X-3.7547 Y7.6797
G01 X-3.7845 Y7.6647
G01 X-3.8136 Y7.6483
G01 X-3.8418 Y7.6304
G01 X-3.8555 Y7.6210
G01 X-3.8691 Y7.6112
G01 X-3.8954 Y7.5906
G01 X-3.9207 Y7.5688
G01 X-3.9329 Y7.5575
G01 X-3.9565 Y7.5339
G01 X-3.9789 Y7.5092
G01 X-3.9896 Y7.4964
G01 X-4.0102 Y7.4701
G01 X-4.0294 Y7.4428
G01 X-4.0473 Y7.4146
G01 X-4.0640 Y7.3850
G01 X-4.0807 Y7.4146
G01 X-4.0986 Y7.4428
G01 X-4.1178 Y7.4701
G01 X-4.1384 Y7.4964
G01 X-4.1602 Y7.5217
G01 X-4.1832 Y7.5458
G01 X-4.2073 Y7.5688
G01 X-4.2326 Y7.5906
G01 X-4.2589 Y7.6112
G01 X-4.2862 Y7.6304
G01 X-4.3144 Y7.6483
G01 X-4.3435 Y7.6647
G01 X-4.3733 Y7.6797
G01 X-4.4038 Y7.6932
G01 X-4.4349 Y7.7052
G01 X-4.4666 Y7.7157
G01 X-4.4826 Y7.7204
G01 X-4.5150 Y7.7285
G01 X-4.5313 Y7.7319
G01 X-4.5642 Y7.7376
G01 X-4.5808 Y7.7399
G01 X-4.6140 Y7.7432
G01 X-4.6473 Y7.7448
G01 X-5.2745 Y7.7450
G01 X-6.1806 Y8.6511
G01 X-6.1806 Y9.1924
G01 X-6.1687 Y9.2079
G01 X-6.0712 Y9.3397
G01 X-6.0527 Y9.3674
G01 X-6.0439 Y9.3816
G01 X-5.9682 Y9.5080
G01 X-5.9517 Y9.5370
G01 X-5.9367 Y9.5668
G01 X-5.8750 Y9.6974
G01 X-5.8133 Y9.5668
G01 X-5.7983 Y9.5370
G01 X-5.7818 Y9.5080
G01 X-5.7061 Y9.3816
G01 X-5.6882 Y9.3534
G01 X-5.6690 Y9.3262
G01 X-5.5813 Y9.2079
G01 X-5.5607 Y9.1815
G01 X-5.5389 Y9.1563
G01 X-5.4400 Y9.0471
G01 X-5.4170 Y9.0230
G01 X-5.3929 Y9.0000
G01 X-5.2837 Y8.9011
G01 X-5.2585 Y8.8793
G01 X-5.2454 Y8.8688
G01 X-5.1138 Y8.7710
G01 X-5.0866 Y8.7518
G01 X-5.0584 Y8.7339
G01 X-4.9320 Y8.6582
G01 X-4.9030 Y8.6417
G01 X-4.8732 Y8.6267
G01 X-4.7249 Y8.5568
G01 X-4.7095 Y8.5502
G01 X-4.6784 Y8.5382
G01 X-4.5397 Y8.4886
G01 X-4.5080 Y8.4782
G01 X-4.4759 Y8.4693
G01 X-4.3330 Y8.4335
G01 X-4.3004 Y8.4262
G01 X-4.2676 Y8.4204
G01 X-4.1219 Y8.3988
G01 X-4.0888 Y8.3948
G01 X-4.0555 Y8.3923
G01 X-3.9084 Y8.3851
G01 X-3.8750 Y8.3842
G01 X-3.8416 Y8.3851
G01 X-3.6945 Y8.3923
G01 X-3.6612 Y8.3948
G01 X-3.6281 Y8.3988
G01 X-3.4824 Y8.4204
G01 X-3.4496 Y8.4262
G01 X-3.4170 Y8.4335
G01 X-3.2741 Y8.4693
G01 X-3.2420 Y8.4782
G01 X-3.2103 Y8.4886
G01 X-3.0716 Y8.5382
G01 X-3.0405 Y8.5502
G01 X-3.0100 Y8.5638
G01 X-2.8768 Y8.6267
G01 X-2.8470 Y8.6417
G01 X-2.8180 Y8.6582
G01 X-2.6916 Y8.7339
G01 X-2.6634 Y8.7518
G01 X-2.6362 Y8.7710
G01 X-2.5179 Y8.8587
G01 X-2.4915 Y8.8793
G01 X-2.4663 Y8.9011
G01 X-2.3571 Y9.0000
G01 X-2.3330 Y9.0230
G01 X-2.3100 Y9.0471
G01 X-2.2111 Y9.1563
G01 X-2.1893 Y9.1815
G01 X-2.1687 Y9.2079
G01 X-2.0810 Y9.3262
G01 X-2.0618 Y9.3534
G01 X-2.0439 Y9.3816
G01 X-1.9682 Y9.5080
G01 X-1.9517 Y9.5370
G01 X-1.9367 Y9.5668
G01 X-1.8738 Y9.7000
G01 X-1.8602 Y9.7305
G01 X-1.8482 Y9.7616
G01 X-1.7986 Y9.9003
G01 X-1.7932 Y9.9161
G01 X-1.7835 Y9.9480
G01 X-1.7435 Y10.1070
G01 X-1.7362 Y10.1396
G01 X-1.7304 Y10.1724
G01 X-1.7088 Y10.3181
G01 X-1.7048 Y10.3512
G01 X-1.7023 Y10.3845
G01 X-1.6951 Y10.5316
G01 X-1.6942 Y10.5650
G01 X-1.6942 Y13.5650
G01 X-1.6951 Y13.5984
G01 X-1.7023 Y13.7455
G01 X-1.7048 Y13.7788
G01 X-1.7088 Y13.8119
G01 X-1.7304 Y13.9576
G01 X-1.7362 Y13.9904
G01 X-1.7435 Y14.0230
G01 X-1.7793 Y14.1659
G01 X-1.7882 Y14.1980
G01 X-1.7986 Y14.2297
G01 X-1.8482 Y14.3684
G01 X-1.8594 Y14.3973
G01 X-1.8594 Y20.8599
G01 X-1.8328 Y20.8535
G01 X-1.8164 Y20.8501
G01 X-1.7799 Y20.8433
G01 X-1.7642 Y20.8409
G01 X-1.7327 Y20.8371
G01 X-1.7010 Y20.8348
G01 X-1.6851 Y20.8342
G01 X-1.6638 Y20.8339
G01 X-1.0739 Y20.8341
G01 X-1.0375 Y20.8361
G01 X-0.9858 Y20.8416
G01 X-0.9522 Y20.8470
G01 X-0.9189 Y20.8540
G01 X-0.8826 Y20.8635
G01 X-0.8508 Y20.8736
G01 X-0.8195 Y20.8852
G01 X-0.7809 Y20.9016
G01 X-0.7498 Y20.9161
G01 X-0.7345 Y20.9239
G01 X-0.7046 Y20.9408
G01 X-0.6755 Y20.9591
G01 X-0.6586 Y20.9706
G01 X-0.6320 Y20.9903
G01 X-0.6191 Y21.0006
G01 X-0.5940 Y21.0221
G01 X-0.5677 Y21.0459
G01 X-0.5426 Y21.0709
G01 X-0.5305 Y21.0839
G01 X-0.5073 Y21.1107
G01 X-0.4939 Y21.1277
G01 X-0.4749 Y21.1535
G01 X-0.4659 Y21.1667
G01 X-0.4487 Y21.1938
G01 X-0.4286 Y21.2288
G01 X-0.4205 Y21.2438
G01 X-0.4053 Y21.2743
G01 X-0.3983 Y21.2898
G01 X-0.3916 Y21.3055
G01 X-0.3840 Y21.3251
G01 X-0.3725 Y21.3581
G01 X-0.3626 Y21.3918
G01 X-0.3584 Y21.4088
G01 X-0.3545 Y21.4259
G01 X-0.3455 Y21.4739
G01 X-0.3410 Y21.5053
G01 X-0.3393 Y21.5211
G01 X-0.3370 Y21.5528
G01 X-0.3361 Y21.5900
G01 X-0.3363 Y49.7578
G01 X-0.3381 Y49.7929
G01 X-0.3405 Y49.8210
G01 X-0.3424 Y49.8374
G01 X-0.3473 Y49.8701
G01 X-0.3547 Y49.9071
G01 X-0.3626 Y49.9386
G01 X-0.3720 Y49.9698
G01 X-0.3773 Y49.9852
G01 X-0.3900 Y50.0194
G01 X-0.4036 Y50.0522
G01 X-0.4189 Y50.0842
G01 X-0.4376 Y50.1187
G01 X-0.4544 Y50.1465
G01 X-0.4726 Y50.1735
G01 X-0.4921 Y50.1995
G01 X-0.5234 Y50.2380
G01 X-0.5447 Y50.2616
G01 X-0.5557 Y50.2731
G01 X-0.5824 Y50.2987
G01 X-0.5955 Y50.3104
G01 X-0.6227 Y50.3330
G01 X-0.6509 Y50.3540
G01 X-0.6803 Y50.3736
G01 X-0.7039 Y50.3886
G01 X-0.7191 Y50.3977
G01 X-0.7502 Y50.4146
G01 X-0.7821 Y50.4298
G01 X-0.8164 Y50.4444
G01 X-0.8466 Y50.4554
G01 X-0.8773 Y50.4649
G01 X-0.9200 Y50.4760
G01 X-0.9356 Y50.4797
G01 X-0.9672 Y50.4859
G01 X-0.9990 Y50.4907
G01 X-1.0361 Y50.4943
G01 X-1.0685 Y50.4960
G01 X-1.1010 Y50.4962
G01 X-1.1172 Y50.4957
G01 X-1.1489 Y50.4936
G01 X-1.1489 Y51.6138
G01 X-1.1262 Y51.6124
G01 X-1.1094 Y51.6118
G01 X-1.0878 Y51.6116
G01 X-1.0712 Y51.6119
G01 X-1.0381 Y51.6137
G01 X-1.0052 Y51.6170
G01 X-0.9610 Y51.6235
G01 X-0.9271 Y51.6300
G01 X-0.8936 Y51.6381
G01 X-0.8771 Y51.6428
G01 X-0.8557 Y51.6496
G01 X-0.8261 Y51.6600
G01 X-0.8115 Y51.6657
G01 X-0.7827 Y51.6782
G01 X-0.7686 Y51.6849
G01 X-0.7341 Y51.7023
G01 X-0.7067 Y51.7174
G01 X-0.6801 Y51.7338
G01 X-0.6500 Y51.7545
G01 X-0.6217 Y51.7758
G01 X-0.5945 Y51.7986
G01 X-0.5686 Y51.8228
G01 X-0.5390 Y51.8530
G01 X-0.5281 Y51.8646
G01 X-0.5073 Y51.8886
G01 X-0.4877 Y51.9136
G01 X-0.4655 Y51.9448
G01 X-0.4469 Y51.9737
G01 X-0.4299 Y52.0035
G01 X-0.4219 Y52.0187
G01 X-0.4067 Y52.0498
G01 X-0.3929 Y52.0805
G01 X-0.3806 Y52.1119
G01 X-0.3699 Y52.1439
G01 X-0.3595 Y52.1810
G01 X-0.3522 Y52.2133
G01 X-0.3464 Y52.2459
G01 X-0.3397 Y52.2976
G01 X-0.3370 Y52.3326
G01 X-0.3361 Y52.3677
G01 X-0.3361 Y68.8472
G01 X-0.3369 Y68.8795
G01 X-0.3386 Y68.9068
G01 X-0.3402 Y68.9252
G01 X-0.3423 Y68.9436
G01 X-0.3448 Y68.9618
G01 X-0.3523 Y69.0029
G01 X-0.3604 Y69.0374
G01 X-0.3652 Y69.0545
G01 X-0.3760 Y69.0882
G01 X-0.3873 Y69.1196
G01 X-0.3997 Y69.1504
G01 X-0.4135 Y69.1805
G01 X-0.4288 Y69.2100
G01 X-0.4399 Y69.2297
G01 X-0.4579 Y69.2587
G01 X-0.4674 Y69.2728
G01 X-0.4874 Y69.3004
G01 X-0.5167 Y69.3370
G01 X-0.5397 Y69.3633
G01 X-0.5641 Y69.3883
G01 X-0.5809 Y69.4041
G01 X-0.6045 Y69.4250
G01 X-0.6291 Y69.4448
G01 X-0.6545 Y69.4634
G01 X-0.6965 Y69.4911
G01 X-0.7115 Y69.5002
G01 X-0.7422 Y69.5174
G01 X-0.7737 Y69.5330
G01 X-0.7949 Y69.5424
G01 X-0.8257 Y69.5548
G01 X-0.8571 Y69.5657
G01 X-0.8889 Y69.5750
G01 X-0.9235 Y69.5838
G01 X-0.9561 Y69.5908
G01 X-0.9891 Y69.5962
G01 X-1.0056 Y69.5983
G01 X-1.0278 Y69.6005
G01 X-1.0609 Y69.6026
G01 X-1.0775 Y69.6031
G01 X-1.1106 Y69.6028
G01 X-1.1272 Y69.6021
G01 X-1.1686 Y69.5990
G01 X-1.2015 Y69.5952
G01 X-1.2341 Y69.5899
G01 X-1.2503 Y69.5866
G01 X-1.2879 Y69.5775
G01 X-1.3197 Y69.5682
G01 X-1.3509 Y69.5574
G01 X-1.3664 Y69.5514
G01 X-1.3897 Y69.5417
G01 X-1.4226 Y69.5271
G01 X-1.4546 Y69.5108
G01 X-1.7927 Y69.3159
G01 X-2.2851 Y69.1839
G01 X-2.7949 Y69.1839
G01 X-3.2873 Y69.3159
G01 X-3.7288 Y69.5707
G01 X-4.0893 Y69.9312
G01 X-4.3441 Y70.3727
G01 X-4.4761 Y70.8651
G01 X-4.4761 Y71.3749
G01 X-4.3441 Y71.8673
G01 X-4.0893 Y72.3088
G01 X-3.7288 Y72.6693
G01 X-3.2873 Y72.9241
G01 X-2.7949 Y73.0561
G01 X-2.2851 Y73.0561
G01 X-1.7927 Y72.9241
G01 X-1.4561 Y72.7300
G01 X-1.4417 Y72.7224
G01 X-1.4170 Y72.7102
G01 X-1.3837 Y72.6951
G01 X-1.3497 Y72.6819
G01 X-1.3278 Y72.6743
G01 X-1.2941 Y72.6641
G01 X-1.2600 Y72.6558
G01 X-1.2427 Y72.6522
G01 X-1.2056 Y72.6457
G01 X-1.1733 Y72.6412
G01 X-1.1408 Y72.6383
G01 X-1.1245 Y72.6374
G01 X-1.1026 Y72.6368
G01 X-1.0689 Y72.6370
G01 X-1.0520 Y72.6378
G01 X-1.0183 Y72.6405
G01 X-1.0016 Y72.6425
G01 X-0.9606 Y72.6486
G01 X-0.9281 Y72.6548
G01 X-0.8958 Y72.6626
G01 X-0.8799 Y72.6671
G01 X-0.8587 Y72.6737
G01 X-0.8433 Y72.6788
G01 X-0.8130 Y72.6902
G01 X-0.7832 Y72.7030
G01 X-0.7686 Y72.7099
G01 X-0.7339 Y72.7274
G01 X-0.7060 Y72.7429
G01 X-0.6923 Y72.7511
G01 X-0.6654 Y72.7686
G01 X-0.6395 Y72.7873
G01 X-0.6209 Y72.8016
G01 X-0.6072 Y72.8128
G01 X-0.5806 Y72.8364
G01 X-0.5677 Y72.8487
G01 X-0.5393 Y72.8777
G01 X-0.5181 Y72.9010
G01 X-0.4980 Y72.9253
G01 X-0.4758 Y72.9550
G01 X-0.4578 Y72.9813
G01 X-0.4412 Y73.0084
G01 X-0.4258 Y73.0362
G01 X-0.4056 Y73.0772
G01 X-0.3986 Y73.0923
G01 X-0.3858 Y73.1232
G01 X-0.3745 Y73.1546
G01 X-0.3648 Y73.1865
G01 X-0.3589 Y73.2085
G01 X-0.3514 Y73.2419
G01 X-0.3456 Y73.2757
G01 X-0.3399 Y73.3212
G01 X-0.3382 Y73.3391
G01 X-0.3363 Y73.3749
G01 X-0.3361 Y75.1078
G01 X-0.3371 Y75.1443
G01 X-0.3383 Y75.1625
G01 X-0.3418 Y75.1974
G01 X-0.3438 Y75.2142
G01 X-0.3492 Y75.2478
G01 X-0.3525 Y75.2645
G01 X-0.3603 Y75.2976
G01 X-0.3657 Y75.3174
G01 X-0.3758 Y75.3492
G01 X-0.3814 Y75.3649
G01 X-0.3938 Y75.3959
G01 X-0.4112 Y75.4354
G01 X-0.4188 Y75.4512
G01 X-0.4353 Y75.4823
G01 X-0.4442 Y75.4974
G01 X-0.4555 Y75.5157
G01 X-0.4743 Y75.5437
G01 X-0.4945 Y75.5707
G01 X-0.5050 Y75.5838
G01 X-0.5159 Y75.5966
G01 X-0.5361 Y75.6192
G01 X-0.5605 Y75.6450
G01 X-0.5861 Y75.6695
G01 X-0.5994 Y75.6813
G01 X-0.6129 Y75.6927
G01 X-0.6299 Y75.7061
G01 X-0.6427 Y75.7157
G01 X-0.6689 Y75.7341
G01 X-0.6960 Y75.7513
G01 X-0.7310 Y75.7714
G01 X-0.7460 Y75.7795
G01 X-0.7765 Y75.7947
G01 X-0.7920 Y75.8017
G01 X-0.8077 Y75.8084
G01 X-0.8273 Y75.8160
G01 X-0.8603 Y75.8275
G01 X-0.8940 Y75.8374
G01 X-0.9110 Y75.8416
G01 X-0.9281 Y75.8455
G01 X-0.9605 Y75.8517
G01 X-0.9761 Y75.8545
G01 X-1.0075 Y75.8590
G01 X-1.0233 Y75.8607
G01 X-1.0550 Y75.8630
G01 X-1.0922 Y75.8639
G01 X-56.0578 Y75.8639
G01 X-56.0761 Y75.8637
G01 X-56.1125 Y75.8617
G01 X-56.1474 Y75.8582
G01 X-56.1811 Y75.8537
G01 X-56.1978 Y75.8508
G01 X-56.2311 Y75.8438
G01 X-56.2514 Y75.8387
G01 X-56.2834 Y75.8294
G01 X-56.2992 Y75.8242
G01 X-56.3305 Y75.8126
G01 X-56.3694 Y75.7961
G01 X-56.4012 Y75.7812
G01 X-56.4169 Y75.7731
G01 X-56.4474 Y75.7558
G01 X-56.4657 Y75.7445
G01 X-56.4937 Y75.7257
G01 X-56.5207 Y75.7055
G01 X-56.5338 Y75.6950
G01 X-56.5466 Y75.6841
G01 X-56.5692 Y75.6639
G01 X-56.5950 Y75.6395
G01 X-56.6074 Y75.6269
G01 X-56.6313 Y75.6006
G01 X-56.6427 Y75.5871
G01 X-56.6561 Y75.5701
G01 X-56.6657 Y75.5573
G01 X-56.6841 Y75.5311
G01 X-56.7013 Y75.5040
G01 X-56.7214 Y75.4690
G01 X-56.7295 Y75.4540
G01 X-56.7447 Y75.4235
G01 X-56.7517 Y75.4080
G01 X-56.7584 Y75.3923
G01 X-56.7660 Y75.3727
G01 X-56.7775 Y75.3397
G01 X-56.7827 Y75.3229
G01 X-56.7916 Y75.2890
G01 X-56.7955 Y75.2719
G01 X-56.8017 Y75.2395
G01 X-56.8069 Y75.2082
G01 X-56.8090 Y75.1925
G01 X-56.8107 Y75.1767
G01 X-56.8130 Y75.1450
G01 X-56.8139 Y75.1078
G01 X-56.8139 Y21.5900
G01 X-56.8129 Y21.5535
G01 X-56.8117 Y21.5353
G01 X-56.8082 Y21.5004
G01 X-56.8037 Y21.4667
G01 X-56.7975 Y21.4333
G01 X-56.7938 Y21.4167
G01 X-56.7887 Y21.3964
G01 X-56.7794 Y21.3644
G01 X-56.7742 Y21.3486
G01 X-56.7626 Y21.3173
G01 X-56.7461 Y21.2784
G01 X-56.7312 Y21.2466
G01 X-56.7147 Y21.2155
G01 X-56.7058 Y21.2004
G01 X-56.6945 Y21.1821
G01 X-56.6757 Y21.1541
G01 X-56.6555 Y21.1271
G01 X-56.6450 Y21.1140
G01 X-56.6341 Y21.1012
G01 X-56.6139 Y21.0786
G01 X-56.5895 Y21.0528
G01 X-56.5639 Y21.0283
G01 X-56.5506 Y21.0165
G01 X-56.5371 Y21.0051
G01 X-56.5201 Y20.9917
G01 X-56.5073 Y20.9821
G01 X-56.4811 Y20.9637
G01 X-56.4540 Y20.9465
G01 X-56.4191 Y20.9265
G01 X-56.4042 Y20.9184
G01 X-56.3739 Y20.9032
G01 X-56.3585 Y20.8963
G01 X-56.3271 Y20.8835
G01 X-56.2916 Y20.8710
G01 X-56.2594 Y20.8614
G01 X-56.2432 Y20.8573
G01 X-56.2268 Y20.8535
G01 X-56.1895 Y20.8461
G01 X-56.1582 Y20.8409
G01 X-56.1425 Y20.8388
G01 X-56.1108 Y20.8358
G01 X-56.0950 Y20.8348
G01 X-56.0578 Y20.8339
G01 X-9.8256 Y20.8339
G01 X-9.8256 Y14.5370
G01 X-9.8762 Y14.4300
G01 X-9.8898 Y14.3995
G01 X-9.9018 Y14.3684
G01 X-9.9514 Y14.2297
G01 X-9.9568 Y14.2139
G01 X-9.9665 Y14.1820
G01 X-10.0065 Y14.0230
G01 X-10.0104 Y14.0068
G01 X-10.0169 Y13.9740
G01 X-10.0434 Y13.7953
G01 X-10.0452 Y13.7788
G01 X-10.0477 Y13.7455
G01 X-10.0555 Y13.5817
G01 X-10.0555 Y10.5483
G01 X-10.0477 Y10.3845
G01 X-10.0452 Y10.3512
G01 X-10.0412 Y10.3181
G01 X-10.0196 Y10.1724
G01 X-10.0138 Y10.1396
G01 X-10.0065 Y10.1070
G01 X-9.9707 Y9.9641
G01 X-9.9618 Y9.9320
G01 X-9.9514 Y9.9003
G01 X-9.9018 Y9.7616
G01 X-9.8898 Y9.7305
G01 X-9.8762 Y9.7000
G01 X-9.8133 Y9.5668
G01 X-9.7983 Y9.5370
G01 X-9.7818 Y9.5080
G01 X-9.6973 Y9.3674
G01 X-9.6788 Y9.3397
G01 X-9.6690 Y9.3262
G01 X-9.5813 Y9.2079
G01 X-9.5607 Y9.1815
G01 X-9.5500 Y9.1688
G01 X-9.4400 Y9.0471
G01 X-9.4170 Y9.0230
G01 X-9.3929 Y9.0000
G01 X-9.3194 Y8.9334
G01 X-9.3194 Y8.0010
G01 X-9.3186 Y7.9676
G01 X-9.3143 Y7.8805
G01 X-9.3119 Y7.8472
G01 X-9.3078 Y7.8140
G01 X-9.2950 Y7.7277
G01 X-9.2893 Y7.6948
G01 X-9.2820 Y7.6623
G01 X-9.2608 Y7.5776
G01 X-9.2519 Y7.5454
G01 X-9.2414 Y7.5137
G01 X-9.2120 Y7.4315
G01 X-9.2000 Y7.4004
G01 X-9.1865 Y7.3699
G01 X-9.1491 Y7.2910
G01 X-9.1341 Y7.2612
G01 X-9.1177 Y7.2321
G01 X-9.0640 Y7.1431
G01 X-9.0549 Y7.1291
G01 X-9.0357 Y7.1018
G01 X-8.9837 Y7.0317
G01 X-8.9632 Y7.0054
G01 X-8.9414 Y6.9801
G01 X-8.8714 Y6.9032
G01 X-6.9440 Y4.9755
G01 X-6.9438 Y4.3483
G01 X-6.9432 Y4.3316
G01 X-6.9407 Y4.2983
G01 X-6.9366 Y4.2652
G01 X-6.9340 Y4.2487
G01 X-6.9309 Y4.2323
G01 X-6.9236 Y4.1998
G01 X-6.9194 Y4.1836
G01 X-6.9097 Y4.1517
G01 X-6.8984 Y4.1203
G01 X-6.8922 Y4.1048
G01 X-6.8857 Y4.0894
G01 X-6.8714 Y4.0593
G01 X-6.8557 Y4.0298
G01 X-6.8385 Y4.0012
G01 X-6.8200 Y3.9735
G01 X-6.8102 Y3.9599
G01 X-6.7896 Y3.9336
G01 X-6.7789 Y3.9208
G01 X-6.7565 Y3.8961
G01 X-6.7448 Y3.8842
G01 X-6.7207 Y3.8612
G01 X-6.6954 Y3.8394
G01 X-6.6691 Y3.8188
G01 X-6.6555 Y3.8090
G01 X-6.6278 Y3.7905
G01 X-6.5992 Y3.7733
G01 X-6.5845 Y3.7653
G01 X-6.5547 Y3.7503
G01 X-6.5242 Y3.7368
G01 X-6.4931 Y3.7248
G01 X-6.4773 Y3.7193
G01 X-6.4454 Y3.7096
G01 X-6.4292 Y3.7054
G01 X-6.3967 Y3.6981
G01 X-6.3638 Y3.6924
G01 X-6.3307 Y3.6883
G01 X-6.2974 Y3.6858
G01 X-6.2640 Y3.6850
G01 X-4.6473 Y3.6852
G01 X-4.6306 Y3.6858
G01 X-4.5973 Y3.6883
G01 X-4.5808 Y3.6901
G01 X-4.5477 Y3.6950
G01 X-4.5150 Y3.7015
G01 X-4.4988 Y3.7054
G01 X-4.4666 Y3.7143
G01 X-4.4507 Y3.7193
G01 X-4.4193 Y3.7306
G01 X-4.3884 Y3.7433
G01 X-4.3583 Y3.7576
G01 X-4.3435 Y3.7653
G01 X-4.3288 Y3.7733
G01 X-4.3002 Y3.7905
G01 X-4.2862 Y3.7996
G01 X-4.2589 Y3.8188
G01 X-4.2456 Y3.8289
G01 X-4.2198 Y3.8501
G01 X-4.2073 Y3.8612
G01 X-4.1832 Y3.8842
G01 X-4.1602 Y3.9083
G01 X-4.1491 Y3.9208
G01 X-4.1279 Y3.9466
G01 X-4.1080 Y3.9735
G01 X-4.0986 Y3.9872
G01 X-4.0807 Y4.0154
G01 X-4.0640 Y4.0450
G01 X-4.0473 Y4.0154
G01 X-4.0294 Y3.9872
G01 X-4.0102 Y3.9599
G01 X-4.0001 Y3.9466
G01 X-3.9793 Y3.9213
G01 X-3.9793 Y0.9047
G00 Z2.0000
G00 X-4.0693 Y0.9501
G01 F60.00
G01 Z-0.0000
G01 F120.00
G01 X-4.0935 Y0.9781
G01 X-4.1195 Y1.0055
G01 X-4.1469 Y1.0315
G01 X-4.1755 Y1.0562
G01 X-4.2053 Y1.0795
G01 X-4.2362 Y1.1012
G01 X-4.2681 Y1.1215
G01 X-4.3010 Y1.1401
G01 X-4.3348 Y1.1571
G01 X-4.3693 Y1.1724
G01 X-4.3869 Y1.1794
G01 X-4.4225 Y1.1921
G01 X-4.4586 Y1.2031
G01 X-4.4953 Y1.2123
G01 X-4.5324 Y1.2197
G01 X-4.5697 Y1.2252
G01 X-4.6074 Y1.2289
G01 X-4.6262 Y1.2301
G01 X-4.6640 Y1.2310
G01 X-6.2640 Y1.2310
G01 X-6.3018 Y1.2301
G01 X-6.3206 Y1.2289
G01 X-6.3583 Y1.2252
G01 X-6.3956 Y1.2197
G01 X-6.4327 Y1.2123
G01 X-6.4694 Y1.2031
G01 X-6.5055 Y1.1921
G01 X-6.5234 Y1.1860
G01 X-6.5587 Y1.1724
G01 X-6.5932 Y1.1571
G01 X-6.6270 Y1.1401
G01 X-6.6599 Y1.1215
G01 X-6.6759 Y1.1115
G01 X-6.7074 Y1.0905
G01 X-6.7377 Y1.0680
G01 X-6.7525 Y1.0562
G01 X-6.7811 Y1.0315
G01 X-6.8085 Y1.0055
G01 X-6.8345 Y0.9781
G01 X-6.8592 Y0.9495
G01 X-6.8825 Y0.9197
G01 X-6.9042 Y0.8888
G01 X-6.9245 Y0.8569
G01 X-6.9431 Y0.8240
G01 X-6.9601 Y0.7902
G01 X-6.9679 Y0.7730
G01 X-6.9824 Y0.7381
G01 X-6.9890 Y0.7204
G01 X-7.0008 Y0.6845
G01 X-7.0109 Y0.6481
G01 X-7.0192 Y0.6112
G01 X-7.0257 Y0.5740
G01 X-7.0303 Y0.5365
G01 X-7.0320 Y0.5163
G01 X-10.9028 Y0.5163
G01 X-14.0993 Y8.7213
G01 X-14.1134 Y9.1323
G01 X-14.0964 Y9.1542
G01 X-14.0087 Y9.2725
G01 X-13.9869 Y9.3034
G01 X-13.9667 Y9.3354
G01 X-13.8910 Y9.4617
G01 X-13.8724 Y9.4946
G01 X-13.8554 Y9.5283
G01 X-13.7924 Y9.6615
G01 X-13.7771 Y9.6960
G01 X-13.7635 Y9.7313
G01 X-13.7139 Y9.8700
G01 X-13.7020 Y9.9058
G01 X-13.6919 Y9.9423
G01 X-13.6562 Y10.0851
G01 X-13.6479 Y10.1220
G01 X-13.6414 Y10.1592
G01 X-13.6198 Y10.3049
G01 X-13.6152 Y10.3424
G01 X-13.6124 Y10.3801
G01 X-13.6052 Y10.5272
G01 X-13.6042 Y10.5650
G01 X-13.6042 Y13.5650
G01 X-13.6052 Y13.6028
G01 X-13.6124 Y13.7499
G01 X-13.6136 Y13.7687
G01 X-13.6173 Y13.8064
G01 X-13.6414 Y13.9708
G01 X-13.6479 Y14.0080
G01 X-13.6562 Y14.0449
G01 X-13.6919 Y14.1877
G01 X-13.7020 Y14.2242
G01 X-13.7139 Y14.2600
G01 X-13.7635 Y14.3987
G01 X-13.7771 Y14.4340
G01 X-13.7924 Y14.4685
G01 X-13.8554 Y14.6017
G01 X-13.8724 Y14.6354
G01 X-13.8910 Y14.6683
G01 X-13.9667 Y14.7946
G01 X-13.9869 Y14.8266
G01 X-14.0087 Y14.8575
G01 X-14.0964 Y14.9758
G01 X-14.1197 Y15.0055
G01 X-14.1444 Y15.0342
G01 X-14.2433 Y15.1433
G01 X-14.2693 Y15.1707
G01 X-14.2967 Y15.1967
G01 X-14.4058 Y15.2956
G01 X-14.4200 Y15.3081
G01 X-14.4492 Y15.3321
G01 X-14.5825 Y15.4313
G01 X-14.6134 Y15.4531
G01 X-14.6454 Y15.4733
G01 X-14.7717 Y15.5490
G01 X-14.7880 Y15.5585
G01 X-14.8214 Y15.5763
G01 X-14.9887 Y15.6555
G01 X-15.0236 Y15.6699
G01 X-15.0413 Y15.6765
G01 X-15.1800 Y15.7261
G01 X-15.2158 Y15.7380
G01 X-15.2523 Y15.7481
G01 X-15.3951 Y15.7838
G01 X-15.4320 Y15.7921
G01 X-15.4692 Y15.7986
G01 X-15.6149 Y15.8202
G01 X-15.6524 Y15.8248
G01 X-15.6901 Y15.8276
G01 X-15.8372 Y15.8348
G01 X-15.8561 Y15.8355
G01 X-15.8939 Y15.8355
G01 X-16.0787 Y15.8264
G01 X-16.0976 Y15.8248
G01 X-16.1351 Y15.8202
G01 X-16.2808 Y15.7986
G01 X-16.2994 Y15.7956
G01 X-16.3365 Y15.7882
G01 X-16.4977 Y15.7481
G01 X-16.5342 Y15.7380
G01 X-16.5700 Y15.7261
G01 X-16.7087 Y15.6765
G01 X-16.7440 Y15.6629
G01 X-16.7785 Y15.6476
G01 X-16.9117 Y15.5846
G01 X-16.9454 Y15.5676
G01 X-16.9783 Y15.5490
G01 X-17.1046 Y15.4733
G01 X-17.1366 Y15.4531
G01 X-17.1675 Y15.4313
G01 X-17.2858 Y15.3436
G01 X-17.3155 Y15.3203
G01 X-17.3442 Y15.2956
G01 X-17.4533 Y15.1967
G01 X-17.4807 Y15.1707
G01 X-17.5067 Y15.1433
G01 X-17.6056 Y15.0342
G01 X-17.6303 Y15.0055
G01 X-17.6536 Y14.9758
G01 X-17.7413 Y14.8575
G01 X-17.7631 Y14.8266
G01 X-17.7833 Y14.7946
G01 X-17.8590 Y14.6683
G01 X-17.8750 Y14.6402
G01 X-17.8910 Y14.6683
G01 X-17.9667 Y14.7946
G01 X-17.9869 Y14.8266
G01 X-18.0087 Y14.8575
G01 X-18.0964 Y14.9758
G01 X-18.1197 Y15.0055
G01 X-18.1444 Y15.0342
G01 X-18.2433 Y15.1433
G01 X-18.2693 Y15.1707
G01 X-18.2967 Y15.1967
G01 X-18.4058 Y15.2956
G01 X-18.4345 Y15.3203
G01 X-18.4642 Y15.3436
G01 X-18.5825 Y15.4313
G01 X-18.6134 Y15.4531
G01 X-18.6454 Y15.4733
G01 X-18.7717 Y15.5490
G01 X-18.8046 Y15.5676
G01 X-18.8383 Y15.5846
G01 X-18.9715 Y15.6476
G01 X-19.0060 Y15.6629
G01 X-19.0413 Y15.6765
G01 X-19.1800 Y15.7261
G01 X-19.2158 Y15.7380
G01 X-19.2523 Y15.7481
G01 X-19.3951 Y15.7838
G01 X-19.4320 Y15.7921
G01 X-19.4692 Y15.7986
G01 X-19.6149 Y15.8202
G01 X-19.6524 Y15.8248
G01 X-19.6901 Y15.8276
G01 X-19.8372 Y15.8348
G01 X-19.8750 Y15.8358
G01 X-19.9128 Y15.8348
G01 X-20.0787 Y15.8264
G01 X-20.0976 Y15.8248
G01 X-20.1351 Y15.8202
G01 X-20.2808 Y15.7986
G01 X-20.3180 Y15.7921
G01 X-20.3549 Y15.7838
G01 X-20.4977 Y15.7481
G01 X-20.5342 Y15.7380
G01 X-20.5522 Y15.7323
G01 X-20.7087 Y15.6765
G01 X-20.7440 Y15.6629
G01 X-20.7785 Y15.6476
G01 X-20.9117 Y15.5846
G01 X-20.9454 Y15.5676
G01 X-20.9783 Y15.5490
G01 X-21.1046 Y15.4733
G01 X-21.1366 Y15.4531
G01 X-21.1675 Y15.4313
G01 X-21.2858 Y15.3436
G01 X-21.3155 Y15.3203
G01 X-21.3442 Y15.2956
G01 X-21.4533 Y15.1967
G01 X-21.4807 Y15.1707
G01 X-21.5067 Y15.1433
G01 X-21.6056 Y15.0342
G01 X-21.6303 Y15.0055
G01 X-21.6536 Y14.9758
G01 X-21.7413 Y14.8575
G01 X-21.7631 Y14.8266
G01 X-21.7833 Y14.7946
G01 X-21.8590 Y14.6683
G01 X-21.8750 Y14.6402
G01 X-21.8910 Y14.6683
G01 X-21.9667 Y14.7946
G01 X-21.9869 Y14.8266
G01 X-22.0087 Y14.8575
G01 X-22.0964 Y14.9758
G01 X-22.1197 Y15.0055
G01 X-22.1444 Y15.0342
G01 X-22.2433 Y15.1433
G01 X-22.2693 Y15.1707
G01 X-22.2967 Y15.1967
G01 X-22.4058 Y15.2956
G01 X-22.4345 Y15.3203
G01 X-22.4642 Y15.3436
G01 X-22.5825 Y15.4313
G01 X-22.6134 Y15.4531
G01 X-22.6454 Y15.4733
G01 X-22.7717 Y15.5490
G01 X-22.8046 Y15.5676
G01 X-22.8383 Y15.5846
G01 X-22.9715 Y15.6476
G01 X-23.0060 Y15.6629
G01 X-23.0413 Y15.6765
G01 X-23.1800 Y15.7261
G01 X-23.2158 Y15.7380
G01 X-23.2523 Y15.7481
G01 X-23.3951 Y15.7838
G01 X-23.4320 Y15.7921
G01 X-23.4692 Y15.7986
G01 X-23.6149 Y15.8202
G01 X-23.6524 Y15.8248
G01 X-23.6901 Y15.8276
G01 X-23.8372 Y15.8348
G01 X-23.8750 Y15.8358
G01 X-23.9128 Y15.8348
G01 X-24.0599 Y15.8276
G01 X-24.0976 Y15.8248
G01 X-24.1351 Y15.8202
G01 X-24.2808 Y15.7986
G01 X-24.3180 Y15.7921
G01 X-24.3549 Y15.7838
G01 X-24.4977 Y15.7481
G01 X-24.5342 Y15.7380
G01 X-24.5700 Y15.7261
G01 X-24.7087 Y15.6765
G01 X-24.7440 Y15.6629
G01 X-24.7785 Y15.6476
G01 X-24.9117 Y15.5846
G01 X-24.9454 Y15.5676
G01 X-24.9783 Y15.5490
G01 X-25.1046 Y15.4733
G01 X-25.1366 Y15.4531
G01 X-25.1675 Y15.4313
G01 X-25.2858 Y15.3436
G01 X-25.3155 Y15.3203
G01 X-25.3442 Y15.2956
G01 X-25.4533 Y15.1967
G01 X-25.4807 Y15.1707
G01 X-25.5067 Y15.1433
G01 X-25.6056 Y15.0342
G01 X-25.6303 Y15.0055
G01 X-25.6536 Y14.9758
G01 X-25.7413 Y14.8575
G01 X-25.7631 Y14.8266
G01 X-25.7833 Y14.7946
G01 X-25.8590 Y14.6683
G01 X-25.8750 Y14.6402
G01 X-25.8910 Y14.6683
G01 X-25.9667 Y14.7946
G01 X-25.9869 Y14.8266
G01 X-26.0087 Y14.8575
G01 X-26.0964 Y14.9758
G01 X-26.1197 Y15.0055
G01 X-26.1444 Y15.0342
G01 X-26.2433 Y15.1433
G01 X-26.2693 Y15.1707
G01 X-26.2967 Y15.1967
G01 X-26.4058 Y15.2956
G01 X-26.4345 Y15.3203
G01 X-26.4642 Y15.3436
G01 X-26.5979 Y15.4424
G01 X-26.6293 Y15.4634
G01 X-26.6454 Y15.4733
G01 X-26.7717 Y15.5490
G01 X-26.8046 Y15.5676
G01 X-26.8383 Y15.5846
G01 X-26.9715 Y15.6476
G01 X-27.0060 Y15.6629
G01 X-27.0236 Y15.6699
G01 X-27.1800 Y15.7261
G01 X-27.2158 Y15.7380
G01 X-27.2523 Y15.7481
G01 X-27.3951 Y15.7838
G01 X-27.4320 Y15.7921
G01 X-27.4692 Y15.7986
G01 X-27.6149 Y15.8202
G01 X-27.6524 Y15.8248
G01 X-27.6901 Y15.8276
G01 X-27.8561 Y15.8355
G01 X-27.8939 Y15.8355
G01 X-27.9128 Y15.8348
G01 X-28.0599 Y15.8276
G01 X-28.0976 Y15.8248
G01 X-28.1351 Y15.8202
G01 X-28.2994 Y15.7956
G01 X-28.3365 Y15.7882
G01 X-28.3549 Y15.7838
G01 X-28.5160 Y15.7432
G01 X-28.5522 Y15.7323
G01 X-28.6291 Y15.7050
G01 X-30.8291 Y17.9049
G01 X-30.8564 Y17.9310
G01 X-30.9488 Y18.0147
G01 X-30.9630 Y18.0273
G01 X-30.9922 Y18.0512
G01 X-31.1074 Y18.1370
G01 X-31.1383 Y18.1587
G01 X-31.1702 Y18.1789
G01 X-31.2935 Y18.2526
G01 X-31.3101 Y18.2617
G01 X-31.3438 Y18.2787
G01 X-31.4565 Y18.3320
G01 X-31.4911 Y18.3473
G01 X-31.5263 Y18.3609
G01 X-31.6437 Y18.4029
G01 X-31.6796 Y18.4148
G01 X-31.7161 Y18.4248
G01 X-31.8370 Y18.4551
G01 X-31.8739 Y18.4634
G01 X-31.9111 Y18.4699
G01 X-32.0345 Y18.4882
G01 X-32.0720 Y18.4928
G01 X-32.1097 Y18.4956
G01 X-32.2342 Y18.5017
G01 X-32.2720 Y18.5026
G01 X-36.4679 Y18.5024
G01 X-36.6113 Y18.4956
G01 X-36.6490 Y18.4928
G01 X-36.6865 Y18.4882
G01 X-36.8099 Y18.4699
G01 X-36.8471 Y18.4634
G01 X-36.8840 Y18.4551
G01 X-37.0049 Y18.4248
G01 X-37.0414 Y18.4148
G01 X-37.0773 Y18.4029
G01 X-37.1947 Y18.3609
G01 X-37.2299 Y18.3473
G01 X-37.2645 Y18.3320
G01 X-37.3772 Y18.2787
G01 X-37.4109 Y18.2617
G01 X-37.4438 Y18.2431
G01 X-37.5508 Y18.1789
G01 X-37.5827 Y18.1587
G01 X-37.6136 Y18.1370
G01 X-37.7138 Y18.0627
G01 X-37.7436 Y18.0394
G01 X-37.7722 Y18.0147
G01 X-37.8646 Y17.9310
G01 X-37.8919 Y17.9049
G01 X-37.9180 Y17.8776
G01 X-38.0017 Y17.7852
G01 X-38.0264 Y17.7566
G01 X-38.0497 Y17.7268
G01 X-38.1240 Y17.6266
G01 X-38.1457 Y17.5957
G01 X-38.1659 Y17.5638
G01 X-38.2301 Y17.4568
G01 X-38.2487 Y17.4239
G01 X-38.2657 Y17.3902
G01 X-38.3190 Y17.2775
G01 X-38.3343 Y17.2429
G01 X-38.3479 Y17.2077
G01 X-38.3899 Y17.0903
G01 X-38.4018 Y17.0544
G01 X-38.4118 Y17.0179
G01 X-38.4421 Y16.8970
G01 X-38.4504 Y16.8601
G01 X-38.4569 Y16.8229
G01 X-38.4777 Y16.6808
G01 X-38.4798 Y16.6620
G01 X-38.4826 Y16.6243
G01 X-38.4887 Y16.4998
G01 X-38.4896 Y16.4620
G01 X-38.4887 Y16.4242
G01 X-38.4826 Y16.2997
G01 X-38.4798 Y16.2620
G01 X-38.4752 Y16.2245
G01 X-38.4569 Y16.1011
G01 X-38.4504 Y16.0639
G01 X-38.4421 Y16.0270
G01 X-38.4118 Y15.9061
G01 X-38.4018 Y15.8696
G01 X-38.3899 Y15.8337
G01 X-38.3479 Y15.7163
G01 X-38.3413 Y15.6986
G01 X-38.3269 Y15.6637
G01 X-38.2657 Y15.5338
G01 X-38.2487 Y15.5001
G01 X-38.2301 Y15.4672
G01 X-38.1659 Y15.3602
G01 X-38.1457 Y15.3283
G01 X-38.1240 Y15.2974
G01 X-38.0382 Y15.1822
G01 X-38.0264 Y15.1674
G01 X-38.0017 Y15.1388
G01 X-37.9180 Y15.0464
G01 X-37.8919 Y15.0191
G01 X-37.8646 Y14.9930
G01 X-37.7722 Y14.9093
G01 X-37.7436 Y14.8846
G01 X-37.7138 Y14.8613
G01 X-37.6136 Y14.7870
G01 X-37.5827 Y14.7653
G01 X-37.5508 Y14.7451
G01 X-37.4438 Y14.6809
G01 X-37.4109 Y14.6623
G01 X-37.3772 Y14.6453
G01 X-37.2645 Y14.5920
G01 X-37.2299 Y14.5767
G01 X-37.1947 Y14.5631
G01 X-37.0773 Y14.5211
G01 X-37.0414 Y14.5092
G01 X-37.0049 Y14.4992
G01 X-36.8840 Y14.4689
G01 X-36.8471 Y14.4606
G01 X-36.8099 Y14.4541
G01 X-36.6865 Y14.4358
G01 X-36.6490 Y14.4312
G01 X-36.6113 Y14.4284
G01 X-36.4868 Y14.4223
G01 X-36.4490 Y14.4214
G01 X-33.1173 Y14.4214
G01 X-30.1458 Y11.4499
G01 X-30.1458 Y10.5650
G01 X-30.1448 Y10.5272
G01 X-30.1376 Y10.3801
G01 X-30.1348 Y10.3424
G01 X-30.1302 Y10.3049
G01 X-30.1086 Y10.1592
G01 X-30.1021 Y10.1220
G01 X-30.0938 Y10.0851
G01 X-30.0581 Y9.9423
G01 X-30.0480 Y9.9058
G01 X-30.0361 Y9.8700
G01 X-29.9865 Y9.7313
G01 X-29.9729 Y9.6960
G01 X-29.9576 Y9.6615
G01 X-29.8946 Y9.5283
G01 X-29.8776 Y9.4946
G01 X-29.8590 Y9.4617
G01 X-29.7833 Y9.3354
G01 X-29.7734 Y9.3193
G01 X-29.7524 Y9.2879
G01 X-29.6536 Y9.1542
G01 X-29.6303 Y9.1245
G01 X-29.6056 Y9.0958
G01 X-29.5067 Y8.9867
G01 X-29.4807 Y8.9593
G01 X-29.4533 Y8.9333
G01 X-29.3442 Y8.8344
G01 X-29.3155 Y8.8097
G01 X-29.2858 Y8.7864
G01 X-29.1675 Y8.6987
G01 X-29.1366 Y8.6769
G01 X-29.1046 Y8.6567
G01 X-28.9620 Y8.5715
G01 X-28.9286 Y8.5537
G01 X-28.9117 Y8.5454
G01 X-28.7785 Y8.4824
G01 X-28.7440 Y8.4671
G01 X-28.7087 Y8.4535
G01 X-28.5700 Y8.4039
G01 X-28.5342 Y8.3920
G01 X-28.4977 Y8.3819
G01 X-28.3549 Y8.3462
G01 X-28.3180 Y8.3379
G01 X-28.2808 Y8.3314
G01 X-28.1351 Y8.3098
G01 X-28.0976 Y8.3052
G01 X-28.0599 Y8.3024
G01 X-27.9128 Y8.2952
G01 X-27.8750 Y8.2942
G01 X-27.8372 Y8.2952
G01 X-27.6901 Y8.3024
G01 X-27.6524 Y8.3052
G01 X-27.6149 Y8.3098
G01 X-27.4692 Y8.3314
G01 X-27.4320 Y8.3379
G01 X-27.3951 Y8.3462
G01 X-27.2523 Y8.3819
G01 X-27.2158 Y8.3920
G01 X-27.1800 Y8.4039
G01 X-27.0413 Y8.4535
G01 X-27.0060 Y8.4671
G01 X-26.9715 Y8.4824
G01 X-26.8383 Y8.5454
G01 X-26.8046 Y8.5624
G01 X-26.7717 Y8.5810
G01 X-26.6454 Y8.6567
G01 X-26.6134 Y8.6769
G01 X-26.5825 Y8.6987
G01 X-26.4642 Y8.7864
G01 X-26.4345 Y8.8097
G01 X-26.4058 Y8.8344
G01 X-26.2967 Y8.9333
G01 X-26.2693 Y8.9593
G01 X-26.2433 Y8.9867
G01 X-26.1444 Y9.0958
G01 X-26.1197 Y9.1245
G01 X-26.0964 Y9.1542
G01 X-26.0087 Y9.2725
G01 X-25.9869 Y9.3034
G01 X-25.9667 Y9.3354
G01 X-25.8910 Y9.4617
G01 X-25.8750 Y9.4898
G01 X-25.8590 Y9.4617
G01 X-25.7833 Y9.3354
G01 X-25.7734 Y9.3193
G01 X-25.7524 Y9.2879
G01 X-25.6421 Y9.1392
G01 X-25.6181 Y9.1100
G01 X-25.5980 Y9.0874
G01 X-25.5980 Y8.3810
G01 X-25.5970 Y8.3432
G01 X-25.5913 Y8.2309
G01 X-25.5876 Y8.1933
G01 X-25.5851 Y8.1746
G01 X-25.5713 Y8.0821
G01 X-25.5649 Y8.0449
G01 X-25.5566 Y8.0080
G01 X-25.5339 Y7.9173
G01 X-25.5290 Y7.8990
G01 X-25.5181 Y7.8628
G01 X-25.4738 Y7.7392
G01 X-25.4594 Y7.7043
G01 X-25.4515 Y7.6871
G01 X-25.4115 Y7.6026
G01 X-25.3945 Y7.5688
G01 X-25.3759 Y7.5359
G01 X-25.3278 Y7.4557
G01 X-25.3076 Y7.4238
G01 X-25.2969 Y7.4082
G01 X-25.2301 Y7.3177
G01 X-25.2069 Y7.2880
G01 X-25.1822 Y7.2593
G01 X-25.1194 Y7.1900
G01 X-25.1065 Y7.1762
G01 X-25.0910 Y7.1603
G01 X-25.0910 Y-4.6791
G01 X-25.1023 Y-4.6904
G01 X-32.1351 Y-4.6904
G01 X-32.1417 Y-4.6573
G01 X-32.1461 Y-4.6389
G01 X-32.1562 Y-4.6025
G01 X-32.1680 Y-4.5666
G01 X-32.1816 Y-4.5313
G01 X-32.1969 Y-4.4968
G01 X-32.2052 Y-4.4798
G01 X-32.2230 Y-4.4465
G01 X-32.2425 Y-4.4141
G01 X-32.2635 Y-4.3826
G01 X-32.2860 Y-4.3523
G01 X-32.3099 Y-4.3231
G01 X-32.3353 Y-4.2951
G01 X-32.3621 Y-4.2683
G01 X-32.3901 Y-4.2429
G01 X-32.4045 Y-4.2308
G01 X-32.4343 Y-4.2075
G01 X-32.4652 Y-4.1858
G01 X-32.4971 Y-4.1655
G01 X-32.5135 Y-4.1560
G01 X-32.5468 Y-4.1382
G01 X-32.5638 Y-4.1299
G01 X-32.5983 Y-4.1146
G01 X-32.6336 Y-4.1010
G01 X-32.6515 Y-4.0949
G01 X-32.6876 Y-4.0839
G01 X-32.7059 Y-4.0791
G01 X-32.7428 Y-4.0708
G01 X-32.7614 Y-4.0673
G01 X-32.7800 Y-4.0643
G01 X-32.8175 Y-4.0597
G01 X-32.8552 Y-4.0569
G01 X-32.8741 Y-4.0562
G01 X-32.9227 Y-4.0560
G01 X-32.9471 Y-4.0423
G01 X-32.9638 Y-4.0336
G01 X-33.0935 Y-3.9720
G01 X-33.1281 Y-3.9567
G01 X-33.1633 Y-3.9431
G01 X-33.2807 Y-3.9011
G01 X-33.3166 Y-3.8892
G01 X-33.3348 Y-3.8840
G01 X-33.4740 Y-3.8489
G01 X-33.5109 Y-3.8406
G01 X-33.5295 Y-3.8371
G01 X-33.6715 Y-3.8158
G01 X-33.7090 Y-3.8112
G01 X-33.7467 Y-3.8084
G01 X-33.8712 Y-3.8023
G01 X-33.9090 Y-3.8014
G01 X-33.9468 Y-3.8023
G01 X-34.0713 Y-3.8084
G01 X-34.1090 Y-3.8112
G01 X-34.1465 Y-3.8158
G01 X-34.2885 Y-3.8371
G01 X-34.3071 Y-3.8406
G01 X-34.3440 Y-3.8489
G01 X-34.4832 Y-3.8840
G01 X-34.5194 Y-3.8949
G01 X-34.5373 Y-3.9011
G01 X-34.6547 Y-3.9431
G01 X-34.6899 Y-3.9567
G01 X-34.7245 Y-3.9720
G01 X-34.8542 Y-4.0336
G01 X-34.8709 Y-4.0423
G01 X-34.8953 Y-4.0560
G01 X-34.9439 Y-4.0562
G01 X-34.9816 Y-4.0581
G01 X-35.0005 Y-4.0597
G01 X-35.0380 Y-4.0643
G01 X-35.0752 Y-4.0708
G01 X-35.1121 Y-4.0791
G01 X-35.1485 Y-4.0892
G01 X-35.1844 Y-4.1010
G01 X-35.2197 Y-4.1146
G01 X-35.2370 Y-4.1221
G01 X-35.2712 Y-4.1382
G01 X-35.3045 Y-4.1560
G01 X-35.3369 Y-4.1755
G01 X-35.3528 Y-4.1858
G01 X-35.3684 Y-4.1965
G01 X-35.3987 Y-4.2190
G01 X-35.4279 Y-4.2429
G01 X-35.4559 Y-4.2683
G01 X-35.4695 Y-4.2815
G01 X-35.4955 Y-4.3089
G01 X-35.5202 Y-4.3375
G01 X-35.5320 Y-4.3523
G01 X-35.5545 Y-4.3826
G01 X-35.5755 Y-4.4141
G01 X-35.5855 Y-4.4301
G01 X-35.6041 Y-4.4630
G01 X-35.6211 Y-4.4968
G01 X-35.6289 Y-4.5140
G01 X-35.6434 Y-4.5489
G01 X-35.6500 Y-4.5666
G01 X-35.6618 Y-4.6025
G01 X-35.6719 Y-4.6389
G01 X-35.6763 Y-4.6573
G01 X-35.6802 Y-4.6758
G01 X-35.6867 Y-4.7130
G01 X-35.6913 Y-4.7505
G01 X-35.6941 Y-4.7882
G01 X-35.6948 Y-4.8071
G01 X-35.6950 Y-4.8557
G01 X-35.7087 Y-4.8801
G01 X-35.7257 Y-4.9138
G01 X-35.7790 Y-5.0265
G01 X-35.7943 Y-5.0611
G01 X-35.8079 Y-5.0963
G01 X-35.8499 Y-5.2137
G01 X-35.8561 Y-5.2316
G01 X-35.8670 Y-5.2678
G01 X-35.9021 Y-5.4070
G01 X-35.9104 Y-5.4439
G01 X-35.9169 Y-5.4811
G01 X-35.9352 Y-5.6045
G01 X-35.9398 Y-5.6420
G01 X-35.9426 Y-5.6797
G01 X-35.9487 Y-5.8042
G01 X-35.9496 Y-5.8420
G01 X-35.9487 Y-5.8798
G01 X-35.9426 Y-6.0043
G01 X-35.9398 Y-6.0420
G01 X-35.9352 Y-6.0795
G01 X-35.9169 Y-6.2029
G01 X-35.9104 Y-6.2401
G01 X-35.9021 Y-6.2770
G01 X-35.8670 Y-6.4162
G01 X-35.8618 Y-6.4344
G01 X-35.8499 Y-6.4703
G01 X-35.8079 Y-6.5877
G01 X-35.7943 Y-6.6229
G01 X-35.7790 Y-6.6575
G01 X-35.7257 Y-6.7702
G01 X-35.7087 Y-6.8039
G01 X-35.6950 Y-6.8283
G01 X-35.6948 Y-6.8769
G01 X-35.6929 Y-6.9146
G01 X-35.6892 Y-6.9523
G01 X-35.6837 Y-6.9896
G01 X-35.6763 Y-7.0267
G01 X-35.6671 Y-7.0634
G01 X-35.6561 Y-7.0995
G01 X-35.6434 Y-7.1351
G01 X-35.6289 Y-7.1700
G01 X-35.6211 Y-7.1872
G01 X-35.6041 Y-7.2210
G01 X-35.5855 Y-7.2539
G01 X-35.5652 Y-7.2858
G01 X-35.5435 Y-7.3167
G01 X-35.5202 Y-7.3465
G01 X-35.4955 Y-7.3751
G01 X-35.4695 Y-7.4025
G01 X-35.4421 Y-7.4285
G01 X-35.4135 Y-7.4532
G01 X-35.3837 Y-7.4765
G01 X-35.3528 Y-7.4982
G01 X-35.3209 Y-7.5185
G01 X-35.2880 Y-7.5371
G01 X-35.2712 Y-7.5458
G01 X-35.2370 Y-7.5619
G01 X-35.2197 Y-7.5694
G01 X-35.1844 Y-7.5830
G01 X-35.1485 Y-7.5948
G01 X-35.1121 Y-7.6049
G01 X-35.0752 Y-7.6132
G01 X-35.0380 Y-7.6197
G01 X-35.0141 Y-7.6228
G01 X-34.4629 Y-8.1739
G01 X-34.4356 Y-8.2000
G01 X-34.3290 Y-8.2963
G01 X-34.3146 Y-8.3084
G01 X-34.2848 Y-8.3317
G01 X-34.1846 Y-8.4060
G01 X-34.1537 Y-8.4277
G01 X-34.1218 Y-8.4479
G01 X-34.0148 Y-8.5121
G01 X-33.9985 Y-8.5216
G01 X-33.9652 Y-8.5394
G01 X-33.8355 Y-8.6010
G01 X-33.8183 Y-8.6089
G01 X-33.7834 Y-8.6233
G01 X-33.6304 Y-8.6781
G01 X-33.6124 Y-8.6838
G01 X-33.5759 Y-8.6938
G01 X-33.4550 Y-8.7241
G01 X-33.4181 Y-8.7324
G01 X-33.3809 Y-8.7389
G01 X-33.2575 Y-8.7572
G01 X-33.2388 Y-8.7597
G01 X-33.2012 Y-8.7634
G01 X-33.0389 Y-8.7714
G01 X-24.2570 Y-8.7716
G01 X-24.2192 Y-8.7707
G01 X-24.0947 Y-8.7646
G01 X-24.0758 Y-8.7634
G01 X-24.0382 Y-8.7597
G01 X-23.8961 Y-8.7389
G01 X-23.8589 Y-8.7324
G01 X-23.8220 Y-8.7241
G01 X-23.7011 Y-8.6938
G01 X-23.6646 Y-8.6838
G01 X-23.6287 Y-8.6719
G01 X-23.5113 Y-8.6299
G01 X-23.4761 Y-8.6163
G01 X-23.4415 Y-8.6010
G01 X-23.3288 Y-8.5477
G01 X-23.2951 Y-8.5307
G01 X-23.2622 Y-8.5121
G01 X-23.1552 Y-8.4479
G01 X-23.1233 Y-8.4277
G01 X-23.0924 Y-8.4060
G01 X-22.9922 Y-8.3317
G01 X-22.9624 Y-8.3084
G01 X-22.9338 Y-8.2837
G01 X-22.8414 Y-8.2000
G01 X-22.8141 Y-8.1739
G01 X-21.9119 Y-7.2714
G01 X-21.8153 Y-7.1652
G01 X-21.7906 Y-7.1366
G01 X-21.7673 Y-7.1068
G01 X-21.6930 Y-7.0066
G01 X-21.6713 Y-6.9757
