(G-CODE GENERATED BY FLATCAM v8.994 - www.flatcam.org - Version Date: 2020/11/7)

(Name: copper_bottom.gbr_noncopper_mt_paint_cnc)
(Type: G-code from Geometry)
(Units: MM)

(Created on Sunday, 30 January 2022 at 03:24)

(This preprocessor is the default preprocessor used by FlatCAM.)
(It is made to work with MACH3 compatible motion controllers.)

(TOOL DIAMETER: 0.3 mm)
(Feedrate_XY: 120.0 mm/min)
(Feedrate_Z: 60.0 mm/min)
(Feedrate rapids 1500.0 mm/min)

(Z_Cut: -0.3732 mm)
(Z_Move: 2.0 mm)
(Z Start: None mm)
(Z End: 15.0 mm)
(X,Y End: None mm)
(Steps per circle: 64)
(Preprocessor Geometry: default)

(X range:  -56.0839 ...   -1.0661  mm)
(Y range:   -7.9516 ...   74.2751  mm)

(Spindle Speed: 0.0 RPM)
G21
G90
G94

G01 F120.00

M5
G00 Z15.0000
G00 X0.0000 Y0.0000
T1
M6    
(MSG, Change to Tool Dia = 0.3000)
M0
G00 Z15.0000

M03
G01 F120.00
G00 X-1.8439 Y0.6096
G01 F60.00
G01 Z-0.3732
G01 F120.00
G01 X-1.8439 Y4.2164
G00 Z2.0000
G00 X-3.5239 Y0.5985
G01 F60.00
G01 Z-0.3732
G01 F120.00
G01 X-3.5239 Y4.2275
G00 Z2.0000
G00 X-3.6140 Y4.3650
G01 F60.00
G01 Z-0.3732
G01 F120.00
G01 X-3.6133 Y4.3503
G01 X-3.6111 Y4.3357
G01 X-3.6075 Y4.3215
G01 X-3.6039 Y4.3110
G01 X-3.6011 Y4.3042
G01 X-3.5945 Y4.2911
G01 X-3.5866 Y4.2786
G01 X-3.5800 Y4.2698
G01 X-3.5751 Y4.2643
G01 X-3.5647 Y4.2539
G01 X-3.5534 Y4.2445
G01 X-3.5411 Y4.2363
G01 X-3.5281 Y4.2294
G01 X-3.5214 Y4.2264
G01 X-3.5111 Y4.2226
G01 X-3.4969 Y4.2186
G01 X-3.4824 Y4.2161
G01 X-3.4677 Y4.2150
G01 X-3.4493 Y4.2150
G01 X-3.4493 Y0.6110
G01 X-3.4677 Y0.6110
G01 X-3.4824 Y0.6099
G01 X-3.4969 Y0.6074
G01 X-3.5111 Y0.6034
G01 X-3.5248 Y0.5981
G01 X-3.5379 Y0.5915
G01 X-3.5504 Y0.5836
G01 X-3.5620 Y0.5746
G01 X-3.5726 Y0.5644
G01 X-3.5823 Y0.5533
G01 X-3.5907 Y0.5412
G01 X-3.5980 Y0.5284
G01 X-3.6039 Y0.5150
G01 X-3.6086 Y0.5010
G01 X-3.6118 Y0.4866
G01 X-3.6129 Y0.4794
G01 X-3.6138 Y0.4684
G01 X-3.6140 Y-2.2390
G01 X-3.6138 Y-2.2464
G01 X-3.6129 Y-2.2574
G01 X-3.6111 Y-2.2683
G01 X-3.6086 Y-2.2790
G01 X-3.6052 Y-2.2895
G01 X-3.6011 Y-2.2998
G01 X-3.5963 Y-2.3097
G01 X-3.5887 Y-2.3223
G01 X-3.5823 Y-2.3313
G01 X-3.5751 Y-2.3397
G01 X-3.5674 Y-2.3476
G01 X-3.5592 Y-2.3550
G01 X-3.5473 Y-2.3637
G01 X-3.5379 Y-2.3695
G01 X-3.5281 Y-2.3746
G01 X-3.5180 Y-2.3789
G01 X-3.5040 Y-2.3836
G01 X-3.4933 Y-2.3861
G01 X-3.4824 Y-2.3879
G01 X-3.4714 Y-2.3888
G01 X-1.8640 Y-2.3890
G01 X-1.8530 Y-2.3886
G01 X-1.8420 Y-2.3874
G01 X-1.8347 Y-2.3861
G01 X-1.8240 Y-2.3836
G01 X-1.8135 Y-2.3802
G01 X-1.8032 Y-2.3761
G01 X-1.7933 Y-2.3713
G01 X-1.7807 Y-2.3637
G01 X-1.7717 Y-2.3573
G01 X-1.7606 Y-2.3476
G01 X-1.7529 Y-2.3397
G01 X-1.7435 Y-2.3284
G01 X-1.7373 Y-2.3192
G01 X-1.7317 Y-2.3097
G01 X-1.7269 Y-2.2998
G01 X-1.7216 Y-2.2861
G01 X-1.7185 Y-2.2754
G01 X-1.7156 Y-2.2610
G01 X-1.7144 Y-2.2500
G01 X-1.7140 Y-2.2390
G01 X-1.7142 Y0.4684
G01 X-1.7156 Y0.4830
G01 X-1.7185 Y0.4974
G01 X-1.7228 Y0.5115
G01 X-1.7284 Y0.5251
G01 X-1.7335 Y0.5349
G01 X-1.7373 Y0.5412
G01 X-1.7457 Y0.5533
G01 X-1.7554 Y0.5644
G01 X-1.7660 Y0.5746
G01 X-1.7776 Y0.5836
G01 X-1.7901 Y0.5915
G01 X-1.8032 Y0.5981
G01 X-1.8169 Y0.6034
G01 X-1.8311 Y0.6074
G01 X-1.8456 Y0.6099
G01 X-1.8603 Y0.6110
G01 X-1.8787 Y0.6110
G01 X-1.8787 Y4.2150
G01 X-1.8603 Y4.2150
G01 X-1.8456 Y4.2161
G01 X-1.8311 Y4.2186
G01 X-1.8169 Y4.2226
G01 X-1.8032 Y4.2279
G01 X-1.7901 Y4.2345
G01 X-1.7807 Y4.2403
G01 X-1.7746 Y4.2445
G01 X-1.7633 Y4.2539
G01 X-1.7529 Y4.2643
G01 X-1.7435 Y4.2756
G01 X-1.7373 Y4.2848
G01 X-1.7335 Y4.2911
G01 X-1.7269 Y4.3042
G01 X-1.7216 Y4.3179
G01 X-1.7176 Y4.3321
G01 X-1.7151 Y4.3466
G01 X-1.7140 Y4.3613
G01 X-1.7140 Y7.0687
G01 X-1.7147 Y7.0797
G01 X-1.7156 Y7.0870
G01 X-1.7169 Y7.0943
G01 X-1.7194 Y7.1050
G01 X-1.7216 Y7.1121
G01 X-1.7254 Y7.1224
G01 X-1.7300 Y7.1324
G01 X-1.7335 Y7.1389
G01 X-1.7373 Y7.1452
G01 X-1.7435 Y7.1544
G01 X-1.7480 Y7.1602
G01 X-1.7554 Y7.1684
G01 X-1.7606 Y7.1736
G01 X-1.7688 Y7.1810
G01 X-1.7776 Y7.1876
G01 X-1.7838 Y7.1917
G01 X-1.7901 Y7.1955
G01 X-1.7999 Y7.2006
G01 X-1.8100 Y7.2049
G01 X-1.8205 Y7.2085
G01 X-1.8311 Y7.2114
G01 X-1.8420 Y7.2134
G01 X-1.8530 Y7.2146
G01 X-1.8603 Y7.2150
G01 X-3.4677 Y7.2150
G01 X-3.4787 Y7.2143
G01 X-3.4860 Y7.2134
G01 X-3.4933 Y7.2121
G01 X-3.5040 Y7.2096
G01 X-3.5145 Y7.2062
G01 X-3.5214 Y7.2036
G01 X-3.5314 Y7.1990
G01 X-3.5379 Y7.1955
G01 X-3.5442 Y7.1917
G01 X-3.5534 Y7.1855
G01 X-3.5620 Y7.1786
G01 X-3.5674 Y7.1736
G01 X-3.5751 Y7.1657
G01 X-3.5800 Y7.1602
G01 X-3.5845 Y7.1544
G01 X-3.5907 Y7.1452
G01 X-3.5963 Y7.1357
G01 X-3.6011 Y7.1258
G01 X-3.6052 Y7.1155
G01 X-3.6086 Y7.1050
G01 X-3.6111 Y7.0943
G01 X-3.6129 Y7.0834
G01 X-3.6136 Y7.0760
G01 X-3.6140 Y7.0650
G01 X-3.6140 Y4.3650
G00 Z2.0000
G00 X-4.7239 Y4.2150
G01 F60.00
G01 Z-0.3732
G01 F120.00
G01 X-4.7239 Y0.6110
G01 X-4.9639 Y0.6110
G01 X-4.9639 Y4.2150
G01 X-5.2039 Y4.2150
G01 X-5.2039 Y0.6110
G01 X-5.4439 Y0.6110
G01 X-5.4439 Y4.2150
G01 X-5.6839 Y4.2150
G01 X-5.6839 Y0.6110
G01 X-5.9239 Y0.6110
G01 X-5.9239 Y4.2150
G01 X-6.1639 Y4.2150
G01 X-6.1639 Y0.6110
G00 Z2.0000
G00 X-6.4039 Y0.5151
G01 F60.00
G01 Z-0.3732
G01 F120.00
G01 X-6.4039 Y4.3109
G00 Z2.0000
G00 X-6.6439 Y5.4249
G01 F60.00
G01 Z-0.3732
G01 F120.00
G01 X-6.6439 Y-0.1037
G01 X-6.8839 Y-0.1037
G01 X-6.8839 Y5.6649
G01 X-7.1239 Y5.9049
G01 X-7.1239 Y-0.1037
G01 X-7.3639 Y-0.1037
G01 X-7.3639 Y6.1449
G01 X-7.6039 Y6.3849
G01 X-7.6039 Y-0.1037
G01 X-7.8439 Y-0.1037
G01 X-7.8439 Y6.6249
G01 X-8.0839 Y6.8649
G01 X-8.0839 Y-0.1037
G01 X-8.3239 Y-0.1037
G01 X-8.3239 Y7.1049
G00 Z2.0000
G00 X-8.5639 Y7.3553
G01 F60.00
G01 Z-0.3732
G01 F120.00
G01 X-8.5639 Y-0.1037
G01 X-8.8039 Y-0.1037
G01 X-8.8039 Y9.2010
G00 Z2.0000
G00 X-9.0439 Y9.3994
G01 F60.00
G01 Z-0.3732
G01 F120.00
G01 X-9.0439 Y-0.1037
G01 X-9.2839 Y-0.1037
G01 X-9.2839 Y9.7082
G00 Z2.0000
G00 X-9.5239 Y10.5237
G01 F60.00
G01 Z-0.3732
G01 F120.00
G01 X-9.5239 Y-0.1037
G01 X-9.7639 Y-0.1037
G01 X-9.7639 Y21.3639
G01 X-10.0039 Y21.3639
G01 X-10.0039 Y-0.1037
G01 X-10.2439 Y-0.1037
G01 X-10.2439 Y21.3639
G01 X-10.4839 Y21.3639
G01 X-10.4839 Y-0.1037
G01 X-10.7239 Y-0.1037
G01 X-10.7239 Y21.3639
G01 X-10.9639 Y21.3639
G01 X-10.9639 Y-0.1037
G01 X-11.2039 Y-0.1037
G01 X-11.2039 Y21.3639
G01 X-11.4439 Y21.3639
G01 X-11.4439 Y0.1974
G01 X-11.6839 Y0.8134
G01 X-11.6839 Y21.3639
G01 X-11.9239 Y21.3639
G01 X-11.9239 Y1.4295
G01 X-12.1639 Y2.0455
G01 X-12.1639 Y21.3639
G01 X-12.4039 Y21.3639
G01 X-12.4039 Y2.6616
G01 X-12.6439 Y3.2776
G01 X-12.6439 Y21.3639
G01 X-12.8839 Y21.3639
G01 X-12.8839 Y3.8937
G01 X-13.1239 Y4.5097
G01 X-13.1239 Y21.3639
G01 X-13.3639 Y21.3639
G01 X-13.3639 Y5.1258
G01 X-13.6039 Y5.7418
G01 X-13.6039 Y21.3639
G01 X-13.8439 Y21.3639
G01 X-13.8439 Y6.3579
G01 X-14.0839 Y6.9739
G01 X-14.0839 Y21.3639
G01 X-14.3239 Y21.3639
G01 X-14.3239 Y14.1246
G00 Z2.0000
G00 X-14.5639 Y14.5653
G01 F60.00
G01 Z-0.3732
G01 F120.00
G01 X-14.5639 Y21.3639
G01 X-14.8039 Y21.3639
G01 X-14.8039 Y14.8197
G00 Z2.0000
G00 X-15.0439 Y14.9893
G01 F60.00
G01 Z-0.3732
G01 F120.00
G01 X-15.0439 Y21.3639
G01 X-15.2839 Y21.3639
G01 X-15.2839 Y15.1048
G00 Z2.0000
G00 X-15.5239 Y15.1769
G01 F60.00
G01 Z-0.3732
G01 F120.00
G01 X-15.5239 Y21.3639
G01 X-15.7639 Y21.3639
G01 X-15.7639 Y15.2105
G00 Z2.0000
G00 X-16.0039 Y15.2096
G01 F60.00
G01 Z-0.3732
G01 F120.00
G01 X-16.0039 Y21.3639
G01 X-16.2439 Y21.3639
G01 X-16.2439 Y15.1725
G00 Z2.0000
G00 X-16.4839 Y15.0984
G01 F60.00
G01 Z-0.3732
G01 F120.00
G01 X-16.4839 Y21.3639
G01 X-16.7239 Y21.3639
G01 X-16.7239 Y14.9786
G00 Z2.0000
G00 X-16.9639 Y14.8035
G01 F60.00
G01 Z-0.3732
G01 F120.00
G01 X-16.9639 Y21.3639
G01 X-17.2039 Y21.3639
G01 X-17.2039 Y14.5413
G00 Z2.0000
G00 X-17.4439 Y14.0748
G01 F60.00
G01 Z-0.3732
G01 F120.00
G01 X-17.4439 Y21.3639
G01 X-17.6839 Y21.3639
G01 X-17.6839 Y6.8006
G01 X-17.9239 Y7.9206
G01 X-17.9239 Y21.3639
G01 X-18.1639 Y21.3639
G01 X-18.1639 Y9.0406
G01 X-17.2039 Y9.5887
G01 X-17.2039 Y4.5605
G01 X-17.4439 Y5.6806
G01 X-17.4439 Y10.0552
G00 Z2.0000
G00 X-16.9639 Y9.3265
G01 F60.00
G01 Z-0.3732
G01 F120.00
G01 X-16.9639 Y3.4405
G01 X-16.7239 Y2.3205
G01 X-16.7239 Y8.0265
G00 Z2.0000
G00 X-16.4839 Y7.4075
G01 F60.00
G01 Z-0.3732
G01 F120.00
G01 X-16.4839 Y1.2004
G01 X-16.2439 Y0.0804
G01 X-16.2439 Y6.7915
G01 X-16.0039 Y6.1754
G01 X-16.0039 Y-0.0112
G00 Z2.0000
G00 X-16.0039 Y-2.1888
G01 F60.00
G01 Z-0.3732
G01 F120.00
G01 X-16.0039 Y-7.9516
G01 X-16.2439 Y-7.9516
G01 X-16.2439 Y-2.2152
G01 X-16.4839 Y-2.2152
G01 X-16.4839 Y-7.9516
G01 X-16.7239 Y-7.9516
G01 X-16.7239 Y-2.2152
G01 X-16.9639 Y-2.2152
G01 X-16.9639 Y-7.9516
G01 X-17.2039 Y-7.9516
G01 X-17.2039 Y-2.2152
G01 X-17.4439 Y-2.2152
G01 X-17.4439 Y-7.9516
G01 X-17.6839 Y-7.9516
G01 X-17.6839 Y-2.2152
G01 X-17.9239 Y-2.2152
G01 X-17.9239 Y-7.9516
G01 X-18.1639 Y-7.9516
G01 X-18.1639 Y-2.1047
G00 Z2.0000
G00 X-18.4039 Y0.2387
G01 F60.00
G01 Z-0.3732
G01 F120.00
G01 X-18.4039 Y-7.9516
G01 X-18.6439 Y-7.9516
G01 X-18.6439 Y1.3587
G01 X-18.8839 Y2.4788
G01 X-18.8839 Y-7.9516
G01 X-19.1239 Y-7.9516
G01 X-19.1239 Y3.5988
G01 X-19.3639 Y4.7188
G01 X-19.3639 Y-7.9516
G01 X-19.6039 Y-7.9516
G01 X-19.6039 Y5.8389
G01 X-19.8439 Y6.9589
G01 X-19.8439 Y-7.9516
G01 X-20.0839 Y-7.9516
G01 X-20.0839 Y8.0789
G01 X-20.2738 Y8.9650
G01 X-18.1692 Y-0.8566
G01 X-18.1692 Y-2.0652
G01 X-18.1685 Y-2.0799
G01 X-18.1663 Y-2.0945
G01 X-18.1638 Y-2.1052
G01 X-18.1591 Y-2.1192
G01 X-18.1548 Y-2.1293
G01 X-18.1497 Y-2.1391
G01 X-18.1439 Y-2.1485
G01 X-18.1375 Y-2.1575
G01 X-18.1328 Y-2.1632
G01 X-18.1253 Y-2.1713
G01 X-18.1172 Y-2.1788
G01 X-18.1086 Y-2.1857
G01 X-18.0994 Y-2.1919
G01 X-18.0899 Y-2.1975
G01 X-18.0800 Y-2.2023
G01 X-18.0697 Y-2.2064
G01 X-18.0592 Y-2.2098
G01 X-18.0485 Y-2.2123
G01 X-18.0376 Y-2.2141
G01 X-18.0266 Y-2.2150
G01 X-16.0851 Y-2.2152
G01 X-16.0704 Y-2.2141
G01 X-16.0559 Y-2.2116
G01 X-16.0453 Y-2.2087
G01 X-16.0314 Y-2.2038
G01 X-16.0181 Y-2.1975
G01 X-16.0055 Y-2.1899
G01 X-15.9936 Y-2.1812
G01 X-15.9827 Y-2.1713
G01 X-15.9728 Y-2.1604
G01 X-15.9641 Y-2.1485
G01 X-15.9565 Y-2.1359
G01 X-15.9502 Y-2.1226
G01 X-15.9453 Y-2.1087
G01 X-15.9417 Y-2.0945
G01 X-15.9395 Y-2.0799
G01 X-15.9388 Y-2.0652
G01 X-15.9388 Y-0.1348
G01 X-15.9395 Y-0.1201
G01 X-15.9417 Y-0.1055
G01 X-15.9433 Y-0.0984
G01 X-15.9464 Y-0.0877
G01 X-15.9502 Y-0.0774
G01 X-15.9532 Y-0.0707
G01 X-15.9583 Y-0.0609
G01 X-15.9621 Y-0.0546
G01 X-15.9683 Y-0.0454
G01 X-15.9728 Y-0.0396
G01 X-15.9802 Y-0.0314
G01 X-15.9854 Y-0.0262
G01 X-15.9908 Y-0.0212
G01 X-15.9994 Y-0.0143
G01 X-16.0086 Y-0.0081
G01 X-16.0149 Y-0.0043
G01 X-16.0247 Y0.0008
G01 X-16.0314 Y0.0038
G01 X-16.0453 Y0.0087
G01 X-16.0559 Y0.0116
G01 X-16.0704 Y0.0141
G01 X-16.0814 Y0.0150
G01 X-16.2299 Y0.0152
G01 X-18.3535 Y9.9253
G01 X-18.3473 Y9.9402
G01 X-18.2953 Y10.0858
G01 X-18.2560 Y10.2430
G01 X-18.2322 Y10.4032
G01 X-18.2243 Y10.5613
G01 X-18.2242 Y13.5650
G01 X-18.2322 Y13.7268
G01 X-18.2547 Y13.8798
G01 X-18.2567 Y13.8906
G01 X-18.2953 Y14.0442
G01 X-18.3499 Y14.1967
G01 X-18.4192 Y14.3432
G01 X-18.5025 Y14.4821
G01 X-18.5990 Y14.6122
G01 X-18.7077 Y14.7323
G01 X-18.8278 Y14.8410
G01 X-18.9519 Y14.9333
G01 X-18.9641 Y14.9415
G01 X-19.0904 Y15.0172
G01 X-19.1034 Y15.0241
G01 X-19.2433 Y15.0901
G01 X-19.3888 Y15.1424
G01 X-19.4029 Y15.1466
G01 X-19.5530 Y15.1840
G01 X-19.7132 Y15.2078
G01 X-19.8750 Y15.2158
G01 X-20.0368 Y15.2078
G01 X-20.1970 Y15.1840
G01 X-20.3542 Y15.1447
G01 X-20.5067 Y15.0901
G01 X-20.6466 Y15.0241
G01 X-20.6596 Y15.0172
G01 X-20.7921 Y14.9375
G01 X-20.9164 Y14.8456
G01 X-20.9278 Y14.8362
G01 X-21.0369 Y14.7373
G01 X-21.0473 Y14.7269
G01 X-21.1510 Y14.6122
G01 X-21.2475 Y14.4821
G01 X-21.3308 Y14.3432
G01 X-21.4001 Y14.1967
G01 X-21.4547 Y14.0442
G01 X-21.4940 Y13.8870
G01 X-21.5178 Y13.7268
G01 X-21.5257 Y13.5687
G01 X-21.5257 Y10.5613
G01 X-21.5183 Y10.4105
G01 X-21.5169 Y10.3959
G01 X-21.4940 Y10.2430
G01 X-21.4557 Y10.0893
G01 X-21.4524 Y10.0788
G01 X-21.4001 Y9.9333
G01 X-21.3341 Y9.7934
G01 X-21.3272 Y9.7804
G01 X-21.2475 Y9.6479
G01 X-21.1556 Y9.5236
G01 X-21.1462 Y9.5122
G01 X-21.0473 Y9.4031
G01 X-21.0396 Y9.3952
G01 X-20.9278 Y9.2938
G01 X-20.9164 Y9.2844
G01 X-20.7921 Y9.1925
G01 X-20.6564 Y9.1109
G01 X-20.6466 Y9.1059
G01 X-20.5134 Y9.0429
G01 X-20.5033 Y9.0385
G01 X-20.3577 Y8.9864
G01 X-20.3471 Y8.9834
G01 X-20.2738 Y8.9650
G01 X-20.3239 Y8.9776
G01 X-20.3239 Y-7.9516
G01 X-20.5639 Y-7.9516
G01 X-20.5639 Y9.0668
G00 Z2.0000
G00 X-20.8039 Y9.2010
G01 F60.00
G01 Z-0.3732
G01 F120.00
G01 X-20.8039 Y-7.9516
G01 X-21.0439 Y-7.9516
G01 X-21.0439 Y9.3994
G00 Z2.0000
G00 X-21.2839 Y9.7082
G01 F60.00
G01 Z-0.3732
G01 F120.00
G01 X-21.2839 Y-7.9516
G01 X-21.5239 Y-7.9516
G01 X-21.5239 Y10.5237
G01 X-22.2439 Y10.3231
G01 X-22.2439 Y-4.9754
G00 Z2.0000
G00 X-22.0039 Y-5.4474
G01 F60.00
G01 Z-0.3732
G01 F120.00
G01 X-22.0039 Y21.3639
G01 X-22.2439 Y21.3639
G01 X-22.2439 Y13.8069
G00 Z2.0000
G00 X-22.4839 Y14.4515
G01 F60.00
G01 Z-0.3732
G01 F120.00
G01 X-22.4839 Y21.3639
G01 X-22.7239 Y21.3639
G01 X-22.7239 Y14.7471
G00 Z2.0000
G00 X-22.9639 Y14.9414
G01 F60.00
G01 Z-0.3732
G01 F120.00
G01 X-22.9639 Y21.3639
G01 X-23.2039 Y21.3639
G01 X-23.2039 Y15.0717
G00 Z2.0000
G00 X-23.4439 Y15.1569
G01 F60.00
G01 Z-0.3732
G01 F120.00
G01 X-23.4439 Y21.3639
G01 X-23.6839 Y21.3639
G01 X-23.6839 Y15.2036
G00 Z2.0000
G00 X-23.9239 Y15.2135
G01 F60.00
G01 Z-0.3732
G01 F120.00
G01 X-23.9239 Y21.3639
G01 X-24.1639 Y21.3639
G01 X-24.1639 Y15.1891
G00 Z2.0000
G00 X-24.4039 Y15.1271
G01 F60.00
G01 Z-0.3732
G01 F120.00
G01 X-24.4039 Y21.3639
G01 X-24.6439 Y21.3639
G01 X-24.6439 Y15.0254
G00 Z2.0000
G00 X-24.8839 Y14.8697
G01 F60.00
G01 Z-0.3732
G01 F120.00
G01 X-24.8839 Y21.3639
G01 X-25.1239 Y21.3639
G01 X-25.1239 Y14.6424
G00 Z2.0000
G00 X-25.3639 Y14.2737
G01 F60.00
G01 Z-0.3732
G01 F120.00
G01 X-25.3639 Y21.3639
G01 X-25.6039 Y21.3639
G01 X-25.6039 Y-5.3104
G01 X-25.8439 Y-5.3104
G01 X-25.8439 Y21.3639
G01 X-26.0839 Y21.3639
G01 X-26.0839 Y-5.3104
G01 X-26.3239 Y-5.3104
G01 X-26.3239 Y10.0054
G00 Z2.0000
G00 X-26.5639 Y9.5647
G01 F60.00
G01 Z-0.3732
G01 F120.00
G01 X-26.5639 Y3.8507
G00 Z2.0000
G00 X-26.8039 Y4.0907
G01 F60.00
G01 Z-0.3732
G01 F120.00
G01 X-26.8039 Y9.3103
G00 Z2.0000
G00 X-27.0439 Y9.1407
G01 F60.00
G01 Z-0.3732
G01 F120.00
G01 X-27.0439 Y4.3223
G00 Z2.0000
G00 X-27.2839 Y4.3410
G01 F60.00
G01 Z-0.3732
G01 F120.00
G01 X-27.2839 Y9.0252
G00 Z2.0000
G00 X-27.5239 Y8.9531
G01 F60.00
G01 Z-0.3732
G01 F120.00
G01 X-27.5239 Y4.3410
G00 Z2.0000
G00 X-27.7639 Y4.3401
G01 F60.00
G01 Z-0.3732
G01 F120.00
G01 X-27.7639 Y8.9195
G00 Z2.0000
G00 X-28.0039 Y8.9204
G01 F60.00
G01 Z-0.3732
G01 F120.00
G01 X-28.0039 Y4.2143
G01 X-28.2439 Y4.2143
G01 X-28.2439 Y8.9575
G00 Z2.0000
G00 X-28.4839 Y9.0316
G01 F60.00
G01 Z-0.3732
G01 F120.00
G01 X-28.4839 Y4.2143
G01 X-28.7239 Y4.2143
G01 X-28.7239 Y9.1514
G00 Z2.0000
G00 X-28.9639 Y9.3265
G01 F60.00
G01 Z-0.3732
G01 F120.00
G01 X-28.9639 Y4.2143
G01 X-29.2039 Y4.2143
G01 X-29.2039 Y9.5887
G00 Z2.0000
G00 X-29.4439 Y10.0552
G01 F60.00
G01 Z-0.3732
G01 F120.00
G01 X-29.4439 Y4.2143
G01 X-29.6839 Y4.2143
G01 X-29.6839 Y11.8648
G01 X-29.9239 Y12.1048
G01 X-29.9239 Y4.2143
G00 Z2.0000
G00 X-29.9239 Y2.6437
G01 F60.00
G01 Z-0.3732
G01 F120.00
G01 X-29.9239 Y-5.3104
G01 X-30.1639 Y-5.3104
G01 X-30.1639 Y2.6437
G01 X-30.4039 Y2.6437
G01 X-30.4039 Y-5.3104
G01 X-30.6439 Y-5.3104
G01 X-30.6439 Y2.4212
G00 Z2.0000
G00 X-30.8839 Y2.2757
G01 F60.00
G01 Z-0.3732
G01 F120.00
G01 X-30.8839 Y-5.3104
G01 X-31.1239 Y-5.3104
G01 X-31.1239 Y2.1863
G00 Z2.0000
G00 X-31.3639 Y2.1417
G01 F60.00
G01 Z-0.3732
G01 F120.00
G01 X-31.3639 Y-5.3104
G01 X-31.6039 Y-5.3104
G01 X-31.6039 Y2.1405
G00 Z2.0000
G00 X-31.8439 Y2.1802
G01 F60.00
G01 Z-0.3732
G01 F120.00
G01 X-31.8439 Y-5.3104
G01 X-32.0839 Y-5.3104
G01 X-32.0839 Y2.2642
G00 Z2.0000
G00 X-32.3239 Y2.4032
G01 F60.00
G01 Z-0.3732
G01 F120.00
G01 X-32.3239 Y-5.3104
G01 X-32.5639 Y-5.1780
G01 X-32.5639 Y2.6211
G00 Z2.0000
G00 X-32.8039 Y3.0022
G01 F60.00
G01 Z-0.3732
G01 F120.00
G01 X-32.8039 Y-4.7053
G00 Z2.0000
G00 X-33.0439 Y-4.6760
G01 F60.00
G01 Z-0.3732
G01 F120.00
G01 X-33.0439 Y5.0478
G01 X-33.2839 Y5.2878
G01 X-33.2839 Y-4.5678
G00 Z2.0000
G00 X-33.5239 Y-4.4755
G01 F60.00
G01 Z-0.3732
G01 F120.00
G01 X-33.5239 Y5.5278
G01 X-33.7639 Y5.7678
G01 X-33.7639 Y-4.4289
G00 Z2.0000
G00 X-34.0039 Y-4.4258
G01 F60.00
G01 Z-0.3732
G01 F120.00
G01 X-34.0039 Y6.0078
G01 X-34.2439 Y6.2478
G01 X-34.2439 Y-4.4629
G00 Z2.0000
G00 X-34.4839 Y-4.5441
G01 F60.00
G01 Z-0.3732
G01 F120.00
G01 X-34.4839 Y6.4878
G01 X-34.7239 Y6.7278
G01 X-34.7239 Y-4.6760
G00 Z2.0000
G00 X-34.9639 Y-4.6811
G01 F60.00
G01 Z-0.3732
G01 F120.00
G01 X-34.9639 Y6.9678
G01 X-35.2039 Y7.2078
G01 X-35.2039 Y-5.2607
G00 Z2.0000
G00 X-35.2039 Y-6.4233
G01 F60.00
G01 Z-0.3732
G01 F120.00
G01 X-35.2039 Y-7.9516
G01 X-35.4439 Y-7.9516
G01 X-35.4439 Y7.4478
G01 X-35.6839 Y7.6878
G01 X-35.6839 Y-7.9516
G01 X-35.9239 Y-7.9516
G01 X-35.9239 Y7.9278
G01 X-36.1639 Y8.1678
G01 X-36.1639 Y-7.9516
G01 X-36.4039 Y-7.9516
G01 X-36.4039 Y8.4078
G01 X-36.6439 Y8.6478
G01 X-36.6439 Y4.3108
G00 Z2.0000
G00 X-36.8839 Y4.5993
G01 F60.00
G01 Z-0.3732
G01 F120.00
G01 X-36.8839 Y8.8878
G01 X-37.1239 Y9.1278
G01 X-37.1239 Y4.7777
G00 Z2.0000
G00 X-37.3639 Y4.8907
G01 F60.00
G01 Z-0.3732
G01 F120.00
G01 X-37.3639 Y9.3678
G00 Z2.0000
G00 X-37.4586 Y9.4628
G01 F60.00
G01 Z-0.3732
G01 F120.00
G01 X-32.9166 Y4.9206
G01 X-32.9166 Y3.5523
G01 X-32.9103 Y3.4241
G01 X-32.9089 Y3.4094
G01 X-32.8893 Y3.2788
G01 X-32.8565 Y3.1471
G01 X-32.8532 Y3.1366
G01 X-32.8085 Y3.0123
G01 X-32.7489 Y2.8863
G01 X-32.6772 Y2.7667
G01 X-32.5942 Y2.6548
G01 X-32.5005 Y2.5515
G01 X-32.3972 Y2.4578
G01 X-32.2853 Y2.3748
G01 X-32.1721 Y2.3067
G01 X-32.1591 Y2.2998
G01 X-32.0397 Y2.2435
G01 X-31.9154 Y2.1988
G01 X-31.9013 Y2.1946
G01 X-31.7803 Y2.1643
G01 X-31.7659 Y2.1614
G01 X-31.6352 Y2.1422
G01 X-31.4960 Y2.1354
G01 X-31.3568 Y2.1422
G01 X-31.2188 Y2.1627
G01 X-31.0836 Y2.1965
G01 X-30.9592 Y2.2409
G01 X-30.9456 Y2.2465
G01 X-30.8329 Y2.2998
G01 X-30.8199 Y2.3067
G01 X-30.7067 Y2.3748
G01 X-30.5948 Y2.4578
G01 X-30.4915 Y2.5515
G01 X-30.4076 Y2.6437
G01 X-27.9364 Y2.6437
G01 X-27.8537 Y2.5609
G01 X-27.8456 Y2.5534
G01 X-27.8370 Y2.5465
G01 X-27.8279 Y2.5403
G01 X-27.8216 Y2.5365
G01 X-27.8151 Y2.5330
G01 X-27.8050 Y2.5284
G01 X-27.7982 Y2.5258
G01 X-27.7876 Y2.5224
G01 X-27.7805 Y2.5206
G01 X-27.7696 Y2.5186
G01 X-27.7587 Y2.5174
G01 X-27.7476 Y2.5170
G01 X-27.1164 Y2.5170
G01 X-27.1090 Y2.5172
G01 X-27.0980 Y2.5181
G01 X-27.0871 Y2.5199
G01 X-27.0764 Y2.5224
G01 X-27.0624 Y2.5271
G01 X-27.0522 Y2.5314
G01 X-27.0424 Y2.5365
G01 X-27.0330 Y2.5423
G01 X-27.0241 Y2.5487
G01 X-27.0129 Y2.5584
G01 X-26.5639 Y3.0073
G01 X-26.5564 Y3.0154
G01 X-26.5517 Y3.0211
G01 X-26.5453 Y3.0300
G01 X-26.5413 Y3.0363
G01 X-26.5377 Y3.0427
G01 X-26.5329 Y3.0526
G01 X-26.5288 Y3.0628
G01 X-26.5254 Y3.0734
G01 X-26.5229 Y3.0841
G01 X-26.5216 Y3.0914
G01 X-26.5204 Y3.1023
G01 X-26.5200 Y3.1097
G01 X-26.5200 Y3.7483
G01 X-26.5211 Y3.7630
G01 X-26.5236 Y3.7775
G01 X-26.5265 Y3.7882
G01 X-26.5314 Y3.8020
G01 X-26.5377 Y3.8153
G01 X-26.5453 Y3.8280
G01 X-26.5517 Y3.8369
G01 X-26.5614 Y3.8481
G01 X-27.0103 Y4.2971
G01 X-27.0156 Y4.3021
G01 X-27.0241 Y4.3093
G01 X-27.0330 Y4.3157
G01 X-27.0393 Y4.3197
G01 X-27.0457 Y4.3233
G01 X-27.0556 Y4.3281
G01 X-27.0693 Y4.3334
G01 X-27.0799 Y4.3365
G01 X-27.0907 Y4.3388
G01 X-27.1017 Y4.3403
G01 X-27.1164 Y4.3410
G01 X-27.7476 Y4.3410
G01 X-27.7587 Y4.3406
G01 X-27.7696 Y4.3394
G01 X-27.7805 Y4.3374
G01 X-27.7876 Y4.3356
G01 X-27.7982 Y4.3322
G01 X-27.8050 Y4.3296
G01 X-27.8151 Y4.3250
G01 X-27.8216 Y4.3215
G01 X-27.8310 Y4.3157
G01 X-27.8370 Y4.3115
G01 X-27.8456 Y4.3046
G01 X-27.8537 Y4.2971
G01 X-27.9364 Y4.2143
G01 X-30.0754 Y4.2143
G01 X-30.0754 Y5.5090
G01 X-30.0817 Y5.6409
G01 X-30.0831 Y5.6556
G01 X-30.1027 Y5.7862
G01 X-30.1346 Y5.9143
G01 X-30.1388 Y5.9284
G01 X-30.1835 Y6.0527
G01 X-30.2398 Y6.1721
G01 X-30.2467 Y6.1851
G01 X-30.3148 Y6.2983
G01 X-30.3933 Y6.4044
G01 X-30.4026 Y6.4158
G01 X-30.4915 Y6.5135
G01 X-35.4445 Y11.4665
G01 X-35.5422 Y11.5554
G01 X-35.5536 Y11.5647
G01 X-35.6597 Y11.6432
G01 X-35.7729 Y11.7113
G01 X-35.7859 Y11.7182
G01 X-35.9053 Y11.7745
G01 X-36.0296 Y11.8192
G01 X-36.0437 Y11.8234
G01 X-36.1647 Y11.8537
G01 X-36.1791 Y11.8566
G01 X-36.3098 Y11.8758
G01 X-36.4490 Y11.8826
G01 X-36.5882 Y11.8758
G01 X-36.7262 Y11.8553
G01 X-36.8614 Y11.8215
G01 X-36.9927 Y11.7745
G01 X-37.1187 Y11.7149
G01 X-37.2320 Y11.6472
G01 X-37.2443 Y11.6390
G01 X-37.3444 Y11.5647
G01 X-37.3558 Y11.5554
G01 X-37.4535 Y11.4665
G01 X-37.5424 Y11.3688
G01 X-37.5517 Y11.3574
G01 X-37.6302 Y11.2513
G01 X-37.7019 Y11.1317
G01 X-37.7615 Y11.0057
G01 X-37.8085 Y10.8744
G01 X-37.8423 Y10.7392
G01 X-37.8628 Y10.6012
G01 X-37.8696 Y10.4620
G01 X-37.8633 Y10.3301
G01 X-37.8619 Y10.3154
G01 X-37.8423 Y10.1848
G01 X-37.8104 Y10.0567
G01 X-37.8062 Y10.0426
G01 X-37.7641 Y9.9252
G01 X-37.7585 Y9.9116
G01 X-37.7019 Y9.7923
G01 X-37.6302 Y9.6727
G01 X-37.5472 Y9.5608
G01 X-37.4586 Y9.4628
G00 Z2.0000
G00 X-37.6039 Y9.6370
G01 F60.00
G01 Z-0.3732
G01 F120.00
G01 X-37.6039 Y4.9547
G00 Z2.0000
G00 X-37.8439 Y4.9766
G01 F60.00
G01 Z-0.3732
G01 F120.00
G01 X-37.8439 Y10.1941
G00 Z2.0000
G00 X-37.8439 Y10.7299
G01 F60.00
G01 Z-0.3732
G01 F120.00
G01 X-37.8439 Y16.1941
G00 Z2.0000
G00 X-37.8439 Y16.7299
G01 F60.00
G01 Z-0.3732
G01 F120.00
G01 X-37.8439 Y21.3639
G01 X-38.0839 Y21.3639
G01 X-38.0839 Y4.9766
G01 X-38.3239 Y4.9766
G01 X-38.3239 Y21.3639
G01 X-38.5639 Y21.3639
G01 X-38.5639 Y4.9766
G01 X-38.8039 Y4.9766
G01 X-38.8039 Y21.3639
G01 X-39.0439 Y21.3639
G01 X-39.0439 Y4.9766
G01 X-39.2839 Y4.9766
G01 X-39.2839 Y21.3639
G01 X-39.5239 Y21.3639
G01 X-39.5239 Y4.9766
G01 X-39.7639 Y4.9766
G01 X-39.7639 Y21.3639
G01 X-40.0039 Y21.3639
G01 X-40.0039 Y4.9766
G01 X-40.2439 Y4.9766
G01 X-40.2439 Y21.3639
G01 X-40.4839 Y21.3639
G01 X-40.4839 Y4.9766
G01 X-40.7239 Y4.9766
G01 X-40.7239 Y21.3639
G01 X-40.9639 Y21.3639
G01 X-40.9639 Y4.9766
G01 X-41.2039 Y4.9766
G01 X-41.2039 Y21.3639
G01 X-41.4439 Y21.3639
G01 X-41.4439 Y4.9766
G01 X-41.6839 Y4.9766
G01 X-41.6839 Y21.3639
G01 X-41.9239 Y21.3639
G01 X-41.9239 Y4.9766
G01 X-42.1639 Y4.9766
G01 X-42.1639 Y21.3639
G01 X-42.4039 Y21.3639
G01 X-42.4039 Y4.9766
G01 X-42.6439 Y4.9766
G01 X-42.6439 Y21.3639
G01 X-42.8839 Y21.3639
G01 X-42.8839 Y4.9766
G01 X-43.1239 Y4.9766
G01 X-43.1239 Y21.3639
G01 X-43.3639 Y21.3639
G01 X-43.3639 Y4.9766
G01 X-43.6039 Y4.9766
G01 X-43.6039 Y21.3639
G01 X-43.8439 Y21.3639
G01 X-43.8439 Y4.9766
G01 X-44.0839 Y5.1990
G01 X-44.0839 Y21.3639
G01 X-44.3239 Y21.3639
G01 X-44.3239 Y5.4390
G01 X-44.5639 Y5.6790
G01 X-44.5639 Y21.3639
G01 X-44.8039 Y21.3639
G01 X-44.8039 Y5.9190
G01 X-45.0439 Y6.1590
G01 X-45.0439 Y21.3639
G01 X-45.2839 Y21.3639
G01 X-45.2839 Y6.3990
G01 X-45.5239 Y6.6390
G01 X-45.5239 Y14.9043
G00 Z2.0000
G00 X-45.7639 Y14.6141
G01 F60.00
G01 Z-0.3732
G01 F120.00
G01 X-45.7639 Y6.8790
G01 X-46.0039 Y7.1190
G01 X-46.0039 Y14.4421
G00 Z2.0000
G00 X-46.2439 Y14.3394
G01 F60.00
G01 Z-0.3732
G01 F120.00
G01 X-46.2439 Y7.3590
G00 Z2.0000
G00 X-48.1639 Y5.2608
G01 F60.00
G01 Z-0.3732
G01 F120.00
G01 X-48.1639 Y-4.6833
G00 Z2.0000
G00 X-47.9239 Y-4.5464
G01 F60.00
G01 Z-0.3732
G01 F120.00
G01 X-47.9239 Y5.0208
G01 X-47.6839 Y4.7808
G01 X-47.6839 Y-4.4642
G00 Z2.0000
G00 X-47.4439 Y-4.4261
G01 F60.00
G01 Z-0.3732
G01 F120.00
G01 X-47.4439 Y4.5408
G01 X-47.2039 Y4.3008
G01 X-47.2039 Y-4.4214
G01 X-46.9639 Y-4.4214
G01 X-46.9639 Y4.0608
G01 X-46.7239 Y3.8208
G01 X-46.7239 Y-4.4214
G01 X-46.4839 Y-4.4214
G01 X-46.4839 Y3.5808
G01 X-46.2439 Y3.3408
G01 X-46.2439 Y-4.4214
G01 X-46.0039 Y-4.4214
G01 X-46.0039 Y3.1008
G01 X-45.7639 Y2.8608
G01 X-45.7639 Y-4.4214
G01 X-45.5239 Y-4.4214
G01 X-45.5239 Y2.6208
G00 Z2.0000
G00 X-45.2839 Y2.4077
G01 F60.00
G01 Z-0.3732
G01 F120.00
G01 X-45.2839 Y-4.4214
G01 X-45.0439 Y-4.4214
G01 X-45.0439 Y2.2671
G00 Z2.0000
G00 X-44.8039 Y2.1817
G01 F60.00
G01 Z-0.3732
G01 F120.00
G01 X-44.8039 Y-4.4214
G01 X-44.5639 Y-4.4214
G01 X-44.5639 Y2.1408
G00 Z2.0000
G00 X-44.3239 Y2.1354
G01 F60.00
G01 Z-0.3732
G01 F120.00
G01 X-44.3239 Y-4.4214
G01 X-44.0839 Y-4.4214
G01 X-44.0839 Y2.1354
G01 X-43.8439 Y2.1354
G01 X-43.8439 Y-4.4214
G01 X-43.6039 Y-4.4214
G01 X-43.6039 Y2.1354
G01 X-43.3639 Y2.1354
G01 X-43.3639 Y-4.4214
G01 X-43.1239 Y-4.4214
G01 X-43.1239 Y2.1354
G01 X-42.8839 Y2.1354
G01 X-42.8839 Y-4.4214
G01 X-42.6439 Y-4.4214
G01 X-42.6439 Y2.1354
G01 X-42.4039 Y2.1354
G01 X-42.4039 Y-4.4214
G01 X-42.1639 Y-4.4214
G01 X-42.1639 Y2.1354
G01 X-41.9239 Y2.1354
G01 X-41.9239 Y-4.4214
G01 X-41.6839 Y-4.4214
G01 X-41.6839 Y2.1354
G01 X-41.4439 Y2.1354
G01 X-41.4439 Y-4.4214
G01 X-41.2039 Y-4.4214
G01 X-41.2039 Y2.1354
G01 X-40.9639 Y2.1354
G01 X-40.9639 Y-4.4214
G01 X-40.7239 Y-4.4214
G01 X-40.7239 Y2.1354
G01 X-40.4839 Y2.1354
G01 X-40.4839 Y-4.4214
G01 X-40.2439 Y-4.4214
G01 X-40.2439 Y2.1354
G01 X-40.0039 Y2.1354
G01 X-40.0039 Y-4.4214
G01 X-39.7639 Y-4.4214
G01 X-39.7639 Y2.1354
G01 X-39.5239 Y2.1354
G01 X-39.5239 Y-4.4214
G01 X-39.2839 Y-4.4214
G01 X-39.2839 Y2.1354
G01 X-39.0439 Y2.1354
G01 X-39.0439 Y-4.4214
G00 Z2.0000
G00 X-38.8039 Y-4.4263
G01 F60.00
G01 Z-0.3732
G01 F120.00
G01 X-38.8039 Y2.1354
G01 X-38.5639 Y2.1354
G01 X-38.5639 Y-4.4655
G00 Z2.0000
G00 X-38.3239 Y-4.5489
G01 F60.00
G01 Z-0.3732
G01 F120.00
G01 X-38.3239 Y2.1354
G01 X-38.0839 Y2.1354
G01 X-38.0839 Y-4.6871
G00 Z2.0000
G00 X-37.8439 Y-4.9040
G01 F60.00
G01 Z-0.3732
G01 F120.00
G01 X-37.8439 Y2.1354
G00 Z2.0000
G00 X-37.6039 Y2.1573
G01 F60.00
G01 Z-0.3732
G01 F120.00
G01 X-37.6039 Y-5.2823
G00 Z2.0000
G00 X-37.6039 Y-6.4017
G01 F60.00
G01 Z-0.3732
G01 F120.00
G01 X-37.6039 Y-7.9516
G01 X-37.8439 Y-7.9516
G01 X-37.8439 Y-6.7800
G00 Z2.0000
G00 X-38.0839 Y-6.9969
G01 F60.00
G01 Z-0.3732
G01 F120.00
G01 X-38.0839 Y-7.9516
G01 X-38.3239 Y-7.9516
G01 X-38.3239 Y-7.1351
G00 Z2.0000
G00 X-38.5639 Y-7.2185
G01 F60.00
G01 Z-0.3732
G01 F120.00
G01 X-38.5639 Y-7.9516
G01 X-38.8039 Y-7.9516
G01 X-38.8039 Y-7.2577
G00 Z2.0000
G00 X-39.0439 Y-7.2626
G01 F60.00
G01 Z-0.3732
G01 F120.00
G01 X-39.0439 Y-7.9516
G01 X-39.2839 Y-7.9516
G01 X-39.2839 Y-7.2626
G01 X-39.5239 Y-7.2626
G01 X-39.5239 Y-7.9516
G01 X-39.7639 Y-7.9516
G01 X-39.7639 Y-7.2626
G01 X-40.0039 Y-7.2626
G01 X-40.0039 Y-7.9516
G01 X-40.2439 Y-7.9516
G01 X-40.2439 Y-7.2626
G01 X-40.4839 Y-7.2626
G01 X-40.4839 Y-7.9516
G01 X-40.7239 Y-7.9516
G01 X-40.7239 Y-7.2626
G01 X-40.9639 Y-7.2626
G01 X-40.9639 Y-7.9516
G01 X-41.2039 Y-7.9516
G01 X-41.2039 Y-7.2626
G01 X-41.4439 Y-7.2626
G01 X-41.4439 Y-7.9516
G01 X-41.6839 Y-7.9516
G01 X-41.6839 Y-7.2626
G01 X-41.9239 Y-7.2626
G01 X-41.9239 Y-7.9516
G01 X-42.1639 Y-7.9516
G01 X-42.1639 Y-7.2626
G01 X-42.4039 Y-7.2626
G01 X-42.4039 Y-7.9516
G01 X-42.6439 Y-7.9516
G01 X-42.6439 Y-7.2626
G01 X-42.8839 Y-7.2626
G01 X-42.8839 Y-7.9516
G01 X-43.1239 Y-7.9516
G01 X-43.1239 Y-7.2626
G01 X-43.3639 Y-7.2626
G01 X-43.3639 Y-7.9516
G01 X-43.6039 Y-7.9516
G01 X-43.6039 Y-7.2626
G01 X-43.8439 Y-7.2626
G01 X-43.8439 Y-7.9516
G01 X-44.0839 Y-7.9516
G01 X-44.0839 Y-7.2626
G01 X-44.3239 Y-7.2626
G01 X-44.3239 Y-7.9516
G01 X-44.5639 Y-7.9516
G01 X-44.5639 Y-7.2626
G01 X-44.8039 Y-7.2626
G01 X-44.8039 Y-7.9516
G01 X-45.0439 Y-7.9516
G01 X-45.0439 Y-7.2626
G01 X-45.2839 Y-7.2626
G01 X-45.2839 Y-7.9516
G01 X-45.5239 Y-7.9516
G01 X-45.5239 Y-7.2626
G01 X-45.7639 Y-7.2626
G01 X-45.7639 Y-7.9516
G01 X-46.0039 Y-7.9516
G01 X-46.0039 Y-7.4019
G00 Z2.0000
G00 X-46.2439 Y-7.5046
G01 F60.00
G01 Z-0.3732
G01 F120.00
G01 X-46.2439 Y-7.9516
G01 X-46.4839 Y-7.9516
G01 X-46.4839 Y-7.5548
G00 Z2.0000
G00 X-46.7239 Y-7.5636
G01 F60.00
G01 Z-0.3732
G01 F120.00
G01 X-46.7239 Y-7.9516
G01 X-46.9639 Y-7.9516
G01 X-46.9639 Y-7.5636
G01 X-47.2039 Y-7.5711
G01 X-47.2039 Y-7.9516
G01 X-47.4439 Y-7.9516
G01 X-47.4439 Y-7.6508
G00 Z2.0000
G00 X-47.6839 Y-7.6865
G01 F60.00
G01 Z-0.3732
G01 F120.00
G01 X-47.6839 Y-7.9516
G01 X-47.9239 Y-7.9516
G01 X-47.9239 Y-7.6821
G00 Z2.0000
G00 X-48.1639 Y-7.6348
G01 F60.00
G01 Z-0.3732
G01 F120.00
G01 X-48.1639 Y-7.9516
G01 X-48.4039 Y-7.9516
G01 X-48.4039 Y-7.5636
G01 X-48.6439 Y-7.5636
G01 X-48.6439 Y-7.9516
G01 X-48.8839 Y-7.9516
G01 X-48.8839 Y-7.5636
G00 Z2.0000
G00 X-48.9224 Y-7.5634
G01 F60.00
G01 Z-0.3732
G01 F120.00
G01 X-48.3561 Y-7.5636
G01 X-48.3224 Y-7.5795
G01 X-48.3122 Y-7.5839
G01 X-48.1879 Y-7.6284
G01 X-48.1773 Y-7.6314
G01 X-48.0563 Y-7.6617
G01 X-48.0455 Y-7.6640
G01 X-47.9112 Y-7.6838
G01 X-47.7794 Y-7.6905
G01 X-47.7646 Y-7.6905
G01 X-47.6328 Y-7.6838
G01 X-47.4948 Y-7.6633
G01 X-47.3631 Y-7.6305
G01 X-47.3526 Y-7.6272
G01 X-47.2318 Y-7.5839
G01 X-47.2216 Y-7.5795
G01 X-47.1879 Y-7.5636
G01 X-46.6253 Y-7.5635
G01 X-46.5022 Y-7.5573
G01 X-46.3839 Y-7.5400
G01 X-46.3730 Y-7.5380
G01 X-46.2606 Y-7.5098
G01 X-46.2465 Y-7.5056
G01 X-46.1340 Y-7.4651
G01 X-46.0258 Y-7.4141
G01 X-46.0128 Y-7.4072
G01 X-45.9103 Y-7.3456
G01 X-45.8142 Y-7.2745
G01 X-45.8084 Y-7.2699
G01 X-45.8000 Y-7.2626
G01 X-38.9090 Y-7.2626
G01 X-38.7698 Y-7.2558
G01 X-38.6355 Y-7.2360
G01 X-38.6247 Y-7.2337
G01 X-38.4966 Y-7.2015
G01 X-38.3653 Y-7.1545
G01 X-38.2393 Y-7.0949
G01 X-38.1197 Y-7.0232
G01 X-38.0078 Y-6.9402
G01 X-37.9045 Y-6.8465
G01 X-37.8108 Y-6.7432
G01 X-37.7278 Y-6.6313
G01 X-37.6561 Y-6.5117
G01 X-37.5965 Y-6.3857
G01 X-37.5495 Y-6.2544
G01 X-37.5157 Y-6.1192
G01 X-37.4952 Y-5.9812
G01 X-37.4884 Y-5.8420
G01 X-37.4952 Y-5.7028
G01 X-37.5150 Y-5.5685
G01 X-37.5173 Y-5.5577
G01 X-37.5476 Y-5.4367
G01 X-37.5518 Y-5.4226
G01 X-37.5965 Y-5.2983
G01 X-37.6561 Y-5.1723
G01 X-37.7278 Y-5.0527
G01 X-37.8063 Y-4.9466
G01 X-37.8156 Y-4.9352
G01 X-37.8994 Y-4.8428
G01 X-37.9098 Y-4.8324
G01 X-38.0078 Y-4.7438
G01 X-38.1197 Y-4.6608
G01 X-38.2393 Y-4.5891
G01 X-38.3586 Y-4.5325
G01 X-38.3722 Y-4.5269
G01 X-38.4896 Y-4.4848
G01 X-38.5037 Y-4.4806
G01 X-38.6318 Y-4.4487
G01 X-38.7661 Y-4.4286
G01 X-38.7771 Y-4.4277
G01 X-38.9090 Y-4.4214
G01 X-47.3440 Y-4.4214
G01 X-47.4832 Y-4.4282
G01 X-47.6175 Y-4.4480
G01 X-47.6283 Y-4.4503
G01 X-47.7564 Y-4.4825
G01 X-47.8877 Y-4.5295
G01 X-48.0137 Y-4.5891
G01 X-48.1270 Y-4.6568
G01 X-48.1393 Y-4.6650
G01 X-48.2394 Y-4.7393
G01 X-48.2508 Y-4.7486
G01 X-48.3459 Y-4.8349
G01 X-48.4875 Y-4.9764
G01 X-48.9187 Y-4.9765
G01 X-49.0344 Y-4.9821
G01 X-49.0491 Y-4.9836
G01 X-49.1674 Y-5.0013
G01 X-49.2905 Y-5.0321
G01 X-49.4100 Y-5.0749
G01 X-49.5248 Y-5.1292
G01 X-49.6337 Y-5.1944
G01 X-49.7298 Y-5.2655
G01 X-49.7412 Y-5.2749
G01 X-49.8244 Y-5.3502
G01 X-49.8348 Y-5.3606
G01 X-49.9149 Y-5.4494
G01 X-49.9906 Y-5.5513
G01 X-50.0558 Y-5.6602
G01 X-50.1101 Y-5.7750
G01 X-50.1529 Y-5.8945
G01 X-50.1821 Y-6.0105
G01 X-50.1850 Y-6.0249
G01 X-50.2023 Y-6.1432
G01 X-50.2084 Y-6.2626
G01 X-50.2084 Y-6.2774
G01 X-50.2023 Y-6.3968
G01 X-50.1837 Y-6.5224
G01 X-50.1548 Y-6.6384
G01 X-50.1506 Y-6.6525
G01 X-50.1101 Y-6.7650
G01 X-50.0591 Y-6.8732
G01 X-50.0522 Y-6.8862
G01 X-49.9906 Y-6.9887
G01 X-49.9149 Y-7.0906
G01 X-49.8348 Y-7.1794
G01 X-49.8244 Y-7.1898
G01 X-49.7356 Y-7.2699
G01 X-49.6397 Y-7.3413
G01 X-49.6274 Y-7.3495
G01 X-49.5248 Y-7.4108
G01 X-49.4100 Y-7.4651
G01 X-49.2975 Y-7.5056
G01 X-49.2834 Y-7.5098
G01 X-49.1674 Y-7.5387
G01 X-49.0491 Y-7.5564
G01 X-49.0344 Y-7.5579
G01 X-48.9224 Y-7.5634
G00 Z2.0000
G00 X-49.1239 Y-7.5453
G01 F60.00
G01 Z-0.3732
G01 F120.00
G01 X-49.1239 Y-7.9516
G01 X-49.3639 Y-7.9516
G01 X-49.3639 Y-7.4818
G00 Z2.0000
G00 X-49.6039 Y-7.3636
G01 F60.00
G01 Z-0.3732
G01 F120.00
G01 X-49.6039 Y-7.9516
G01 X-49.8439 Y-7.9516
G01 X-49.8439 Y-7.1693
G00 Z2.0000
G00 X-50.0839 Y-6.8209
G01 F60.00
G01 Z-0.3732
G01 F120.00
G01 X-50.0839 Y-7.9516
G01 X-50.3239 Y-7.9516
G01 X-50.3239 Y21.3639
G01 X-50.5639 Y21.3639
G01 X-50.5639 Y-7.9516
G01 X-50.8039 Y-7.9516
G01 X-50.8039 Y21.3639
G01 X-51.0439 Y21.3639
G01 X-51.0439 Y-7.9516
G01 X-51.2839 Y-7.9516
G01 X-51.2839 Y21.3639
G01 X-51.5239 Y21.3639
G01 X-51.5239 Y-7.9516
G01 X-51.7639 Y-7.9516
G01 X-51.7639 Y21.3639
G01 X-52.0039 Y21.3639
G01 X-52.0039 Y-7.9516
G01 X-52.2439 Y-7.9516
G01 X-52.2439 Y21.3639
G01 X-52.4839 Y21.3639
G01 X-52.4839 Y-7.9516
G01 X-52.7239 Y-7.9516
G01 X-52.7239 Y21.3639
G01 X-52.9639 Y21.3639
G01 X-52.9639 Y-7.9516
G01 X-53.2039 Y-7.9516
G01 X-53.2039 Y21.3639
G01 X-53.4439 Y21.3639
G01 X-53.4439 Y-7.9516
G01 X-53.6839 Y-7.9516
G01 X-53.6839 Y21.3639
G01 X-53.9239 Y21.3639
G01 X-53.9239 Y-7.9516
G01 X-54.1639 Y-7.9516
G01 X-54.1639 Y21.3639
G01 X-54.4039 Y21.3639
G01 X-54.4039 Y-7.9516
G01 X-54.6439 Y-7.9516
G01 X-54.6439 Y21.3639
G01 X-54.8839 Y21.3639
G01 X-54.8839 Y-7.9516
G01 X-55.1239 Y-7.9516
G01 X-55.1239 Y21.3639
G01 X-55.3639 Y21.3639
G01 X-55.3639 Y-7.9516
G01 X-55.6039 Y-7.9516
G01 X-55.6039 Y21.3639
G01 X-55.8439 Y21.3639
G01 X-55.8439 Y-7.9516
G01 X-56.0839 Y-7.9516
G01 X-56.0839 Y21.3657
G00 Z2.0000
G00 X-56.0839 Y21.3657
G01 F60.00
G01 Z-0.3732
G01 F120.00
G01 X-56.0716 Y21.3643
G01 X-56.0578 Y21.3639
G01 X-9.2956 Y21.3639
G01 X-9.2956 Y14.4022
G01 X-9.3272 Y14.3496
G01 X-9.3325 Y14.3399
G01 X-9.3986 Y14.2001
G01 X-9.4027 Y14.1898
G01 X-9.4524 Y14.0512
G01 X-9.4557 Y14.0407
G01 X-9.4940 Y13.8870
G01 X-9.5169 Y13.7341
G01 X-9.5183 Y13.7195
G01 X-9.5257 Y13.5687
G01 X-9.5257 Y10.5613
G01 X-9.5183 Y10.4105
G01 X-9.5169 Y10.3959
G01 X-9.4940 Y10.2430
G01 X-9.4557 Y10.0893
G01 X-9.4524 Y10.0788
G01 X-9.4001 Y9.9333
G01 X-9.3341 Y9.7934
G01 X-9.3272 Y9.7804
G01 X-9.2515 Y9.6541
G01 X-9.2433 Y9.6419
G01 X-9.1510 Y9.5178
G01 X-9.0423 Y9.3977
G01 X-8.9222 Y9.2890
G01 X-8.7981 Y9.1967
G01 X-8.7894 Y9.1907
G01 X-8.7894 Y8.0010
G01 X-8.7848 Y7.9028
G01 X-8.7835 Y7.8918
G01 X-8.7695 Y7.7982
G01 X-8.7447 Y7.6993
G01 X-8.7103 Y7.6032
G01 X-8.6667 Y7.5110
G01 X-8.6182 Y7.4297
G01 X-8.6100 Y7.4175
G01 X-8.5535 Y7.3416
G01 X-8.4876 Y7.2686
G01 X-6.4140 Y5.1950
G01 X-6.4140 Y4.3613
G01 X-6.4129 Y4.3466
G01 X-6.4111 Y4.3357
G01 X-6.4086 Y4.3250
G01 X-6.4039 Y4.3110
G01 X-6.3996 Y4.3009
G01 X-6.3927 Y4.2879
G01 X-6.3866 Y4.2786
G01 X-6.3800 Y4.2698
G01 X-6.3701 Y4.2589
G01 X-6.3647 Y4.2539
G01 X-6.3563 Y4.2467
G01 X-6.3473 Y4.2403
G01 X-6.3411 Y4.2363
G01 X-6.3281 Y4.2294
G01 X-6.3145 Y4.2238
G01 X-6.3004 Y4.2195
G01 X-6.2933 Y4.2179
G01 X-6.2824 Y4.2161
G01 X-6.2677 Y4.2150
G01 X-4.6640 Y4.2150
G01 X-4.6530 Y4.2154
G01 X-4.6384 Y4.2172
G01 X-4.6276 Y4.2195
G01 X-4.6135 Y4.2238
G01 X-4.6032 Y4.2279
G01 X-4.5933 Y4.2327
G01 X-4.5838 Y4.2383
G01 X-4.5746 Y4.2445
G01 X-4.5660 Y4.2514
G01 X-4.5554 Y4.2616
G01 X-4.5480 Y4.2698
G01 X-4.5414 Y4.2786
G01 X-4.5353 Y4.2879
G01 X-4.5300 Y4.2976
G01 X-4.5241 Y4.3110
G01 X-4.5205 Y4.3215
G01 X-4.5176 Y4.3321
G01 X-4.5156 Y4.3430
G01 X-4.5144 Y4.3540
G01 X-4.5140 Y4.3650
G01 X-4.5140 Y5.2950
G01 X-4.5051 Y5.3138
G01 X-4.5023 Y5.3206
G01 X-4.4704 Y5.4098
G01 X-4.4673 Y5.4204
G01 X-4.4453 Y5.5086
G01 X-4.4433 Y5.5195
G01 X-4.4296 Y5.6131
G01 X-4.4247 Y5.7076
G01 X-4.4247 Y5.7224
G01 X-4.4296 Y5.8169
G01 X-4.4445 Y5.9178
G01 X-4.4673 Y6.0096
G01 X-4.4704 Y6.0202
G01 X-4.5023 Y6.1094
G01 X-4.5051 Y6.1162
G01 X-4.5140 Y6.1350
G01 X-4.5140 Y7.0687
G01 X-4.5147 Y7.0797
G01 X-4.5156 Y7.0870
G01 X-4.5185 Y7.1014
G01 X-4.5228 Y7.1155
G01 X-4.5254 Y7.1224
G01 X-4.5300 Y7.1324
G01 X-4.5353 Y7.1421
G01 X-4.5393 Y7.1483
G01 X-4.5457 Y7.1573
G01 X-4.5529 Y7.1657
G01 X-4.5606 Y7.1736
G01 X-4.5660 Y7.1786
G01 X-4.5746 Y7.1855
G01 X-4.5807 Y7.1897
G01 X-4.5901 Y7.1955
G01 X-4.5966 Y7.1990
G01 X-4.6032 Y7.2021
G01 X-4.6135 Y7.2062
G01 X-4.6240 Y7.2096
G01 X-4.6347 Y7.2121
G01 X-4.6456 Y7.2139
G01 X-4.6530 Y7.2146
G01 X-4.6640 Y7.2150
G01 X-5.4940 Y7.2150
G01 X-6.7106 Y8.4316
G01 X-6.7106 Y9.3950
G01 X-6.7027 Y9.4031
G01 X-6.5990 Y9.5178
G01 X-6.5025 Y9.6479
G01 X-6.4192 Y9.7868
G01 X-6.3499 Y9.9333
G01 X-6.2953 Y10.0858
G01 X-6.2560 Y10.2430
G01 X-6.2322 Y10.4032
G01 X-6.2243 Y10.5613
G01 X-6.2242 Y13.5650
G01 X-6.2317 Y13.7195
G01 X-6.2331 Y13.7341
G01 X-6.2560 Y13.8870
G01 X-6.2934 Y14.0371
G01 X-6.2964 Y14.0477
G01 X-6.3473 Y14.1898
G01 X-6.3514 Y14.2001
G01 X-6.4175 Y14.3399
G01 X-6.4228 Y14.3496
G01 X-6.4544 Y14.4022
G01 X-6.4544 Y21.3639
G01 X-5.9522 Y21.3640
G01 X-5.9401 Y21.3648
G01 X-5.9163 Y21.3675
G01 X-5.9058 Y21.3695
G01 X-5.8947 Y21.3724
G01 X-5.8803 Y21.3773
G01 X-5.8568 Y21.3874
G01 X-5.8465 Y21.3923
G01 X-5.8367 Y21.3980
G01 X-5.8244 Y21.4064
G01 X-5.8157 Y21.4132
G01 X-5.7956 Y21.4313
G01 X-5.7905 Y21.4363
G01 X-5.7832 Y21.4443
G01 X-5.7731 Y21.4574
G01 X-5.7671 Y21.4666
G01 X-5.7529 Y21.4916
G01 X-5.7468 Y21.5048
G01 X-5.7421 Y21.5169
G01 X-5.7389 Y21.5277
G01 X-5.7364 Y21.5387
G01 X-5.7317 Y21.5653
G01 X-5.7305 Y21.5762
G01 X-5.7301 Y21.5900
G01 X-5.7301 Y26.2571
G01 X-5.7304 Y26.2672
G01 X-5.7318 Y26.2847
G01 X-5.7340 Y26.2989
G01 X-5.7362 Y26.3093
G01 X-5.7390 Y26.3195
G01 X-5.7472 Y26.3427
G01 X-5.7515 Y26.3532
G01 X-5.7549 Y26.3601
G01 X-5.7631 Y26.3748
G01 X-5.7690 Y26.3838
G01 X-5.7847 Y26.4038
G01 X-5.7914 Y26.4118
G01 X-5.8885 Y26.5092
G01 X-5.9049 Y26.5240
G01 X-5.9137 Y26.5310
G01 X-5.9277 Y26.5406
G01 X-5.9370 Y26.5460
G01 X-5.9602 Y26.5572
G01 X-5.9734 Y26.5626
G01 X-5.9898 Y26.5677
G01 X-6.0041 Y26.5710
G01 X-6.0307 Y26.5745
G01 X-6.0413 Y26.5753
G01 X-9.2244 Y26.5755
G01 X-9.4350 Y26.6627
G01 X-9.4485 Y26.6679
G01 X-9.4594 Y26.6711
G01 X-9.4811 Y26.6763
G01 X-9.4954 Y26.6782
G01 X-9.5176 Y26.6798
G01 X-11.8310 Y26.6799
G01 X-11.8550 Y26.6786
G01 X-11.8622 Y26.6778
G01 X-11.8763 Y26.6754
G01 X-11.8866 Y26.6730
G01 X-11.8968 Y26.6698
G01 X-11.9201 Y26.6615
G01 X-11.9340 Y26.6551
G01 X-11.9487 Y26.6469
G01 X-11.9577 Y26.6410
G01 X-11.9805 Y26.6231
G01 X-11.9884 Y26.6161
G01 X-13.6624 Y24.9423
G01 X-14.3680 Y24.6499
G01 X-15.1320 Y24.6499
G01 X-15.8376 Y24.9423
G01 X-16.3777 Y25.4824
G01 X-16.6701 Y26.1880
G01 X-16.6701 Y26.9520
G01 X-16.3777 Y27.6576
G01 X-13.8076 Y30.2277
G01 X-13.1020 Y30.5201
G01 X-7.0181 Y30.5201
G01 X-6.8075 Y30.4328
G01 X-6.7956 Y30.4283
G01 X-6.7853 Y30.4251
G01 X-6.7629 Y30.4195
G01 X-6.7484 Y30.4174
G01 X-6.7281 Y30.4158
G01 X-4.7775 Y30.4156
G01 X-4.0718 Y30.1233
G01 X-2.1823 Y28.2337
G01 X-1.8899 Y27.5281
G01 X-1.8899 Y21.5900
G01 X-1.8894 Y21.5779
G01 X-1.8868 Y21.5537
G01 X-1.8843 Y21.5396
G01 X-1.8791 Y21.5212
G01 X-1.8750 Y21.5106
G01 X-1.8664 Y21.4906
G01 X-1.8615 Y21.4803
G01 X-1.8558 Y21.4705
G01 X-1.8470 Y21.4575
G01 X-1.8400 Y21.4488
G01 X-1.8225 Y21.4294
G01 X-1.8149 Y21.4218
G01 X-1.8067 Y21.4147
G01 X-1.7964 Y21.4069
G01 X-1.7841 Y21.3991
G01 X-1.7622 Y21.3867
G01 X-1.7524 Y21.3820
G01 X-1.7344 Y21.3752
G01 X-1.7201 Y21.3713
G01 X-1.6885 Y21.3655
G01 X-1.6776 Y21.3643
G01 X-1.6638 Y21.3639
G01 X-1.0922 Y21.3639
G01 X-1.0801 Y21.3644
G01 X-1.0661 Y21.3658
G01 X-1.0661 Y-7.9516
G01 X-23.5332 Y-7.9516
G01 X-23.4740 Y-7.9162
G01 X-23.4647 Y-7.9101
G01 X-23.3586 Y-7.8315
G01 X-23.3502 Y-7.8244
G01 X-23.2551 Y-7.7381
G01 X-22.3635 Y-6.8465
G01 X-22.2746 Y-6.7488
G01 X-22.2675 Y-6.7404
G01 X-22.1868 Y-6.6313
G01 X-22.1187 Y-6.5181
G01 X-22.1118 Y-6.5051
G01 X-22.0555 Y-6.3857
G01 X-22.0085 Y-6.2544
G01 X-21.9763 Y-6.1263
G01 X-21.9734 Y-6.1119
G01 X-21.9551 Y-5.9886
G01 X-21.9537 Y-5.9739
G01 X-21.9474 Y-5.8420
G01 X-21.9542 Y-5.7028
G01 X-21.9747 Y-5.5648
G01 X-22.0085 Y-5.4296
G01 X-22.0555 Y-5.2983
G01 X-22.1151 Y-5.1723
G01 X-22.1868 Y-5.0527
G01 X-22.2650 Y-4.9469
G01 X-22.2650 Y7.8740
G01 X-22.2698 Y7.9748
G01 X-22.2712 Y7.9894
G01 X-22.2862 Y8.0892
G01 X-22.3125 Y8.1942
G01 X-22.3490 Y8.2961
G01 X-22.3920 Y8.3874
G01 X-22.3970 Y8.3972
G01 X-22.4509 Y8.4868
G01 X-22.5109 Y8.5679
G01 X-22.5178 Y8.5765
G01 X-22.5855 Y8.6513
G01 X-22.7720 Y8.8379
G01 X-22.7720 Y9.3392
G01 X-22.7131 Y9.3927
G01 X-22.7052 Y9.4004
G01 X-22.6038 Y9.5122
G01 X-22.5967 Y9.5206
G01 X-22.5025 Y9.6479
G01 X-22.4228 Y9.7804
G01 X-22.4175 Y9.7901
G01 X-22.3499 Y9.9333
G01 X-22.2953 Y10.0858
G01 X-22.2560 Y10.2430
G01 X-22.2326 Y10.3995
G01 X-22.2317 Y10.4105
G01 X-22.2242 Y10.5650
G01 X-22.2243 Y13.5687
G01 X-22.2322 Y13.7268
G01 X-22.2560 Y13.8870
G01 X-22.2953 Y14.0442
G01 X-22.3499 Y14.1967
G01 X-22.4192 Y14.3432
G01 X-22.5025 Y14.4821
G01 X-22.5990 Y14.6122
G01 X-22.7077 Y14.7323
G01 X-22.8278 Y14.8410
G01 X-22.9579 Y14.9375
G01 X-23.0968 Y15.0208
G01 X-23.2433 Y15.0901
G01 X-23.3958 Y15.1447
G01 X-23.5530 Y15.1840
G01 X-23.7132 Y15.2078
G01 X-23.8750 Y15.2158
G01 X-24.0368 Y15.2078
G01 X-24.1970 Y15.1840
G01 X-24.3542 Y15.1447
G01 X-24.5067 Y15.0901
G01 X-24.6532 Y15.0208
G01 X-24.7921 Y14.9375
G01 X-24.9222 Y14.8410
G01 X-25.0423 Y14.7323
G01 X-25.1510 Y14.6122
G01 X-25.2475 Y14.4821
G01 X-25.3308 Y14.3432
G01 X-25.4001 Y14.1967
G01 X-25.4547 Y14.0442
G01 X-25.4940 Y13.8870
G01 X-25.5178 Y13.7268
G01 X-25.5256 Y13.5724
G01 X-25.5258 Y10.5650
G01 X-25.5178 Y10.4032
G01 X-25.4947 Y10.2466
G01 X-25.4924 Y10.2358
G01 X-25.4566 Y10.0929
G01 X-25.4524 Y10.0788
G01 X-25.4001 Y9.9333
G01 X-25.3341 Y9.7934
G01 X-25.3291 Y9.7836
G01 X-25.2475 Y9.6479
G01 X-25.1533 Y9.5206
G01 X-25.1462 Y9.5122
G01 X-25.0448 Y9.4004
G01 X-25.0369 Y9.3927
G01 X-24.9780 Y9.3392
G01 X-24.9780 Y8.3810
G01 X-24.9732 Y8.2802
G01 X-24.9718 Y8.2656
G01 X-24.9580 Y8.1731
G01 X-24.9552 Y8.1586
G01 X-24.9305 Y8.0608
G01 X-24.8967 Y7.9658
G01 X-24.8910 Y7.9522
G01 X-24.8510 Y7.8676
G01 X-24.8441 Y7.8547
G01 X-24.7921 Y7.7682
G01 X-24.7299 Y7.6842
G01 X-24.7228 Y7.6757
G01 X-24.6575 Y7.6037
G01 X-24.4710 Y7.4171
G01 X-24.4710 Y-4.9359
G01 X-24.8454 Y-5.3104
G01 X-32.4316 Y-5.3104
G01 X-32.7430 Y-4.9989
G01 X-32.7430 Y-4.8223
G01 X-32.7441 Y-4.8076
G01 X-32.7466 Y-4.7931
G01 X-32.7495 Y-4.7825
G01 X-32.7544 Y-4.7686
G01 X-32.7607 Y-4.7553
G01 X-32.7683 Y-4.7427
G01 X-32.7770 Y-4.7308
G01 X-32.7869 Y-4.7199
G01 X-32.7978 Y-4.7100
G01 X-32.8066 Y-4.7034
G01 X-32.8128 Y-4.6993
G01 X-32.8223 Y-4.6937
G01 X-32.8322 Y-4.6889
G01 X-32.8425 Y-4.6848
G01 X-32.8495 Y-4.6825
G01 X-32.8601 Y-4.6796
G01 X-32.8674 Y-4.6782
G01 X-32.8783 Y-4.6767
G01 X-32.8930 Y-4.6760
G01 X-33.0989 Y-4.6760
G01 X-33.1167 Y-4.6629
G01 X-33.1228 Y-4.6588
G01 X-33.2361 Y-4.5909
G01 X-33.2459 Y-4.5858
G01 X-33.3620 Y-4.5310
G01 X-33.3722 Y-4.5269
G01 X-33.4966 Y-4.4825
G01 X-33.6247 Y-4.4503
G01 X-33.6391 Y-4.4474
G01 X-33.7698 Y-4.4282
G01 X-33.9090 Y-4.4214
G01 X-34.0482 Y-4.4282
G01 X-34.1825 Y-4.4480
G01 X-34.1933 Y-4.4503
G01 X-34.3214 Y-4.4825
G01 X-34.4527 Y-4.5295
G01 X-34.5787 Y-4.5891
G01 X-34.6952 Y-4.6588
G01 X-34.7013 Y-4.6629
G01 X-34.7191 Y-4.6760
G01 X-34.9324 Y-4.6762
G01 X-34.9470 Y-4.6776
G01 X-34.9579 Y-4.6796
G01 X-34.9685 Y-4.6825
G01 X-34.9790 Y-4.6861
G01 X-34.9924 Y-4.6920
G01 X-35.0052 Y-4.6993
G01 X-35.0114 Y-4.7034
G01 X-35.0202 Y-4.7100
G01 X-35.0311 Y-4.7199
G01 X-35.0410 Y-4.7308
G01 X-35.0455 Y-4.7366
G01 X-35.0517 Y-4.7458
G01 X-35.0590 Y-4.7586
G01 X-35.0649 Y-4.7720
G01 X-35.0685 Y-4.7825
G01 X-35.0714 Y-4.7931
G01 X-35.0739 Y-4.8076
G01 X-35.0748 Y-4.8186
G01 X-35.0750 Y-5.0319
G01 X-35.0881 Y-5.0497
G01 X-35.0942 Y-5.0590
G01 X-35.1583 Y-5.1659
G01 X-35.1652 Y-5.1789
G01 X-35.2215 Y-5.2983
G01 X-35.2685 Y-5.4296
G01 X-35.3007 Y-5.5577
G01 X-35.3036 Y-5.5721
G01 X-35.3228 Y-5.7028
G01 X-35.3295 Y-5.8346
G01 X-35.3295 Y-5.8494
G01 X-35.3233 Y-5.9739
G01 X-35.3219 Y-5.9886
G01 X-35.3023 Y-6.1192
G01 X-35.2685 Y-6.2544
G01 X-35.2215 Y-6.3857
G01 X-35.1652 Y-6.5051
G01 X-35.1583 Y-6.5181
G01 X-35.0942 Y-6.6250
G01 X-35.0881 Y-6.6343
G01 X-35.0750 Y-6.6521
G01 X-35.0748 Y-6.8654
G01 X-35.0739 Y-6.8764
G01 X-35.0714 Y-6.8909
G01 X-35.0685 Y-6.9015
G01 X-35.0649 Y-6.9120
G01 X-35.0621 Y-6.9188
G01 X-35.0573 Y-6.9287
G01 X-35.0537 Y-6.9351
G01 X-35.0476 Y-6.9444
G01 X-35.0386 Y-6.9560
G01 X-35.0311 Y-6.9641
G01 X-35.0257 Y-6.9691
G01 X-35.0173 Y-6.9763
G01 X-35.0114 Y-6.9806
G01 X-34.9989 Y-6.9885
G01 X-34.9858 Y-6.9951
G01 X-34.9755 Y-6.9992
G01 X-34.9685 Y-7.0015
G01 X-34.9579 Y-7.0044
G01 X-34.9506 Y-7.0058
G01 X-34.9397 Y-7.0073
G01 X-34.9287 Y-7.0080
G01 X-34.7521 Y-7.0080
G01 X-34.0219 Y-7.7381
G01 X-33.9268 Y-7.8244
G01 X-33.9184 Y-7.8315
G01 X-33.8123 Y-7.9101
G01 X-33.8030 Y-7.9162
G01 X-33.7438 Y-7.9516
G01 X-56.0839 Y-7.9516
G01 X-56.0839 Y21.3657
G00 Z2.0000
G00 X-50.0839 Y21.3639
G01 F60.00
G01 Z-0.3732
G01 F120.00
G01 X-50.0839 Y16.1249
G00 Z2.0000
G00 X-49.8439 Y16.4733
G01 F60.00
G01 Z-0.3732
G01 F120.00
G01 X-49.8439 Y21.3639
G01 X-49.6039 Y21.3639
G01 X-49.6039 Y16.6676
G00 Z2.0000
G00 X-49.3639 Y16.7858
G01 F60.00
G01 Z-0.3732
G01 F120.00
G01 X-49.3639 Y21.3639
G01 X-49.1239 Y21.3639
G01 X-49.1239 Y16.8493
G00 Z2.0000
G00 X-48.8839 Y16.8676
G01 F60.00
G01 Z-0.3732
G01 F120.00
G01 X-48.8839 Y21.3639
G01 X-48.6439 Y21.3639
G01 X-48.6439 Y16.8676
G01 X-48.4039 Y16.8676
G01 X-48.4039 Y21.3639
G01 X-48.1639 Y21.3639
G01 X-48.1639 Y16.9388
G00 Z2.0000
G00 X-47.9239 Y16.9861
G01 F60.00
G01 Z-0.3732
G01 F120.00
G01 X-47.9239 Y21.3639
G01 X-47.6839 Y21.3639
G01 X-47.6839 Y16.9905
G00 Z2.0000
G00 X-47.4439 Y16.9548
G01 F60.00
G01 Z-0.3732
G01 F120.00
G01 X-47.4439 Y21.3639
G01 X-47.2039 Y21.3639
G01 X-47.2039 Y16.8751
G01 X-46.9639 Y16.8676
G01 X-46.9639 Y21.3639
G01 X-46.7239 Y21.3639
G01 X-46.7239 Y16.8676
G00 Z2.0000
G00 X-46.4839 Y16.8588
G01 F60.00
G01 Z-0.3732
G01 F120.00
G01 X-46.4839 Y21.3639
G01 X-46.2439 Y21.3639
G01 X-46.2439 Y16.8086
G00 Z2.0000
G00 X-46.0039 Y16.7059
G01 F60.00
G01 Z-0.3732
G01 F120.00
G01 X-46.0039 Y21.3639
G01 X-45.7639 Y21.3639
G01 X-45.7639 Y16.5339
G00 Z2.0000
G00 X-45.5239 Y16.2437
G01 F60.00
G01 Z-0.3732
G01 F120.00
G01 X-45.5239 Y21.3639
G00 Z2.0000
G00 X-46.5516 Y27.7894
G01 F60.00
G01 Z-0.3732
G01 F120.00
G01 X-46.5516 Y27.2899
G01 X-46.3116 Y27.2899
G01 X-46.3116 Y27.7894
G01 X-46.0716 Y27.7894
G01 X-46.0716 Y27.2899
G01 X-45.8316 Y27.2899
G01 X-45.8316 Y27.7894
G01 X-45.5916 Y27.7894
G01 X-45.5916 Y27.2899
G01 X-45.3516 Y27.2899
G01 X-45.3516 Y27.7894
G01 X-45.1116 Y27.7894
G01 X-45.1116 Y27.2899
G01 X-44.8716 Y27.2899
G01 X-44.8716 Y27.7894
G01 X-44.6316 Y27.7894
G01 X-44.6316 Y27.2899
G01 X-44.3916 Y27.2899
G01 X-44.3916 Y27.7894
G01 X-44.1516 Y27.7894
G01 X-44.1516 Y27.2899
G01 X-43.9116 Y27.2899
G01 X-43.9116 Y27.7894
G01 X-43.6716 Y27.7894
G01 X-43.6716 Y27.2899
G01 X-43.4316 Y27.2899
G01 X-43.4316 Y27.7894
G01 X-43.1916 Y27.7894
G01 X-43.1916 Y27.2899
G01 X-42.9516 Y27.2899
G01 X-42.9516 Y27.7894
G01 X-42.7116 Y27.7894
G01 X-42.7116 Y27.2899
G01 X-42.4716 Y27.2899
G01 X-42.4716 Y27.7894
G01 X-42.2316 Y27.7894
G01 X-42.2316 Y27.2899
G01 X-41.9916 Y27.2899
G01 X-41.9916 Y27.7894
G01 X-41.7516 Y27.7894
G01 X-41.7516 Y27.2899
G01 X-41.5116 Y27.2899
G01 X-41.5116 Y27.7894
G01 X-41.2716 Y27.7894
G01 X-41.2716 Y27.2899
G00 Z2.0000
G00 X-41.0316 Y27.2860
G01 F60.00
G01 Z-0.3732
G01 F120.00
G01 X-41.0316 Y27.7894
G01 X-40.7916 Y27.7894
G01 X-40.7916 Y26.3125
G01 X-40.3116 Y26.4939
G01 X-40.3116 Y25.5740
G01 X-40.0716 Y25.3951
G01 X-40.0716 Y26.0444
G00 Z2.0000
G00 X-39.8316 Y25.8491
G01 F60.00
G01 Z-0.3732
G01 F120.00
G01 X-39.8316 Y25.2956
G01 X-39.5916 Y25.2420
G01 X-39.5916 Y25.7450
G00 Z2.0000
G00 X-39.3516 Y25.7062
G01 F60.00
G01 Z-0.3732
G01 F120.00
G01 X-39.3516 Y25.2420
G01 X-39.1116 Y25.2420
G01 X-39.1116 Y25.7223
G00 Z2.0000
G00 X-38.8716 Y25.7993
G01 F60.00
G01 Z-0.3732
G01 F120.00
G01 X-38.8716 Y25.2562
G01 X-38.6316 Y25.3556
G01 X-38.6316 Y25.9516
G00 Z2.0000
G00 X-38.3916 Y26.2463
G01 F60.00
G01 Z-0.3732
G01 F120.00
G01 X-38.3916 Y25.4788
G01 X-38.1516 Y25.7188
G01 X-38.1516 Y28.0894
G01 X-38.3916 Y28.0894
G01 X-38.3916 Y27.2397
G00 Z2.0000
G00 X-38.6316 Y27.5344
G01 F60.00
G01 Z-0.3732
G01 F120.00
G01 X-38.6316 Y28.0894
G01 X-37.9116 Y28.0894
G01 X-37.9116 Y26.0828
G00 Z2.0000
G00 X-37.6716 Y27.5886
G01 F60.00
G01 Z-0.3732
G01 F120.00
G01 X-37.6716 Y28.0894
G01 X-37.4316 Y28.0894
G01 X-37.4316 Y27.5899
G01 X-37.1916 Y27.5899
G01 X-37.1916 Y28.0989
G00 Z2.0000
G00 X-36.9516 Y28.1468
G01 F60.00
G01 Z-0.3732
G01 F120.00
G01 X-36.9516 Y27.5967
G01 X-36.7116 Y27.6961
G01 X-36.7116 Y28.2421
G00 Z2.0000
G00 X-36.4716 Y28.3947
G01 F60.00
G01 Z-0.3732
G01 F120.00
G01 X-36.4716 Y27.7956
G01 X-36.2316 Y27.9130
G01 X-36.2316 Y28.6357
G00 Z2.0000
G00 X-36.2316 Y30.3843
G01 F60.00
G01 Z-0.3732
G01 F120.00
G01 X-36.2316 Y31.1070
G01 X-35.9916 Y30.8670
G01 X-35.9916 Y29.9257
G01 X-35.5116 Y30.0892
G01 X-35.5116 Y28.9308
G01 X-35.9916 Y29.0943
G01 X-35.9916 Y28.1530
G01 X-35.7516 Y28.3930
G01 X-35.7516 Y30.6270
G00 Z2.0000
G00 X-36.4716 Y30.6253
G01 F60.00
G01 Z-0.3732
G01 F120.00
G01 X-36.4716 Y31.2244
G01 X-36.7116 Y31.3239
G01 X-36.7116 Y30.7779
G00 Z2.0000
G00 X-36.9516 Y30.8732
G01 F60.00
G01 Z-0.3732
G01 F120.00
G01 X-36.9516 Y31.4233
G01 X-37.1916 Y31.4301
G01 X-37.1916 Y30.9211
G00 Z2.0000
G00 X-37.4316 Y30.9306
G01 F60.00
G01 Z-0.3732
G01 F120.00
G01 X-37.4316 Y31.4301
G01 X-37.6716 Y31.4301
G01 X-37.6716 Y30.9306
G01 X-37.9116 Y30.9306
G01 X-37.9116 Y31.4301
G01 X-38.1516 Y31.4301
G01 X-38.1516 Y30.9306
G01 X-38.3916 Y30.9306
G01 X-38.3916 Y31.4301
G01 X-38.6316 Y31.4301
G01 X-38.6316 Y30.9306
G01 X-38.8716 Y30.9306
G01 X-38.8716 Y31.4301
G01 X-39.1116 Y31.4301
G01 X-39.1116 Y30.9306
G01 X-39.3516 Y30.9306
G01 X-39.3516 Y31.4301
G01 X-39.5916 Y31.4301
G01 X-39.5916 Y30.9306
G01 X-39.8316 Y30.9306
G01 X-39.8316 Y31.4301
G00 Z2.0000
G00 X-40.0716 Y31.4359
G01 F60.00
G01 Z-0.3732
G01 F120.00
G01 X-40.0716 Y30.9306
G01 X-40.3116 Y30.9306
G01 X-40.3116 Y35.9310
G01 X-40.5516 Y36.0627
G01 X-40.5516 Y30.9306
G00 Z2.0000
G00 X-42.4716 Y30.9306
G01 F60.00
G01 Z-0.3732
G01 F120.00
G01 X-42.4716 Y32.3731
G00 Z2.0000
G00 X-42.9516 Y32.2248
G01 F60.00
G01 Z-0.3732
G01 F120.00
G01 X-42.9516 Y35.6452
G01 X-42.7116 Y35.9778
G01 X-42.7116 Y30.9306
G01 X-42.9516 Y30.9306
G01 X-42.9516 Y31.4516
G00 Z2.0000
G00 X-43.1916 Y31.4301
G01 F60.00
G01 Z-0.3732
G01 F120.00
G01 X-43.1916 Y30.9306
G01 X-43.4316 Y30.9306
G01 X-43.4316 Y31.4301
G01 X-43.6716 Y31.4301
G01 X-43.6716 Y30.9306
G01 X-43.9116 Y30.9306
G01 X-43.9116 Y31.4301
G01 X-44.1516 Y31.4301
G01 X-44.1516 Y30.9306
G01 X-44.3916 Y30.9306
G01 X-44.3916 Y31.4301
G01 X-44.6316 Y31.4301
G01 X-44.6316 Y30.9306
G00 Z2.0000
G00 X-44.8716 Y30.9248
G01 F60.00
G01 Z-0.3732
G01 F120.00
G01 X-44.8716 Y31.4301
G00 Z2.0000
G00 X-45.1116 Y31.6499
G01 F60.00
G01 Z-0.3732
G01 F120.00
G01 X-45.1116 Y30.8824
G00 Z2.0000
G00 X-45.3516 Y30.7953
G01 F60.00
G01 Z-0.3732
G01 F120.00
G01 X-45.3516 Y32.2850
G01 X-45.5916 Y32.2850
G01 X-45.5916 Y30.6526
G01 X-45.8316 Y30.6306
G01 X-45.8316 Y32.2850
G01 X-46.0716 Y32.2850
G01 X-46.0716 Y30.6306
G00 Z2.0000
G00 X-46.3116 Y30.7999
G01 F60.00
G01 Z-0.3732
G01 F120.00
G01 X-46.3116 Y32.2850
G01 X-46.5516 Y32.2850
G01 X-46.5516 Y30.9217
G00 Z2.0000
G00 X-46.7916 Y30.9931
G01 F60.00
G01 Z-0.3732
G01 F120.00
G01 X-46.7916 Y32.2850
G00 Z2.0000
G00 X-47.0316 Y32.3731
G01 F60.00
G01 Z-0.3732
G01 F120.00
G01 X-47.0316 Y31.0189
G00 Z2.0000
G00 X-47.2716 Y31.0047
G01 F60.00
G01 Z-0.3732
G01 F120.00
G01 X-47.2716 Y31.6014
G00 Z2.0000
G00 X-47.5116 Y31.4954
G01 F60.00
G01 Z-0.3732
G01 F120.00
G01 X-47.5116 Y30.9492
G00 Z2.0000
G00 X-47.7516 Y30.8460
G01 F60.00
G01 Z-0.3732
G01 F120.00
G01 X-47.7516 Y31.3960
G01 X-47.9916 Y31.2965
G01 X-47.9916 Y30.6800
G00 Z2.0000
G00 X-48.2316 Y30.4160
G01 F60.00
G01 Z-0.3732
G01 F120.00
G01 X-48.2316 Y31.1538
G01 X-48.4716 Y30.9138
G01 X-48.4716 Y29.8227
G00 Z2.0000
G00 X-48.4716 Y29.3773
G01 F60.00
G01 Z-0.3732
G01 F120.00
G01 X-48.4716 Y28.2862
G01 X-48.2316 Y28.0462
G01 X-48.2316 Y28.7840
G00 Z2.0000
G00 X-48.0796 Y28.6008
G01 F60.00
G01 Z-0.3732
G01 F120.00
G01 X-47.6819 Y28.2029
G01 X-47.5812 Y28.1118
G01 X-47.4753 Y28.0330
G01 X-47.4662 Y28.0268
G01 X-47.3561 Y27.9607
G01 X-47.3431 Y27.9538
G01 X-47.2237 Y27.8975
G01 X-47.0994 Y27.8528
G01 X-47.0853 Y27.8486
G01 X-46.9572 Y27.8167
G01 X-46.8192 Y27.7962
G01 X-46.6800 Y27.7894
G01 X-39.9623 Y27.7894
G01 X-39.9623 Y27.5469
G01 X-40.0387 Y27.4777
G01 X-40.1023 Y27.4077
G01 X-40.1117 Y27.3963
G01 X-40.1637 Y27.3263
G01 X-40.1718 Y27.3140
G01 X-40.2203 Y27.2328
G01 X-40.2639 Y27.1406
G01 X-40.2983 Y27.0446
G01 X-40.3223 Y26.9493
G01 X-40.3243 Y26.9384
G01 X-40.3371 Y26.8521
G01 X-40.3385 Y26.8375
G01 X-40.3430 Y26.7430
G01 X-40.3380 Y26.6412
G01 X-40.3243 Y26.5476
G01 X-40.3214 Y26.5331
G01 X-40.2983 Y26.4414
G01 X-40.2666 Y26.3523
G01 X-40.2609 Y26.3387
G01 X-40.2236 Y26.2598
G01 X-40.2167 Y26.2468
G01 X-40.1679 Y26.1658
G01 X-40.1072 Y26.0839
G01 X-40.0387 Y26.0083
G01 X-39.9687 Y25.9447
G01 X-39.9573 Y25.9353
G01 X-39.8873 Y25.8833
G01 X-39.8750 Y25.8752
G01 X-39.7938 Y25.8267
G01 X-39.7016 Y25.7831
G01 X-39.6056 Y25.7487
G01 X-39.5139 Y25.7256
G01 X-39.4994 Y25.7227
G01 X-39.4131 Y25.7099
G01 X-39.3985 Y25.7085
G01 X-39.3040 Y25.7040
G01 X-39.2022 Y25.7090
G01 X-39.1013 Y25.7240
G01 X-39.0095 Y25.7468
G01 X-38.9954 Y25.7510
G01 X-38.9064 Y25.7831
G01 X-38.8142 Y25.8267
G01 X-38.7330 Y25.8752
G01 X-38.7207 Y25.8833
G01 X-38.6507 Y25.9353
G01 X-38.6393 Y25.9447
G01 X-38.5693 Y26.0083
G01 X-38.5008 Y26.0839
G01 X-38.4401 Y26.1658
G01 X-38.3913 Y26.2468
G01 X-38.3844 Y26.2598
G01 X-38.3471 Y26.3387
G01 X-38.3414 Y26.3523
G01 X-38.3097 Y26.4414
G01 X-38.2857 Y26.5367
G01 X-38.2837 Y26.5476
G01 X-38.2709 Y26.6339
G01 X-38.2695 Y26.6485
G01 X-38.2650 Y26.7430
G01 X-38.2695 Y26.8375
G01 X-38.2709 Y26.8521
G01 X-38.2850 Y26.9457
G01 X-38.3078 Y27.0375
G01 X-38.3120 Y27.0516
G01 X-38.3441 Y27.1406
G01 X-38.3844 Y27.2262
G01 X-38.3913 Y27.2392
G01 X-38.4401 Y27.3202
G01 X-38.5008 Y27.4021
G01 X-38.5642 Y27.4724
G01 X-38.5746 Y27.4828
G01 X-38.6457 Y27.5469
G01 X-38.6457 Y28.0894
G01 X-37.3500 Y28.0894
G01 X-37.2144 Y28.0959
G01 X-37.2034 Y28.0971
G01 X-37.0728 Y28.1167
G01 X-36.9376 Y28.1505
G01 X-36.8063 Y28.1975
G01 X-36.6869 Y28.2538
G01 X-36.6771 Y28.2589
G01 X-36.5607 Y28.3288
G01 X-36.4546 Y28.4073
G01 X-36.4432 Y28.4166
G01 X-36.3455 Y28.5055
G01 X-36.2518 Y28.6088
G01 X-36.1730 Y28.7147
G01 X-36.1648 Y28.7270
G01 X-36.0971 Y28.8403
G01 X-36.0375 Y28.9663
G01 X-35.9928 Y29.0906
G01 X-35.9886 Y29.1047
G01 X-35.9567 Y29.2328
G01 X-35.9362 Y29.3708
G01 X-35.9295 Y29.5026
G01 X-35.9295 Y29.5174
G01 X-35.9362 Y29.6492
G01 X-35.9567 Y29.7872
G01 X-35.9886 Y29.9153
G01 X-35.9928 Y29.9294
G01 X-36.0375 Y30.0537
G01 X-36.0971 Y30.1797
G01 X-36.1648 Y30.2930
G01 X-36.1730 Y30.3053
G01 X-36.2518 Y30.4112
G01 X-36.3455 Y30.5145
G01 X-36.4432 Y30.6034
G01 X-36.4546 Y30.6127
G01 X-36.5607 Y30.6912
G01 X-36.6803 Y30.7629
G01 X-36.7996 Y30.8195
G01 X-36.8132 Y30.8251
G01 X-36.9306 Y30.8672
G01 X-36.9411 Y30.8705
G01 X-37.0728 Y30.9033
G01 X-37.2034 Y30.9229
G01 X-37.2181 Y30.9243
G01 X-37.3463 Y30.9306
G01 X-40.7497 Y30.9306
G01 X-40.7497 Y32.2850
G01 X-40.7313 Y32.2850
G01 X-40.7166 Y32.2861
G01 X-40.7021 Y32.2886
G01 X-40.6879 Y32.2926
G01 X-40.6742 Y32.2979
G01 X-40.6611 Y32.3045
G01 X-40.6517 Y32.3103
G01 X-40.6456 Y32.3145
G01 X-40.6343 Y32.3239
G01 X-40.6239 Y32.3343
G01 X-40.6145 Y32.3456
G01 X-40.6063 Y32.3579
G01 X-40.6010 Y32.3676
G01 X-40.5979 Y32.3742
G01 X-40.5926 Y32.3879
G01 X-40.5886 Y32.4021
G01 X-40.5861 Y32.4166
G01 X-40.5850 Y32.4313
G01 X-40.5850 Y35.4350
G01 X-40.5854 Y35.4460
G01 X-40.5872 Y35.4606
G01 X-40.5895 Y35.4714
G01 X-40.5926 Y35.4821
G01 X-40.5964 Y35.4924
G01 X-40.6010 Y35.5024
G01 X-40.6063 Y35.5121
G01 X-40.6124 Y35.5214
G01 X-40.6190 Y35.5302
G01 X-40.6264 Y35.5384
G01 X-40.6343 Y35.5461
G01 X-40.6427 Y35.5533
G01 X-40.6517 Y35.5597
G01 X-40.6643 Y35.5673
G01 X-40.6742 Y35.5721
G01 X-40.6845 Y35.5762
G01 X-40.6950 Y35.5796
G01 X-40.7057 Y35.5821
G01 X-40.7166 Y35.5839
G01 X-40.7276 Y35.5848
G01 X-42.3350 Y35.5850
G01 X-42.3497 Y35.5843
G01 X-42.3643 Y35.5821
G01 X-42.3785 Y35.5785
G01 X-42.3890 Y35.5749
G01 X-42.4024 Y35.5690
G01 X-42.4121 Y35.5637
G01 X-42.4244 Y35.5555
G01 X-42.4330 Y35.5486
G01 X-42.4436 Y35.5384
G01 X-42.4510 Y35.5302
G01 X-42.4597 Y35.5183
G01 X-42.4655 Y35.5089
G01 X-42.4721 Y35.4958
G01 X-42.4774 Y35.4821
G01 X-42.4814 Y35.4679
G01 X-42.4839 Y35.4534
G01 X-42.4848 Y35.4424
G01 X-42.4850 Y32.4350
G01 X-42.4843 Y32.4203
G01 X-42.4821 Y32.4057
G01 X-42.4785 Y32.3915
G01 X-42.4749 Y32.3810
G01 X-42.4721 Y32.3742
G01 X-42.4655 Y32.3611
G01 X-42.4576 Y32.3486
G01 X-42.4486 Y32.3370
G01 X-42.4411 Y32.3289
G01 X-42.4357 Y32.3239
G01 X-42.4244 Y32.3145
G01 X-42.4121 Y32.3063
G01 X-42.3991 Y32.2994
G01 X-42.3924 Y32.2964
G01 X-42.3821 Y32.2926
G01 X-42.3679 Y32.2886
G01 X-42.3534 Y32.2861
G01 X-42.3387 Y32.2850
G01 X-42.3203 Y32.2850
G01 X-42.3203 Y30.9306
G01 X-44.7500 Y30.9306
G01 X-44.8892 Y30.9238
G01 X-45.0272 Y30.9033
G01 X-45.1553 Y30.8714
G01 X-45.1694 Y30.8672
G01 X-45.2937 Y30.8225
G01 X-45.4131 Y30.7662
G01 X-45.4261 Y30.7593
G01 X-45.5393 Y30.6912
G01 X-45.6212 Y30.6306
G01 X-46.0940 Y30.6306
G01 X-46.1688 Y30.6982
G01 X-46.2807 Y30.7812
G01 X-46.4003 Y30.8529
G01 X-46.5196 Y30.9095
G01 X-46.5332 Y30.9151
G01 X-46.6506 Y30.9572
G01 X-46.6647 Y30.9614
G01 X-46.7928 Y30.9933
G01 X-46.9234 Y31.0129
G01 X-46.9381 Y31.0143
G01 X-47.0700 Y31.0206
G01 X-47.2019 Y31.0143
G01 X-47.2166 Y31.0129
G01 X-47.3472 Y30.9933
G01 X-47.4753 Y30.9614
G01 X-47.4894 Y30.9572
G01 X-47.6137 Y30.9125
G01 X-47.7397 Y30.8529
G01 X-47.8530 Y30.7852
G01 X-47.8653 Y30.7770
G01 X-47.9712 Y30.6982
G01 X-48.0692 Y30.6096
G01 X-48.0796 Y30.5992
G01 X-48.1682 Y30.5012
G01 X-48.2470 Y30.3953
G01 X-48.2552 Y30.3830
G01 X-48.3229 Y30.2697
G01 X-48.3795 Y30.1504
G01 X-48.3851 Y30.1368
G01 X-48.4295 Y30.0124
G01 X-48.4633 Y29.8772
G01 X-48.4838 Y29.7392
G01 X-48.4905 Y29.6074
G01 X-48.4905 Y29.5926
G01 X-48.4838 Y29.4608
G01 X-48.4646 Y29.3301
G01 X-48.4617 Y29.3157
G01 X-48.4295 Y29.1876
G01 X-48.3825 Y29.0563
G01 X-48.3262 Y28.9369
G01 X-48.3193 Y28.9239
G01 X-48.2512 Y28.8107
G01 X-48.1727 Y28.7046
G01 X-48.1634 Y28.6932
G01 X-48.0796 Y28.6008
G00 Z2.0000
G00 X-47.9916 Y28.5125
G01 F60.00
G01 Z-0.3732
G01 F120.00
G01 X-47.9916 Y27.8062
G01 X-47.7516 Y27.5756
G01 X-47.7516 Y28.2725
G00 Z2.0000
G00 X-47.5116 Y28.0600
G01 F60.00
G01 Z-0.3732
G01 F120.00
G01 X-47.5116 Y27.4762
G01 X-47.2716 Y27.3768
G01 X-47.2716 Y27.9200
G00 Z2.0000
G00 X-47.0316 Y27.8351
G01 F60.00
G01 Z-0.3732
G01 F120.00
G01 X-47.0316 Y27.2899
G01 X-46.7916 Y27.2899
G01 X-46.7916 Y27.7947
G00 Z2.0000
G00 X-48.9516 Y30.0749
G01 F60.00
G01 Z-0.3732
G01 F120.00
G01 X-48.9516 Y29.1251
G01 X-48.7116 Y28.5458
G01 X-48.7116 Y30.6542
G00 Z2.0000
G00 X-47.2716 Y31.8901
G01 F60.00
G01 Z-0.3732
G01 F120.00
G01 X-47.2716 Y33.9984
G00 Z2.0000
G00 X-47.5116 Y33.9984
G01 F60.00
G01 Z-0.3732
G01 F120.00
G01 X-47.5116 Y32.2248
G00 Z2.0000
G00 X-47.7516 Y33.4976
G01 F60.00
G01 Z-0.3732
G01 F120.00
G01 X-47.7516 Y33.9984
G01 X-47.9916 Y33.9984
G01 X-47.9916 Y33.4985
G01 X-48.2316 Y33.4985
G01 X-48.2316 Y33.9984
G01 X-48.4716 Y33.9984
G01 X-48.4716 Y33.4985
G01 X-48.7116 Y33.4985
G01 X-48.7116 Y33.9984
G00 Z2.0000
G00 X-48.9516 Y33.4985
G01 F60.00
G01 Z-0.3732
G01 F120.00
G01 X-48.9516 Y34.0013
G00 Z2.0000
G00 X-49.1916 Y33.5049
G01 F60.00
G01 Z-0.3732
G01 F120.00
G01 X-49.1916 Y34.0050
G01 X-49.4316 Y34.0050
G01 X-49.4316 Y33.5049
G01 X-49.6716 Y33.5245
G01 X-49.6716 Y37.2803
G00 Z2.0000
G00 X-49.9116 Y33.6522
G01 F60.00
G01 Z-0.3732
G01 F120.00
G01 X-49.9116 Y50.7938
G01 X-49.6716 Y50.8786
G01 X-49.6716 Y50.3498
G00 Z2.0000
G00 X-49.4316 Y50.3784
G01 F60.00
G01 Z-0.3732
G01 F120.00
G01 X-49.4316 Y50.8786
G01 X-49.1916 Y50.8786
G01 X-49.1916 Y50.3784
G01 X-48.9516 Y50.3784
G01 X-48.9516 Y50.8786
G01 X-48.7116 Y50.8786
G01 X-48.7116 Y50.3784
G01 X-48.4716 Y50.3784
G01 X-48.4716 Y50.8786
G00 Z2.0000
G00 X-48.2316 Y50.8989
G01 F60.00
G01 Z-0.3732
G01 F120.00
G01 X-48.2316 Y50.3784
G01 X-47.9916 Y50.3784
G01 X-47.9916 Y59.5550
G01 X-47.7516 Y59.5550
G01 X-47.7516 Y50.3784
G01 X-47.5116 Y50.3784
G01 X-47.5116 Y51.0784
G00 Z2.0000
G00 X-47.2716 Y50.9567
G01 F60.00
G01 Z-0.3732
G01 F120.00
G01 X-47.2716 Y50.3784
G01 X-47.0316 Y50.3784
G01 X-47.0316 Y50.9549
G01 X-46.7916 Y50.9549
G01 X-46.7916 Y50.3784
G01 X-46.5516 Y50.3784
G01 X-46.5516 Y50.9549
G01 X-46.3116 Y50.9549
G01 X-46.3116 Y50.3784
G01 X-46.0716 Y50.3784
G01 X-46.0716 Y50.9549
G00 Z2.0000
G00 X-45.8316 Y50.9852
G01 F60.00
G01 Z-0.3732
G01 F120.00
G01 X-45.8316 Y50.3784
G01 X-45.5916 Y50.3784
G01 X-45.5916 Y55.3752
G01 X-45.8316 Y55.4633
G01 X-45.8316 Y54.9331
G00 Z2.0000
G00 X-46.0716 Y54.9631
G01 F60.00
G01 Z-0.3732
G01 F120.00
G01 X-46.0716 Y55.4633
G01 X-46.3116 Y55.4633
G01 X-46.3116 Y54.9631
G01 X-46.5516 Y54.9631
G01 X-46.5516 Y55.4633
G01 X-46.7916 Y55.4633
G01 X-46.7916 Y54.9631
G01 X-47.0316 Y54.9631
G01 X-47.0316 Y55.4633
G01 X-47.2716 Y55.4633
G01 X-47.2716 Y54.9613
G00 Z2.0000
G00 X-47.5116 Y54.8389
G01 F60.00
G01 Z-0.3732
G01 F120.00
G01 X-47.5116 Y55.4482
G00 Z2.0000
G00 X-47.5971 Y54.6116
G01 F60.00
G01 Z-0.3732
G01 F120.00
G01 X-47.5971 Y51.3080
G01 X-47.5966 Y51.2958
G01 X-47.5936 Y51.2590
G01 X-47.5905 Y51.2402
G01 X-47.5768 Y51.1903
G01 X-47.5717 Y51.1764
G01 X-47.5672 Y51.1663
G01 X-47.5486 Y51.1298
G01 X-47.5413 Y51.1175
G01 X-47.5332 Y51.1058
G01 X-47.5077 Y51.0735
G01 X-47.5001 Y51.0649
G01 X-47.4900 Y51.0548
G01 X-47.4561 Y51.0259
G01 X-47.4471 Y51.0191
G01 X-47.4329 Y51.0100
G01 X-47.3961 Y50.9896
G01 X-47.3861 Y50.9847
G01 X-47.3734 Y50.9796
G01 X-47.3304 Y50.9659
G01 X-47.3196 Y50.9631
G01 X-47.3035 Y50.9602
G01 X-47.2648 Y50.9559
G01 X-47.2536 Y50.9550
G01 X-47.2440 Y50.9549
G01 X-45.9699 Y50.9550
G01 X-45.9250 Y50.9584
G01 X-45.9062 Y50.9615
G01 X-45.8563 Y50.9752
G01 X-45.8424 Y50.9803
G01 X-45.8323 Y50.9848
G01 X-45.7958 Y51.0034
G01 X-45.7805 Y51.0126
G01 X-45.7718 Y51.0188
G01 X-45.7393 Y51.0446
G01 X-45.7282 Y51.0544
G01 X-45.7185 Y51.0646
G01 X-45.6919 Y51.0959
G01 X-45.6821 Y51.1093
G01 X-45.6760 Y51.1191
G01 X-45.6556 Y51.1559
G01 X-45.6482 Y51.1718
G01 X-45.6444 Y51.1820
G01 X-45.6319 Y51.2216
G01 X-45.6281 Y51.2370
G01 X-45.6257 Y51.2524
G01 X-45.6215 Y51.2909
G01 X-45.6210 Y51.2984
G01 X-45.6209 Y54.6100
G01 X-45.6214 Y54.6222
G01 X-45.6244 Y54.6590
G01 X-45.6275 Y54.6778
G01 X-45.6411 Y54.7275
G01 X-45.6463 Y54.7416
G01 X-45.6508 Y54.7517
G01 X-45.6694 Y54.7882
G01 X-45.6786 Y54.8035
G01 X-45.6848 Y54.8122
G01 X-45.7106 Y54.8447
G01 X-45.7204 Y54.8558
G01 X-45.7280 Y54.8632
G01 X-45.7649 Y54.8944
G01 X-45.7753 Y54.9019
G01 X-45.7851 Y54.9080
G01 X-45.8219 Y54.9284
G01 X-45.8378 Y54.9358
G01 X-45.8480 Y54.9396
G01 X-45.8876 Y54.9521
G01 X-45.8984 Y54.9549
G01 X-45.9145 Y54.9578
G01 X-45.9569 Y54.9625
G01 X-45.9682 Y54.9631
G01 X-47.2440 Y54.9631
G01 X-47.2562 Y54.9626
G01 X-47.2930 Y54.9596
G01 X-47.3118 Y54.9565
G01 X-47.3578 Y54.9440
G01 X-47.3689 Y54.9404
G01 X-47.3790 Y54.9363
G01 X-47.4222 Y54.9146
G01 X-47.4375 Y54.9054
G01 X-47.4462 Y54.8992
G01 X-47.4785 Y54.8737
G01 X-47.4871 Y54.8661
G01 X-47.4948 Y54.8586
G01 X-47.5261 Y54.8221
G01 X-47.5359 Y54.8087
G01 X-47.5420 Y54.7989
G01 X-47.5624 Y54.7621
G01 X-47.5698 Y54.7462
G01 X-47.5736 Y54.7360
G01 X-47.5861 Y54.6964
G01 X-47.5899 Y54.6810
G01 X-47.5918 Y54.6695
G01 X-47.5961 Y54.6308
G01 X-47.5970 Y54.6196
G01 X-47.5971 Y54.6116
G00 Z2.0000
G00 X-48.2316 Y53.3473
G01 F60.00
G01 Z-0.3732
G01 F120.00
G01 X-48.2316 Y52.7054
G00 Z2.0000
G00 X-48.4716 Y52.7249
G01 F60.00
G01 Z-0.3732
G01 F120.00
G01 X-48.4716 Y53.2250
G01 X-48.7116 Y53.2250
G01 X-48.7116 Y52.7249
G01 X-48.9516 Y52.7249
G01 X-48.9516 Y53.2250
G00 Z2.0000
G00 X-49.1916 Y53.2255
G01 F60.00
G01 Z-0.3732
G01 F120.00
G01 X-49.1916 Y52.7249
G01 X-49.4316 Y52.7760
G01 X-49.4316 Y58.9678
G01 X-49.1916 Y59.1189
G01 X-49.1916 Y58.2239
G00 Z2.0000
G00 X-48.9516 Y58.6550
G01 F60.00
G01 Z-0.3732
G01 F120.00
G01 X-48.9516 Y59.1551
G00 Z2.0000
G00 X-48.7116 Y59.1948
G01 F60.00
G01 Z-0.3732
G01 F120.00
G01 X-48.7116 Y58.6550
G01 X-48.4716 Y58.6550
G01 X-48.4716 Y61.0778
G00 Z2.0000
G00 X-48.4716 Y61.4302
G01 F60.00
G01 Z-0.3732
G01 F120.00
G01 X-48.4716 Y62.0000
G01 X-48.2316 Y62.0000
G01 X-48.2316 Y58.6550
G00 Z2.0000
G00 X-47.5116 Y58.9969
G01 F60.00
G01 Z-0.3732
G01 F120.00
G01 X-47.5116 Y59.5550
G01 X-47.2716 Y59.5550
G01 X-47.2716 Y59.0549
G01 X-47.0316 Y59.0815
G01 X-47.0316 Y62.5509
G01 X-46.7916 Y62.3109
G01 X-46.7916 Y59.2190
G00 Z2.0000
G00 X-46.5516 Y60.3055
G01 F60.00
G01 Z-0.3732
G01 F120.00
G01 X-46.5516 Y62.0709
G01 X-46.3116 Y61.8309
G01 X-46.3116 Y60.4287
G00 Z2.0000
G00 X-46.0716 Y60.2485
G01 F60.00
G01 Z-0.3732
G01 F120.00
G01 X-46.0716 Y61.5910
G00 Z2.0000
G00 X-45.8316 Y60.7159
G01 F60.00
G01 Z-0.3732
G01 F120.00
G01 X-45.8316 Y60.0085
G01 X-45.5916 Y59.7685
G01 X-45.5916 Y60.4759
G01 X-45.3516 Y60.2359
G01 X-45.3516 Y59.6218
G01 X-45.1116 Y59.5733
G01 X-45.1116 Y60.0753
G00 Z2.0000
G00 X-44.8716 Y60.0735
G01 F60.00
G01 Z-0.3732
G01 F120.00
G01 X-44.8716 Y59.5733
G01 X-44.6316 Y59.5733
G01 X-44.6316 Y60.0735
G01 X-44.3916 Y60.0735
G01 X-44.3916 Y59.5733
G00 Z2.0000
G00 X-44.1516 Y59.4935
G01 F60.00
G01 Z-0.3732
G01 F120.00
G01 X-44.1516 Y60.1093
G00 Z2.0000
G00 X-43.9116 Y59.9860
G01 F60.00
G01 Z-0.3732
G01 F120.00
G01 X-43.9116 Y59.4859
G01 X-43.6716 Y59.4859
G01 X-43.6716 Y59.9860
G01 X-43.4316 Y59.9860
G01 X-43.4316 Y59.4590
G00 Z2.0000
G00 X-43.1916 Y59.9865
G01 F60.00
G01 Z-0.3732
G01 F120.00
G01 X-43.1916 Y57.6380
G01 X-43.4316 Y57.3980
G01 X-43.4316 Y58.1052
G01 X-43.6716 Y57.8651
G01 X-43.6716 Y57.2412
G01 X-43.9116 Y57.6831
G01 X-43.9116 Y53.9524
G01 X-43.6716 Y53.6989
G01 X-43.6716 Y56.0668
G00 Z2.0000
G00 X-43.7610 Y56.2040
G01 F60.00
G01 Z-0.3732
G01 F120.00
G01 X-43.7606 Y56.1930
G01 X-43.7599 Y56.1856
G01 X-43.7581 Y56.1747
G01 X-43.7565 Y56.1676
G01 X-43.7534 Y56.1569
G01 X-43.7496 Y56.1466
G01 X-43.7466 Y56.1399
G01 X-43.7415 Y56.1301
G01 X-43.7377 Y56.1238
G01 X-43.7315 Y56.1146
G01 X-43.7270 Y56.1088
G01 X-43.7196 Y56.1006
G01 X-43.7117 Y56.0929
G01 X-43.7033 Y56.0857
G01 X-43.6943 Y56.0793
G01 X-43.6881 Y56.0753
G01 X-43.6784 Y56.0700
G01 X-43.6718 Y56.0669
G01 X-43.6581 Y56.0616
G01 X-43.6439 Y56.0576
G01 X-43.6294 Y56.0551
G01 X-43.6220 Y56.0544
G01 X-43.6110 Y56.0540
G01 X-43.5136 Y56.0540
G01 X-43.5136 Y54.8803
G01 X-43.5109 Y54.8294
G01 X-43.5042 Y54.7827
G01 X-43.5021 Y54.7718
G01 X-43.4916 Y54.7295
G01 X-43.4870 Y54.7145
G01 X-43.4870 Y54.2640
G01 X-43.4866 Y54.2530
G01 X-43.4848 Y54.2384
G01 X-43.4825 Y54.2276
G01 X-43.4805 Y54.2205
G01 X-43.4782 Y54.2135
G01 X-43.4741 Y54.2032
G01 X-43.4693 Y54.1933
G01 X-43.4657 Y54.1869
G01 X-43.4596 Y54.1776
G01 X-43.4553 Y54.1717
G01 X-43.4506 Y54.1660
G01 X-43.4431 Y54.1579
G01 X-43.4350 Y54.1504
G01 X-43.4293 Y54.1457
G01 X-43.4234 Y54.1414
G01 X-43.4141 Y54.1353
G01 X-43.4077 Y54.1317
G01 X-43.3978 Y54.1269
G01 X-43.3875 Y54.1228
G01 X-43.3805 Y54.1205
G01 X-43.3734 Y54.1185
G01 X-43.3626 Y54.1162
G01 X-43.3480 Y54.1144
G01 X-43.3370 Y54.1140
G01 X-42.5370 Y54.1140
G01 X-42.5260 Y54.1144
G01 X-42.5186 Y54.1151
G01 X-42.5077 Y54.1169
G01 X-42.5006 Y54.1185
G01 X-42.4865 Y54.1228
G01 X-42.4762 Y54.1269
G01 X-42.4663 Y54.1317
G01 X-42.4568 Y54.1373
G01 X-42.4476 Y54.1435
G01 X-42.4390 Y54.1504
G01 X-42.4309 Y54.1579
G01 X-42.4210 Y54.1688
G01 X-42.4144 Y54.1776
G01 X-42.4083 Y54.1869
G01 X-42.4030 Y54.1966
G01 X-42.3971 Y54.2100
G01 X-42.3924 Y54.2240
G01 X-42.3899 Y54.2347
G01 X-42.3881 Y54.2456
G01 X-42.3872 Y54.2566
G01 X-42.3870 Y54.7818
G01 X-42.3835 Y54.8058
G01 X-42.3828 Y54.8131
G01 X-42.3804 Y54.8640
G01 X-42.3828 Y54.9149
G01 X-42.3835 Y54.9222
G01 X-42.3870 Y54.9462
G01 X-42.3870 Y55.4677
G01 X-42.3881 Y55.4824
G01 X-42.3906 Y55.4969
G01 X-42.3946 Y55.5111
G01 X-42.4004 Y55.5259
G01 X-42.4004 Y56.4000
G01 X-42.4025 Y56.4472
G01 X-42.4040 Y56.4619
G01 X-42.4111 Y56.5086
G01 X-42.4244 Y56.5616
G01 X-42.4428 Y56.6130
G01 X-42.4628 Y56.6558
G01 X-42.4679 Y56.6656
G01 X-42.4942 Y56.7092
G01 X-42.5222 Y56.7473
G01 X-42.5291 Y56.7559
G01 X-42.5609 Y56.7909
G01 X-42.6610 Y56.8912
G01 X-42.6612 Y57.1114
G01 X-42.6626 Y57.1260
G01 X-42.6646 Y57.1369
G01 X-42.6675 Y57.1475
G01 X-42.6714 Y57.1589
G01 X-42.5257 Y57.3047
G01 X-41.6523 Y57.3047
G01 X-41.6214 Y57.3064
G01 X-41.5871 Y57.3115
G01 X-41.5534 Y57.3199
G01 X-41.5277 Y57.3289
G01 X-41.5174 Y57.3330
G01 X-41.4927 Y57.3447
G01 X-41.4830 Y57.3500
G01 X-41.4628 Y57.3622
G01 X-41.4537 Y57.3685
G01 X-41.4319 Y57.3849
G01 X-41.4088 Y57.4056
G01 X-40.9327 Y57.8817
G01 X-39.5010 Y57.8817
G01 X-39.5010 Y57.6313
G01 X-39.5003 Y57.6203
G01 X-39.4988 Y57.6094
G01 X-39.4965 Y57.5986
G01 X-39.4934 Y57.5879
G01 X-39.4896 Y57.5776
G01 X-39.4850 Y57.5676
G01 X-39.4797 Y57.5579
G01 X-39.4736 Y57.5486
G01 X-39.4670 Y57.5398
G01 X-39.4596 Y57.5316
G01 X-39.4517 Y57.5239
G01 X-39.4462 Y57.5190
G01 X-39.4374 Y57.5124
G01 X-39.4281 Y57.5063
G01 X-39.4184 Y57.5010
G01 X-39.4084 Y57.4964
G01 X-39.3981 Y57.4926
G01 X-39.3874 Y57.4895
G01 X-39.3766 Y57.4872
G01 X-39.3657 Y57.4857
G01 X-39.3510 Y57.4850
G01 X-38.5510 Y57.4850
G01 X-38.5436 Y57.4852
G01 X-38.5326 Y57.4861
G01 X-38.5217 Y57.4879
G01 X-38.5110 Y57.4904
G01 X-38.5005 Y57.4938
G01 X-38.4869 Y57.4994
G01 X-38.4771 Y57.5045
G01 X-38.4677 Y57.5103
G01 X-38.4587 Y57.5167
G01 X-38.4476 Y57.5264
G01 X-38.4399 Y57.5343
G01 X-38.4305 Y57.5456
G01 X-38.4223 Y57.5579
G01 X-38.4170 Y57.5676
G01 X-38.4111 Y57.5810
G01 X-38.4075 Y57.5915
G01 X-38.4046 Y57.6021
G01 X-38.4026 Y57.6130
G01 X-38.4014 Y57.6240
G01 X-38.4010 Y57.6350
G01 X-38.4010 Y58.8350
G01 X-38.4014 Y58.8460
G01 X-38.4026 Y58.8570
G01 X-38.4046 Y58.8679
G01 X-38.4075 Y58.8785
G01 X-38.4111 Y58.8890
G01 X-38.4154 Y58.8991
G01 X-38.4205 Y58.9089
G01 X-38.4263 Y58.9183
G01 X-38.4327 Y58.9273
G01 X-38.4399 Y58.9357
G01 X-38.4476 Y58.9436
G01 X-38.4558 Y58.9510
G01 X-38.4646 Y58.9576
G01 X-38.4739 Y58.9637
G01 X-38.4803 Y58.9673
G01 X-38.4902 Y58.9721
G01 X-38.5005 Y58.9762
G01 X-38.5146 Y58.9805
G01 X-38.5254 Y58.9828
G01 X-38.5400 Y58.9846
G01 X-38.5510 Y58.9850
G01 X-39.3510 Y58.9850
G01 X-39.3657 Y58.9843
G01 X-39.3803 Y58.9821
G01 X-39.3910 Y58.9796
G01 X-39.4050 Y58.9749
G01 X-39.4184 Y58.9690
G01 X-39.4249 Y58.9655
G01 X-39.4343 Y58.9597
G01 X-39.4433 Y58.9533
G01 X-39.4490 Y58.9486
G01 X-39.4544 Y58.9436
G01 X-39.4621 Y58.9357
G01 X-39.4693 Y58.9273
G01 X-39.4736 Y58.9214
G01 X-39.4777 Y58.9152
G01 X-39.4833 Y58.9057
G01 X-39.4881 Y58.8958
G01 X-39.4909 Y58.8890
G01 X-39.4945 Y58.8785
G01 X-39.4965 Y58.8714
G01 X-39.4994 Y58.8570
G01 X-39.5006 Y58.8460
G01 X-39.5010 Y58.8387
G01 X-39.5010 Y58.5883
G01 X-41.0790 Y58.5883
G01 X-41.1136 Y58.5866
G01 X-41.1407 Y58.5828
G01 X-41.1515 Y58.5808
G01 X-41.1816 Y58.5731
G01 X-41.2142 Y58.5614
G01 X-41.2455 Y58.5466
G01 X-41.2753 Y58.5288
G01 X-41.3003 Y58.5104
G01 X-41.3087 Y58.5033
G01 X-41.3288 Y58.4848
G01 X-41.8023 Y58.0113
G01 X-42.6794 Y58.0111
G01 X-42.7030 Y58.0099
G01 X-42.7139 Y58.0087
G01 X-42.7409 Y58.0045
G01 X-42.7675 Y57.9981
G01 X-42.7781 Y57.9950
G01 X-42.8072 Y57.9844
G01 X-42.8385 Y57.9696
G01 X-42.8652 Y57.9538
G01 X-42.8743 Y57.9475
G01 X-42.8961 Y57.9311
G01 X-42.9192 Y57.9104
G01 X-43.4608 Y57.3688
G01 X-43.4841 Y57.3431
G01 X-43.5048 Y57.3153
G01 X-43.5226 Y57.2855
G01 X-43.5375 Y57.2540
G01 X-43.6147 Y57.2540
G01 X-43.6294 Y57.2529
G01 X-43.6439 Y57.2504
G01 X-43.6510 Y57.2486
G01 X-43.6615 Y57.2452
G01 X-43.6684 Y57.2426
G01 X-43.6784 Y57.2380
G01 X-43.6881 Y57.2327
G01 X-43.6974 Y57.2266
G01 X-43.7033 Y57.2223
G01 X-43.7117 Y57.2151
G01 X-43.7221 Y57.2047
G01 X-43.7315 Y57.1934
G01 X-43.7397 Y57.1811
G01 X-43.7466 Y57.1681
G01 X-43.7522 Y57.1545
G01 X-43.7565 Y57.1404
G01 X-43.7594 Y57.1260
G01 X-43.7608 Y57.1114
G01 X-43.7610 Y56.7362
G01 X-43.7645 Y56.7122
G01 X-43.7652 Y56.7049
G01 X-43.7676 Y56.6540
G01 X-43.7652 Y56.6031
G01 X-43.7645 Y56.5958
G01 X-43.7610 Y56.5718
G01 X-43.7610 Y56.2040
G01 X-44.1516 Y55.8252
G01 X-44.1516 Y57.4828
G01 X-42.9516 Y57.8780
G01 X-42.9516 Y61.5865
G00 Z2.0000
G00 X-42.2316 Y61.4834
G01 F60.00
G01 Z-0.3732
G01 F120.00
G01 X-42.2316 Y67.4794
G01 X-42.4716 Y67.7194
G01 X-42.4716 Y59.3540
G00 Z2.0000
G00 X-42.7116 Y59.3452
G01 F60.00
G01 Z-0.3732
G01 F120.00
G01 X-42.7116 Y67.9594
G01 X-42.9516 Y68.1994
G01 X-42.9516 Y66.7792
G00 Z2.0000
G00 X-43.1916 Y67.0423
G01 F60.00
G01 Z-0.3732
G01 F120.00
G01 X-43.1916 Y68.4394
G01 X-43.4316 Y68.4935
G01 X-43.4316 Y67.2823
G00 Z2.0000
G00 X-43.6716 Y67.5164
G01 F60.00
G01 Z-0.3732
G01 F120.00
G01 X-43.6716 Y68.4935
G01 X-43.9116 Y68.4935
G01 X-43.9116 Y67.5615
G01 X-44.1516 Y67.5615
G01 X-44.1516 Y68.4935
G01 X-44.3916 Y68.4935
G01 X-44.3916 Y67.5615
G01 X-44.6316 Y67.5615
G01 X-44.6316 Y68.4935
G01 X-44.8716 Y68.4935
G01 X-44.8716 Y67.5615
G01 X-45.1116 Y67.5615
G01 X-45.1116 Y68.5236
G00 Z2.0000
G00 X-45.1715 Y68.6435
G01 F60.00
G01 Z-0.3732
G01 F120.00
G01 X-45.1708 Y68.6288
G01 X-45.1686 Y68.6142
G01 X-45.1661 Y68.6035
G01 X-45.1614 Y68.5895
G01 X-45.1555 Y68.5761
G01 X-45.1482 Y68.5633
G01 X-45.1420 Y68.5541
G01 X-45.1326 Y68.5428
G01 X-45.1222 Y68.5324
G01 X-45.1109 Y68.5230
G01 X-45.0986 Y68.5148
G01 X-45.0856 Y68.5079
G01 X-45.0755 Y68.5036
G01 X-45.0615 Y68.4989
G01 X-45.0471 Y68.4957
G01 X-45.0325 Y68.4939
G01 X-45.0215 Y68.4935
G01 X-43.2457 Y68.4935
G01 X-42.1016 Y67.3494
G01 X-42.1016 Y64.9555
G01 X-42.1110 Y64.9452
G01 X-42.1197 Y64.9333
G01 X-42.1255 Y64.9239
G01 X-42.1321 Y64.9108
G01 X-42.1374 Y64.8971
G01 X-42.1414 Y64.8829
G01 X-42.1434 Y64.8720
G01 X-42.1448 Y64.8574
G01 X-42.1450 Y64.0500
G01 X-42.1446 Y64.0390
G01 X-42.1434 Y64.0280
G01 X-42.1405 Y64.0136
G01 X-42.1374 Y64.0029
G01 X-42.1336 Y63.9926
G01 X-42.1273 Y63.9793
G01 X-42.1217 Y63.9698
G01 X-42.1155 Y63.9606
G01 X-42.1086 Y63.9520
G01 X-42.1011 Y63.9439
G01 X-42.0930 Y63.9364
G01 X-42.0844 Y63.9295
G01 X-42.0752 Y63.9233
G01 X-42.0657 Y63.9177
G01 X-42.0558 Y63.9129
G01 X-42.0455 Y63.9088
G01 X-42.0350 Y63.9054
G01 X-42.0243 Y63.9029
G01 X-42.0134 Y63.9011
G01 X-42.0024 Y63.9002
G01 X-41.6272 Y63.9000
G01 X-41.6032 Y63.8965
G01 X-41.5959 Y63.8958
G01 X-41.5450 Y63.8934
G01 X-41.4941 Y63.8958
G01 X-41.4868 Y63.8965
G01 X-41.4628 Y63.9000
G01 X-41.0876 Y63.9002
G01 X-41.0766 Y63.9011
G01 X-41.0621 Y63.9036
G01 X-41.0515 Y63.9065
G01 X-41.0376 Y63.9114
G01 X-41.0243 Y63.9177
G01 X-41.0148 Y63.9233
G01 X-41.0056 Y63.9295
G01 X-40.9943 Y63.9389
G01 X-40.9839 Y63.9493
G01 X-40.9745 Y63.9606
G01 X-40.9663 Y63.9729
G01 X-40.9594 Y63.9859
G01 X-40.9538 Y63.9995
G01 X-40.9495 Y64.0136
G01 X-40.9466 Y64.0280
G01 X-40.9452 Y64.0426
G01 X-40.9450 Y64.8500
G01 X-40.9457 Y64.8647
G01 X-40.9479 Y64.8793
G01 X-40.9515 Y64.8935
G01 X-40.9564 Y64.9074
G01 X-40.9627 Y64.9207
G01 X-40.9703 Y64.9333
G01 X-40.9790 Y64.9452
G01 X-40.9884 Y64.9555
G01 X-40.9884 Y67.5800
G01 X-40.9911 Y67.6346
G01 X-40.9978 Y67.6813
G01 X-41.0007 Y67.6958
G01 X-41.0124 Y67.7416
G01 X-41.0308 Y67.7930
G01 X-41.0508 Y67.8358
G01 X-41.0577 Y67.8488
G01 X-41.0822 Y67.8892
G01 X-41.1102 Y67.9273
G01 X-41.1195 Y67.9387
G01 X-41.1489 Y67.9709
G01 X-42.4585 Y69.2807
G01 X-42.4585 Y71.0602
G01 X-42.4592 Y71.0712
G01 X-42.4607 Y71.0821
G01 X-42.4630 Y71.0929
G01 X-42.4650 Y71.1000
G01 X-42.4686 Y71.1105
G01 X-42.4714 Y71.1173
G01 X-42.4762 Y71.1272
G01 X-42.4818 Y71.1367
G01 X-42.4902 Y71.1488
G01 X-42.4949 Y71.1545
G01 X-42.5024 Y71.1626
G01 X-42.5078 Y71.1676
G01 X-42.5162 Y71.1748
G01 X-42.5283 Y71.1832
G01 X-42.5346 Y71.1870
G01 X-42.5444 Y71.1921
G01 X-42.5580 Y71.1977
G01 X-42.5685 Y71.2011
G01 X-42.5756 Y71.2029
G01 X-42.5865 Y71.2049
G01 X-42.5938 Y71.2058
G01 X-42.6085 Y71.2065
G01 X-43.2584 Y71.2065
G01 X-43.2584 Y72.2750
G01 X-43.0376 Y72.2752
G01 X-43.0230 Y72.2766
G01 X-43.0121 Y72.2786
G01 X-43.0015 Y72.2815
G01 X-42.9910 Y72.2851
G01 X-42.9842 Y72.2879
G01 X-42.9743 Y72.2927
G01 X-42.9648 Y72.2983
G01 X-42.9556 Y72.3045
G01 X-42.9470 Y72.3114
G01 X-42.9389 Y72.3189
G01 X-42.9314 Y72.3270
G01 X-42.9245 Y72.3356
G01 X-42.9183 Y72.3448
G01 X-42.9127 Y72.3543
G01 X-42.9079 Y72.3642
G01 X-42.9051 Y72.3710
G01 X-42.9026 Y72.3779
G01 X-42.8995 Y72.3886
G01 X-42.8972 Y72.3994
G01 X-42.8957 Y72.4103
G01 X-42.8950 Y72.4250
G01 X-42.8950 Y72.9428
G01 X-42.8915 Y72.9668
G01 X-42.8908 Y72.9741
G01 X-42.8884 Y73.0250
G01 X-42.8908 Y73.0759
G01 X-42.8915 Y73.0832
G01 X-42.8950 Y73.1072
G01 X-42.8950 Y73.6250
G01 X-42.8954 Y73.6360
G01 X-42.8961 Y73.6434
G01 X-42.8979 Y73.6543
G01 X-42.9004 Y73.6650
G01 X-42.9038 Y73.6755
G01 X-42.9079 Y73.6858
G01 X-42.9127 Y73.6957
G01 X-42.9183 Y73.7052
G01 X-42.9245 Y73.7144
G01 X-42.9314 Y73.7230
G01 X-42.9364 Y73.7284
G01 X-42.9443 Y73.7361
G01 X-42.9527 Y73.7433
G01 X-42.9617 Y73.7497
G01 X-42.9711 Y73.7555
G01 X-42.9809 Y73.7606
G01 X-42.9876 Y73.7636
G01 X-43.0015 Y73.7685
G01 X-43.0157 Y73.7721
G01 X-43.0266 Y73.7739
G01 X-43.0413 Y73.7750
G01 X-43.8524 Y73.7748
G01 X-43.8670 Y73.7734
G01 X-43.8779 Y73.7714
G01 X-43.8850 Y73.7696
G01 X-43.8990 Y73.7649
G01 X-43.9124 Y73.7590
G01 X-43.9252 Y73.7517
G01 X-43.9373 Y73.7433
G01 X-43.9484 Y73.7336
G01 X-43.9536 Y73.7284
G01 X-43.9610 Y73.7202
G01 X-43.9676 Y73.7114
G01 X-43.9737 Y73.7021
G01 X-43.9790 Y73.6924
G01 X-43.9836 Y73.6824
G01 X-43.9874 Y73.6721
G01 X-43.9905 Y73.6614
G01 X-43.9934 Y73.6470
G01 X-43.9946 Y73.6360
G01 X-43.9950 Y73.6250
G01 X-43.9950 Y73.2622
G01 X-44.2111 Y73.0459
G01 X-44.2453 Y73.0081
G01 X-44.2736 Y72.9703
G01 X-44.2817 Y72.9580
G01 X-44.3059 Y72.9174
G01 X-44.3292 Y72.8680
G01 X-44.3476 Y72.8166
G01 X-44.3593 Y72.7708
G01 X-44.3616 Y72.7600
G01 X-44.3689 Y72.7096
G01 X-44.3716 Y72.6550
G01 X-44.3716 Y71.2065
G01 X-45.0215 Y71.2065
G01 X-45.0289 Y71.2063
G01 X-45.0399 Y71.2054
G01 X-45.0471 Y71.2043
G01 X-45.0579 Y71.2020
G01 X-45.0686 Y71.1989
G01 X-45.0789 Y71.1951
G01 X-45.0889 Y71.1905
G01 X-45.0986 Y71.1852
G01 X-45.1079 Y71.1791
G01 X-45.1138 Y71.1748
G01 X-45.1195 Y71.1701
G01 X-45.1276 Y71.1626
G01 X-45.1326 Y71.1572
G01 X-45.1398 Y71.1488
G01 X-45.1462 Y71.1398
G01 X-45.1520 Y71.1304
G01 X-45.1555 Y71.1239
G01 X-45.1601 Y71.1139
G01 X-45.1650 Y71.1000
G01 X-45.1686 Y71.0858
G01 X-45.1708 Y71.0712
G01 X-45.1715 Y71.0565
G01 X-45.1715 Y68.6435
G00 Z2.0000
G00 X-45.8316 Y68.0617
G01 F60.00
G01 Z-0.3732
G01 F120.00
G01 X-45.8316 Y67.5615
G01 X-46.0716 Y67.5615
G01 X-46.0716 Y68.0617
G01 X-46.3116 Y68.0617
G01 X-46.3116 Y67.5615
G00 Z2.0000
G00 X-46.5516 Y67.4691
G01 F60.00
G01 Z-0.3732
G01 F120.00
G01 X-46.5516 Y68.0422
G01 X-46.7916 Y67.9365
G01 X-46.7916 Y67.2291
G00 Z2.0000
G00 X-47.0316 Y66.9825
G01 F60.00
G01 Z-0.3732
G01 F120.00
G01 X-47.0316 Y67.6964
G01 X-47.2716 Y67.4564
G01 X-47.2716 Y66.6717
G00 Z2.0000
G00 X-47.5116 Y67.2188
G01 F60.00
G01 Z-0.3732
G01 F120.00
G01 X-47.5116 Y64.4134
G01 X-47.7516 Y64.6534
G01 X-47.7516 Y67.1890
G01 X-47.9916 Y67.2884
G01 X-47.9916 Y66.7086
G00 Z2.0000
G00 X-48.2316 Y66.7900
G01 F60.00
G01 Z-0.3732
G01 F120.00
G01 X-48.2316 Y67.2901
G01 X-48.4716 Y67.2901
G01 X-48.4716 Y66.7900
G01 X-48.7116 Y66.7900
G01 X-48.7116 Y67.2901
G01 X-48.9516 Y67.2901
G01 X-48.9516 Y66.7876
G00 Z2.0000
G00 X-49.1916 Y67.2332
G01 F60.00
G01 Z-0.3732
G01 F120.00
G01 X-49.1916 Y64.9443
G00 Z2.0000
G00 X-49.0750 Y65.0000
G01 F60.00
G01 Z-0.3732
G01 F120.00
G01 X-49.0897 Y64.9993
G01 X-49.1043 Y64.9971
G01 X-49.1150 Y64.9946
G01 X-49.1290 Y64.9899
G01 X-49.1424 Y64.9840
G01 X-49.1521 Y64.9787
G01 X-49.1644 Y64.9705
G01 X-49.1757 Y64.9611
G01 X-49.1836 Y64.9534
G01 X-49.1933 Y64.9423
G01 X-49.2017 Y64.9302
G01 X-49.2090 Y64.9174
G01 X-49.2149 Y64.9040
G01 X-49.2185 Y64.8935
G01 X-49.2221 Y64.8793
G01 X-49.2243 Y64.8647
G01 X-49.2250 Y64.8500
G01 X-49.2248 Y64.0426
G01 X-49.2234 Y64.0280
G01 X-49.2221 Y64.0207
G01 X-49.2196 Y64.0100
G01 X-49.2149 Y63.9960
G01 X-49.2090 Y63.9826
G01 X-49.2037 Y63.9729
G01 X-49.1997 Y63.9667
G01 X-49.1910 Y63.9548
G01 X-49.1811 Y63.9439
G01 X-49.1702 Y63.9340
G01 X-49.1583 Y63.9253
G01 X-49.1489 Y63.9195
G01 X-49.1391 Y63.9144
G01 X-49.1255 Y63.9088
G01 X-49.1150 Y63.9054
G01 X-49.1043 Y63.9029
G01 X-49.0934 Y63.9011
G01 X-49.0787 Y63.9000
G01 X-48.1750 Y63.9000
G01 X-48.1640 Y63.9004
G01 X-48.1494 Y63.9022
G01 X-48.1421 Y63.9036
G01 X-48.1315 Y63.9065
G01 X-48.1210 Y63.9101
G01 X-48.1142 Y63.9129
G01 X-48.1076 Y63.9160
G01 X-48.0979 Y63.9213
G01 X-48.0856 Y63.9295
G01 X-48.0798 Y63.9340
G01 X-48.0716 Y63.9414
G01 X-48.0664 Y63.9466
G01 X-48.0590 Y63.9548
G01 X-48.0545 Y63.9606
G01 X-48.0483 Y63.9698
G01 X-48.0410 Y63.9826
G01 X-48.0364 Y63.9926
G01 X-48.0315 Y64.0065
G01 X-48.0279 Y64.0207
G01 X-48.0257 Y64.0353
G01 X-48.0250 Y64.0500
G01 X-48.0250 Y64.1432
G01 X-47.9021 Y64.0202
G01 X-47.9021 Y60.7550
G01 X-48.0250 Y60.7550
G01 X-48.0360 Y60.7546
G01 X-48.0470 Y60.7534
G01 X-48.0579 Y60.7514
G01 X-48.0685 Y60.7485
G01 X-48.0824 Y60.7436
G01 X-48.0957 Y60.7373
G01 X-48.1021 Y60.7337
G01 X-48.1114 Y60.7276
G01 X-48.1173 Y60.7233
G01 X-48.1257 Y60.7161
G01 X-48.1311 Y60.7111
G01 X-48.1386 Y60.7030
G01 X-48.1433 Y60.6973
G01 X-48.1497 Y60.6883
G01 X-48.1573 Y60.6757
G01 X-48.1621 Y60.6658
G01 X-48.1649 Y60.6590
G01 X-48.1674 Y60.6521
G01 X-48.1705 Y60.6414
G01 X-48.1721 Y60.6343
G01 X-48.1739 Y60.6234
G01 X-48.1746 Y60.6160
G01 X-48.1750 Y60.6050
G01 X-48.1750 Y59.7050
G01 X-48.1746 Y59.6940
G01 X-48.1728 Y59.6794
G01 X-48.1705 Y59.6686
G01 X-48.1662 Y59.6545
G01 X-48.1621 Y59.6442
G01 X-48.1573 Y59.6343
G01 X-48.1517 Y59.6248
G01 X-48.1476 Y59.6186
G01 X-48.1410 Y59.6098
G01 X-48.1336 Y59.6016
G01 X-48.1257 Y59.5939
G01 X-48.1173 Y59.5867
G01 X-48.1083 Y59.5803
G01 X-48.0989 Y59.5745
G01 X-48.0891 Y59.5694
G01 X-48.0790 Y59.5651
G01 X-48.0721 Y59.5626
G01 X-48.0614 Y59.5595
G01 X-48.0506 Y59.5572
G01 X-48.0397 Y59.5557
G01 X-48.0250 Y59.5550
G01 X-47.2250 Y59.5550
G01 X-47.2140 Y59.5554
G01 X-47.1994 Y59.5572
G01 X-47.1850 Y59.5604
G01 X-47.1745 Y59.5638
G01 X-47.1642 Y59.5679
G01 X-47.1543 Y59.5727
G01 X-47.1448 Y59.5783
G01 X-47.1356 Y59.5845
G01 X-47.1270 Y59.5914
G01 X-47.1216 Y59.5964
G01 X-47.1139 Y59.6043
G01 X-47.1067 Y59.6127
G01 X-47.1003 Y59.6217
G01 X-47.0963 Y59.6279
G01 X-47.0910 Y59.6376
G01 X-47.0864 Y59.6476
G01 X-47.0826 Y59.6579
G01 X-47.0795 Y59.6686
G01 X-47.0772 Y59.6794
G01 X-47.0757 Y59.6903
G01 X-47.0750 Y59.7050
G01 X-47.0752 Y60.6124
G01 X-47.0757 Y60.6197
G01 X-47.0772 Y60.6306
G01 X-47.0786 Y60.6379
G01 X-47.0815 Y60.6485
G01 X-47.0851 Y60.6590
G01 X-47.0894 Y60.6691
G01 X-47.0945 Y60.6789
G01 X-47.0983 Y60.6852
G01 X-47.1045 Y60.6944
G01 X-47.1090 Y60.7002
G01 X-47.1139 Y60.7057
G01 X-47.1216 Y60.7136
G01 X-47.1298 Y60.7210
G01 X-47.1356 Y60.7255
G01 X-47.1448 Y60.7317
G01 X-47.1543 Y60.7373
G01 X-47.1676 Y60.7436
G01 X-47.1815 Y60.7485
G01 X-47.1957 Y60.7521
G01 X-47.2103 Y60.7543
G01 X-47.2250 Y60.7550
G01 X-47.3479 Y60.7550
G01 X-47.3479 Y64.1350
G01 X-47.3487 Y64.1548
G01 X-47.3497 Y64.1658
G01 X-47.3533 Y64.1891
G01 X-47.3599 Y64.2154
G01 X-47.3690 Y64.2410
G01 X-47.3773 Y64.2590
G01 X-47.3843 Y64.2720
G01 X-47.3967 Y64.2920
G01 X-47.4108 Y64.3108
G01 X-47.4291 Y64.3309
G01 X-47.8441 Y64.7459
G01 X-47.8642 Y64.7642
G01 X-47.8861 Y64.7804
G01 X-47.9030 Y64.7907
G01 X-47.9160 Y64.7977
G01 X-47.9374 Y64.8073
G01 X-47.9596 Y64.8151
G01 X-47.9823 Y64.8210
G01 X-47.9896 Y64.8224
G01 X-48.0092 Y64.8253
G01 X-48.0250 Y64.8265
G01 X-48.0250 Y64.8537
G01 X-48.0261 Y64.8684
G01 X-48.0272 Y64.8756
G01 X-48.0295 Y64.8864
G01 X-48.0338 Y64.9005
G01 X-48.0364 Y64.9074
G01 X-48.0410 Y64.9174
G01 X-48.0463 Y64.9271
G01 X-48.0503 Y64.9333
G01 X-48.0545 Y64.9394
G01 X-48.0614 Y64.9480
G01 X-48.0664 Y64.9534
G01 X-48.0743 Y64.9611
G01 X-48.0827 Y64.9683
G01 X-48.0948 Y64.9767
G01 X-48.1076 Y64.9840
G01 X-48.1210 Y64.9899
G01 X-48.1315 Y64.9935
G01 X-48.1457 Y64.9971
G01 X-48.1603 Y64.9993
G01 X-48.1717 Y65.0000
G01 X-48.1717 Y65.2900
G01 X-48.1176 Y65.2902
G01 X-48.1030 Y65.2916
G01 X-48.0921 Y65.2936
G01 X-48.0779 Y65.2976
G01 X-48.0642 Y65.3029
G01 X-48.0511 Y65.3095
G01 X-48.0417 Y65.3153
G01 X-48.0356 Y65.3195
G01 X-48.0243 Y65.3289
G01 X-48.0164 Y65.3366
G01 X-48.0114 Y65.3420
G01 X-48.0024 Y65.3536
G01 X-47.9963 Y65.3629
G01 X-47.9927 Y65.3693
G01 X-47.9864 Y65.3826
G01 X-47.9826 Y65.3929
G01 X-47.9804 Y65.4000
G01 X-47.9786 Y65.4071
G01 X-47.9766 Y65.4180
G01 X-47.9752 Y65.4326
G01 X-47.9750 Y66.6400
G01 X-47.9754 Y66.6510
G01 X-47.9766 Y66.6620
G01 X-47.9786 Y66.6729
G01 X-47.9815 Y66.6835
G01 X-47.9838 Y66.6905
G01 X-47.9879 Y66.7008
G01 X-47.9910 Y66.7074
G01 X-47.9963 Y66.7171
G01 X-48.0024 Y66.7264
G01 X-48.0090 Y66.7352
G01 X-48.0164 Y66.7434
G01 X-48.0243 Y66.7511
G01 X-48.0298 Y66.7560
G01 X-48.0386 Y66.7626
G01 X-48.0479 Y66.7687
G01 X-48.0576 Y66.7740
G01 X-48.0642 Y66.7771
G01 X-48.0779 Y66.7824
G01 X-48.0921 Y66.7864
G01 X-48.1066 Y66.7889
G01 X-48.1213 Y66.7900
G01 X-48.9250 Y66.7900
G01 X-48.9360 Y66.7896
G01 X-48.9470 Y66.7884
G01 X-48.9579 Y66.7864
G01 X-48.9650 Y66.7846
G01 X-48.9755 Y66.7812
G01 X-48.9858 Y66.7771
G01 X-48.9957 Y66.7723
G01 X-49.0052 Y66.7667
G01 X-49.0114 Y66.7626
G01 X-49.0173 Y66.7583
G01 X-49.0257 Y66.7511
G01 X-49.0336 Y66.7434
G01 X-49.0410 Y66.7352
G01 X-49.0476 Y66.7264
G01 X-49.0517 Y66.7202
G01 X-49.0573 Y66.7107
G01 X-49.0621 Y66.7008
G01 X-49.0674 Y66.6871
G01 X-49.0696 Y66.6800
G01 X-49.0721 Y66.6693
G01 X-49.0743 Y66.6547
G01 X-49.0750 Y66.6400
G01 X-49.0750 Y65.4400
G01 X-49.0743 Y65.4253
G01 X-49.0721 Y65.4107
G01 X-49.0705 Y65.4036
G01 X-49.0674 Y65.3929
G01 X-49.0621 Y65.3792
G01 X-49.0555 Y65.3661
G01 X-49.0497 Y65.3567
G01 X-49.0455 Y65.3506
G01 X-49.0361 Y65.3393
G01 X-49.0257 Y65.3289
G01 X-49.0202 Y65.3240
G01 X-49.0114 Y65.3174
G01 X-48.9989 Y65.3095
G01 X-48.9858 Y65.3029
G01 X-48.9755 Y65.2988
G01 X-48.9685 Y65.2965
G01 X-48.9543 Y65.2929
G01 X-48.9434 Y65.2911
G01 X-48.9324 Y65.2902
G01 X-48.8783 Y65.2900
G01 X-48.8783 Y65.0000
G01 X-49.0750 Y65.0000
G01 X-48.9516 Y65.0000
G01 X-48.9516 Y65.2924
G01 X-49.6716 Y65.1084
G01 X-49.6716 Y63.1588
G01 X-49.4316 Y63.1066
G01 X-49.4316 Y67.0528
G00 Z2.0000
G00 X-50.3916 Y68.8218
G01 F60.00
G01 Z-0.3732
G01 F120.00
G01 X-50.3916 Y63.8788
G01 X-50.1516 Y63.6388
G01 X-50.1516 Y64.3457
G00 Z2.0000
G00 X-49.9116 Y64.2429
G01 F60.00
G01 Z-0.3732
G01 F120.00
G01 X-49.9116 Y63.3988
G01 X-49.1916 Y63.1066
G01 X-49.1916 Y63.9557
G00 Z2.0000
G00 X-48.9516 Y63.9000
G01 F60.00
G01 Z-0.3732
G01 F120.00
G01 X-48.9516 Y63.1066
G01 X-48.7116 Y63.1066
G01 X-48.7116 Y63.9000
G01 X-48.4716 Y63.9000
G01 X-48.4716 Y63.1000
G01 X-48.2316 Y63.1000
G01 X-48.2316 Y63.9000
G00 Z2.0000
G00 X-47.9916 Y64.1098
G01 F60.00
G01 Z-0.3732
G01 F120.00
G01 X-47.9916 Y60.7550
G00 Z2.0000
G00 X-47.2716 Y60.7550
G01 F60.00
G01 Z-0.3732
G01 F120.00
G01 X-47.2716 Y65.4083
G01 X-47.2409 Y65.0980
G01 X-47.2415 Y65.0844
G01 X-47.2415 Y64.2556
G01 X-47.2411 Y64.2453
G01 X-47.2393 Y64.2230
G01 X-47.2383 Y64.2156
G01 X-47.2361 Y64.2045
G01 X-47.2290 Y64.1771
G01 X-47.2252 Y64.1667
G01 X-47.2171 Y64.1474
G01 X-47.2120 Y64.1375
G01 X-47.1987 Y64.1153
G01 X-47.1923 Y64.1063
G01 X-47.1805 Y64.0914
G01 X-47.1706 Y64.0807
G01 X-47.1526 Y64.0637
G01 X-47.1441 Y64.0568
G01 X-47.1259 Y64.0439
G01 X-47.1162 Y64.0382
G01 X-47.0922 Y64.0258
G01 X-47.0820 Y64.0215
G01 X-47.0689 Y64.0169
G01 X-47.0811 Y64.0061
G01 X-47.0910 Y63.9952
G01 X-47.0997 Y63.9833
G01 X-47.1037 Y63.9771
G01 X-47.1090 Y63.9674
G01 X-47.1149 Y63.9540
G01 X-47.1196 Y63.9400
G01 X-47.1228 Y63.9256
G01 X-47.1239 Y63.9184
G01 X-47.1248 Y63.9074
G01 X-47.1248 Y63.0926
G01 X-47.1239 Y63.0816
G01 X-47.1221 Y63.0707
G01 X-47.1196 Y63.0600
G01 X-47.1149 Y63.0460
G01 X-47.1106 Y63.0359
G01 X-47.1055 Y63.0261
G01 X-47.0997 Y63.0167
G01 X-47.0910 Y63.0048
G01 X-47.0836 Y62.9966
G01 X-47.0757 Y62.9889
G01 X-47.0673 Y62.9817
G01 X-47.0552 Y62.9733
G01 X-47.0424 Y62.9660
G01 X-47.0324 Y62.9614
G01 X-47.0221 Y62.9576
G01 X-47.0085 Y62.9538
G01 X-47.0219 Y62.9443
G01 X-47.0333 Y62.9350
G01 X-47.0557 Y62.9130
G01 X-47.0651 Y62.9025
G01 X-47.0741 Y62.8905
G01 X-47.0818 Y62.8787
G01 X-47.0974 Y62.8504
G01 X-47.1004 Y62.8438
G01 X-47.1051 Y62.8323
G01 X-47.1098 Y62.8181
G01 X-47.1170 Y62.7871
G01 X-47.1194 Y62.7727
G01 X-47.1206 Y62.7588
G01 X-47.1207 Y62.7442
G01 X-47.1188 Y62.7130
G01 X-47.1174 Y62.7024
G01 X-47.1157 Y62.6935
G01 X-47.1122 Y62.6793
G01 X-47.1005 Y62.6453
G01 X-47.0962 Y62.6354
G01 X-47.0884 Y62.6207
G01 X-47.0824 Y62.6111
G01 X-47.0656 Y62.5875
G01 X-47.0588 Y62.5790
G01 X-47.0498 Y62.5691
G01 X-45.9715 Y61.4909
G01 X-45.9715 Y60.9600
G01 X-45.9711 Y60.9493
G01 X-45.9692 Y60.9337
G01 X-45.9681 Y60.9216
G01 X-45.9665 Y60.9102
G01 X-45.9640 Y60.8989
G01 X-45.9578 Y60.8781
G01 X-45.9540 Y60.8681
G01 X-45.9447 Y60.8472
G01 X-45.9413 Y60.8404
G01 X-45.9301 Y60.8219
G01 X-45.9218 Y60.8100
G01 X-45.9053 Y60.7902
G01 X-45.8979 Y60.7821
G01 X-45.2602 Y60.1446
G01 X-45.2519 Y60.1372
G01 X-45.2423 Y60.1299
G01 X-45.2304 Y60.1201
G01 X-45.2211 Y60.1135
G01 X-45.2147 Y60.1096
G01 X-45.1986 Y60.1006
G01 X-45.1889 Y60.0959
G01 X-45.1636 Y60.0862
G01 X-45.1530 Y60.0829
G01 X-45.1337 Y60.0783
G01 X-45.1226 Y60.0764
G01 X-45.0953 Y60.0739
G01 X-45.0850 Y60.0735
G01 X-44.3596 Y60.0735
G01 X-44.3493 Y60.0739
G01 X-44.3270 Y60.0757
G01 X-44.3159 Y60.0773
G01 X-44.3085 Y60.0789
G01 X-44.2846 Y60.0850
G01 X-44.2742 Y60.0884
G01 X-44.2493 Y60.0990
G01 X-44.2428 Y60.1024
G01 X-44.2224 Y60.1144
G01 X-44.2103 Y60.1227
G01 X-44.1954 Y60.1345
G01 X-44.1873 Y60.1418
G01 X-44.1677 Y60.1624
G01 X-44.1608 Y60.1709
G01 X-44.1540 Y60.1805
G01 X-44.1538 Y60.1286
G01 X-44.1529 Y60.1176
G01 X-44.1511 Y60.1067
G01 X-44.1475 Y60.0925
G01 X-44.1426 Y60.0786
G01 X-44.1363 Y60.0653
G01 X-44.1287 Y60.0527
G01 X-44.1223 Y60.0437
G01 X-44.1176 Y60.0380
G01 X-44.1074 Y60.0274
G01 X-44.0963 Y60.0177
G01 X-44.0873 Y60.0113
G01 X-44.0811 Y60.0073
G01 X-44.0747 Y60.0037
G01 X-44.0648 Y59.9989
G01 X-44.0511 Y59.9936
G01 X-44.0369 Y59.9896
G01 X-44.0224 Y59.9871
G01 X-44.0114 Y59.9862
G01 X-44.0040 Y59.9860
G01 X-43.2040 Y59.9860
G01 X-43.1930 Y59.9864
G01 X-43.1784 Y59.9882
G01 X-43.1676 Y59.9905
G01 X-43.1605 Y59.9925
G01 X-43.1466 Y59.9974
G01 X-43.1366 Y60.0020
G01 X-43.1301 Y60.0055
G01 X-43.1176 Y60.0134
G01 X-43.1117 Y60.0177
G01 X-43.1033 Y60.0249
G01 X-43.0929 Y60.0353
G01 X-43.0880 Y60.0408
G01 X-43.0814 Y60.0496
G01 X-43.0753 Y60.0589
G01 X-43.0700 Y60.0686
G01 X-43.0654 Y60.0786
G01 X-43.0616 Y60.0889
G01 X-43.0585 Y60.0996
G01 X-43.0562 Y60.1104
G01 X-43.0547 Y60.1213
G01 X-43.0540 Y60.1323
G01 X-43.0540 Y61.3397
G01 X-43.0551 Y61.3544
G01 X-43.0576 Y61.3689
G01 X-43.0594 Y61.3760
G01 X-43.0628 Y61.3865
G01 X-43.0684 Y61.4001
G01 X-43.0717 Y61.4067
G01 X-43.0773 Y61.4162
G01 X-43.0857 Y61.4283
G01 X-43.0954 Y61.4394
G01 X-43.1075 Y61.4509
G01 X-43.0946 Y61.4550
G01 X-43.0718 Y61.4645
G01 X-43.0619 Y61.4696
G01 X-43.0366 Y61.4850
G01 X-43.0173 Y61.4998
G01 X-43.0090 Y61.5072
G01 X-42.9898 Y61.5272
G01 X-42.9805 Y61.5386
G01 X-42.9683 Y61.5557
G01 X-42.9608 Y61.5687
G01 X-42.9489 Y61.5924
G01 X-42.9406 Y61.6147
G01 X-42.9367 Y61.6283
G01 X-42.9311 Y61.6556
G01 X-42.9297 Y61.6667
G01 X-42.9285 Y61.6882
G01 X-42.9285 Y62.7444
G01 X-42.9289 Y62.7547
G01 X-42.9312 Y62.7807
G01 X-42.9339 Y62.7955
G01 X-42.9400 Y62.8194
G01 X-42.9448 Y62.8333
G01 X-42.9524 Y62.8514
G01 X-42.9574 Y62.8612
G01 X-42.9713 Y62.8847
G01 X-42.9777 Y62.8937
G01 X-42.9895 Y62.9086
G01 X-42.9994 Y62.9193
G01 X-43.0174 Y62.9363
G01 X-43.0259 Y62.9432
G01 X-43.0441 Y62.9561
G01 X-43.0538 Y62.9618
G01 X-43.0778 Y62.9742
G01 X-43.0880 Y62.9785
G01 X-43.1011 Y62.9830
G01 X-43.0889 Y62.9939
G01 X-43.0814 Y63.0020
G01 X-43.0767 Y63.0077
G01 X-43.0703 Y63.0167
G01 X-43.0663 Y63.0229
G01 X-43.0594 Y63.0359
G01 X-43.0538 Y63.0495
G01 X-43.0504 Y63.0600
G01 X-43.0486 Y63.0671
G01 X-43.0461 Y63.0816
G01 X-43.0454 Y63.0890
G01 X-43.0450 Y63.1000
G01 X-43.0452 Y63.9074
G01 X-43.0466 Y63.9220
G01 X-43.0495 Y63.9364
G01 X-43.0515 Y63.9435
G01 X-43.0551 Y63.9540
G01 X-43.0610 Y63.9674
G01 X-43.0645 Y63.9739
G01 X-43.0703 Y63.9833
G01 X-43.0790 Y63.9952
G01 X-43.0889 Y64.0061
G01 X-43.1009 Y64.0168
G01 X-43.0786 Y64.0255
G01 X-43.0685 Y64.0301
G01 X-43.0428 Y64.0450
G01 X-43.0336 Y64.0511
G01 X-43.0173 Y64.0638
G01 X-43.0090 Y64.0712
G01 X-42.9898 Y64.0912
G01 X-42.9805 Y64.1026
G01 X-42.9683 Y64.1197
G01 X-42.9626 Y64.1294
G01 X-42.9504 Y64.1531
G01 X-42.9449 Y64.1664
G01 X-42.9375 Y64.1888
G01 X-42.9317 Y64.2160
G01 X-42.9297 Y64.2307
G01 X-42.9287 Y64.2487
G01 X-42.9285 Y66.6750
G01 X-42.9292 Y66.6893
G01 X-42.9308 Y66.7013
G01 X-42.9323 Y66.7171
G01 X-42.9335 Y66.7245
G01 X-42.9359 Y66.7356
G01 X-42.9394 Y66.7482
G01 X-42.9443 Y66.7626
G01 X-42.9553 Y66.7878
G01 X-42.9606 Y66.7980
G01 X-42.9645 Y66.8046
G01 X-42.9719 Y66.8161
G01 X-42.9782 Y66.8250
G01 X-42.9947 Y66.8448
G01 X-42.9996 Y66.8502
G01 X-43.6398 Y67.4904
G01 X-43.6481 Y67.4978
G01 X-43.6577 Y67.5051
G01 X-43.6727 Y67.5172
G01 X-43.6853 Y67.5254
G01 X-43.7014 Y67.5344
G01 X-43.7145 Y67.5404
G01 X-43.7369 Y67.5489
G01 X-43.7472 Y67.5522
G01 X-43.7663 Y67.5567
G01 X-43.7812 Y67.5591
G01 X-43.8047 Y67.5611
G01 X-43.8150 Y67.5615
G01 X-46.3550 Y67.5615
G01 X-46.3693 Y67.5608
G01 X-46.3813 Y67.5592
G01 X-46.3971 Y67.5577
G01 X-46.4045 Y67.5565
G01 X-46.4156 Y67.5541
G01 X-46.4282 Y67.5506
G01 X-46.4426 Y67.5457
G01 X-46.4678 Y67.5347
G01 X-46.4746 Y67.5313
G01 X-46.4846 Y67.5255
G01 X-46.4961 Y67.5181
G01 X-46.5050 Y67.5118
G01 X-46.5248 Y67.4953
G01 X-46.5302 Y67.4904
G01 X-47.0013 Y67.0195
G01 X-47.0112 Y67.0085
G01 X-47.0185 Y66.9989
G01 X-47.0283 Y66.9870
G01 X-47.0328 Y66.9809
G01 X-47.0388 Y66.9713
G01 X-47.0461 Y66.9584
G01 X-47.0494 Y66.9520
G01 X-47.0538 Y66.9421
G01 X-47.0623 Y66.9197
G01 X-47.0646 Y66.9129
G01 X-47.0693 Y66.8939
G01 X-47.0715 Y66.8829
G01 X-47.0725 Y66.8754
G01 X-47.0743 Y66.8553
G01 X-47.0749 Y66.8416
G01 X-47.0749 Y66.7900
G01 X-47.1287 Y66.7900
G01 X-47.1397 Y66.7893
G01 X-47.1470 Y66.7884
G01 X-47.1579 Y66.7864
G01 X-47.1721 Y66.7824
G01 X-47.1824 Y66.7786
G01 X-47.1957 Y66.7723
G01 X-47.2083 Y66.7647
G01 X-47.2173 Y66.7583
G01 X-47.2284 Y66.7486
G01 X-47.2386 Y66.7380
G01 X-47.2476 Y66.7264
G01 X-47.2555 Y66.7139
G01 X-47.2621 Y66.7008
G01 X-47.2674 Y66.6871
G01 X-47.2714 Y66.6729
G01 X-47.2734 Y66.6620
G01 X-47.2746 Y66.6510
G01 X-47.2750 Y66.6400
G01 X-47.2750 Y65.4400
G01 X-47.2743 Y65.4253
G01 X-47.2728 Y65.4144
G01 X-47.2696 Y65.4000
G01 X-47.2649 Y65.3860
G01 X-47.2590 Y65.3726
G01 X-47.2537 Y65.3629
G01 X-47.2455 Y65.3506
G01 X-47.2361 Y65.3393
G01 X-47.2284 Y65.3314
G01 X-47.2202 Y65.3240
G01 X-47.2083 Y65.3153
G01 X-47.1957 Y65.3077
G01 X-47.1858 Y65.3029
G01 X-47.1755 Y65.2988
G01 X-47.1614 Y65.2945
G01 X-47.1470 Y65.2916
G01 X-47.1344 Y65.2903
G01 X-47.1570 Y65.2726
G01 X-47.1649 Y65.2650
G01 X-47.1794 Y65.2497
G01 X-47.1843 Y65.2442
G01 X-47.1910 Y65.2356
G01 X-47.2017 Y65.2203
G01 X-47.2074 Y65.2106
G01 X-47.2182 Y65.1899
G01 X-47.2213 Y65.1832
G01 X-47.2253 Y65.1729
G01 X-47.2313 Y65.1552
G01 X-47.2341 Y65.1446
G01 X-47.2389 Y65.1204
G01 X-47.2403 Y65.1093
G01 X-47.2409 Y65.0980
G00 Z2.0000
G00 X-47.9916 Y65.3714
G01 F60.00
G01 Z-0.3732
G01 F120.00
G01 X-47.9916 Y64.8227
G00 Z2.0000
G00 X-47.0316 Y62.9611
G01 F60.00
G01 Z-0.3732
G01 F120.00
G01 X-47.0316 Y62.9365
G00 Z2.0000
G00 X-48.7116 Y61.9934
G01 F60.00
G01 Z-0.3732
G01 F120.00
G01 X-48.7116 Y61.4935
G01 X-48.9516 Y61.4935
G01 X-48.9516 Y61.9934
G01 X-49.1916 Y61.9934
G01 X-49.1916 Y61.4935
G01 X-49.4316 Y61.4935
G01 X-49.4316 Y61.9934
G01 X-49.6716 Y61.9934
G01 X-49.6716 Y61.4935
G01 X-49.9116 Y61.4935
G01 X-49.9116 Y61.9969
G00 Z2.0000
G00 X-50.1516 Y62.0824
G01 F60.00
G01 Z-0.3732
G01 F120.00
G01 X-50.1516 Y61.5314
G01 X-50.3916 Y61.6308
G01 X-50.3916 Y62.3044
G01 X-50.6316 Y62.5444
G01 X-50.6316 Y61.8375
G01 X-50.8716 Y62.0775
G01 X-50.8716 Y62.7844
G01 X-51.1116 Y63.0244
G01 X-51.1116 Y62.3175
G01 X-51.3516 Y62.5575
G01 X-51.3516 Y63.2644
G01 X-51.5916 Y63.5044
G01 X-51.5916 Y62.7975
G01 X-51.8316 Y63.0375
G01 X-51.8316 Y63.7445
G00 Z2.0000
G00 X-52.0716 Y63.2775
G01 F60.00
G01 Z-0.3732
G01 F120.00
G01 X-52.0716 Y68.4294
G01 X-52.3116 Y68.6694
G01 X-52.3116 Y63.5175
G00 Z2.0000
G00 X-51.7261 Y62.1987
G01 F60.00
G01 Z-0.3732
G01 F120.00
G01 X-51.7261 Y58.4513
G01 X-51.9661 Y58.2706
G01 X-51.9661 Y62.3794
G01 X-52.2061 Y62.5179
G01 X-52.2061 Y58.1321
G01 X-52.4461 Y58.0114
G01 X-52.4461 Y62.6386
G01 X-52.6861 Y62.7029
G01 X-52.6861 Y57.9471
G01 X-52.9261 Y57.8828
G01 X-52.9261 Y62.7672
G01 X-53.1661 Y62.7911
G01 X-53.1661 Y57.8589
G01 X-53.0153 Y57.8589
G01 X-53.6647 Y57.8589
G01 X-54.2919 Y58.0270
G01 X-54.8542 Y58.3516
G01 X-55.3134 Y58.8108
G01 X-55.6380 Y59.3731
G01 X-55.8061 Y60.0003
G01 X-55.8061 Y60.6497
G01 X-55.6380 Y61.2769
G01 X-55.3134 Y61.8392
G01 X-54.8542 Y62.2984
G01 X-54.2919 Y62.6230
G01 X-53.6647 Y62.7911
G01 X-53.0153 Y62.7911
G01 X-52.3881 Y62.6230
G01 X-51.8258 Y62.2984
G01 X-51.3666 Y61.8392
G01 X-51.0420 Y61.2769
G01 X-50.8739 Y60.6497
G01 X-50.8739 Y60.0003
G01 X-51.0420 Y59.3731
G01 X-51.3666 Y58.8108
G01 X-51.8258 Y58.3516
G01 X-52.3881 Y58.0270
G01 X-53.0153 Y57.8589
G01 X-53.4061 Y57.8589
G01 X-53.4061 Y62.7911
G01 X-53.6461 Y62.7911
G01 X-53.6461 Y57.8589
G01 X-53.8861 Y57.9182
G01 X-53.8861 Y62.7318
G01 X-54.1261 Y62.6675
G01 X-54.1261 Y57.9825
G01 X-54.3661 Y58.0698
G01 X-54.3661 Y62.5802
G01 X-54.6061 Y62.4416
G01 X-54.6061 Y58.2084
G01 X-54.8461 Y58.3470
G01 X-54.8461 Y62.3030
G01 X-55.0861 Y62.0665
G01 X-55.0861 Y58.5835
G01 X-55.3261 Y58.8328
G01 X-55.3261 Y61.8172
G01 X-55.5661 Y61.4015
G01 X-55.5661 Y59.2485
G00 Z2.0000
G00 X-54.4165 Y55.5661
G01 F60.00
G01 Z-0.3732
G01 F120.00
G01 X-52.2635 Y55.5661
G01 X-51.8478 Y55.3261
G01 X-54.8322 Y55.3261
G01 X-55.0815 Y55.0861
G01 X-51.5985 Y55.0861
G01 X-51.3620 Y54.8461
G01 X-55.3180 Y54.8461
G01 X-55.4566 Y54.6061
G01 X-51.2234 Y54.6061
G01 X-51.0848 Y54.3661
G01 X-55.5952 Y54.3661
G01 X-55.6825 Y54.1261
G01 X-50.9975 Y54.1261
G01 X-50.9332 Y53.8861
G01 X-55.7468 Y53.8861
G01 X-55.8061 Y53.6461
G01 X-50.8739 Y53.6461
G01 X-50.8739 Y53.4061
G01 X-55.8061 Y53.4061
G01 X-55.8061 Y53.1661
G01 X-50.8739 Y53.1661
G01 X-50.8978 Y52.9261
G01 X-55.7822 Y52.9261
G01 X-55.7179 Y52.6861
G01 X-50.9621 Y52.6861
G01 X-51.0264 Y52.4461
G01 X-55.6536 Y52.4461
G01 X-55.5329 Y52.2061
G01 X-51.1471 Y52.2061
G01 X-51.2856 Y51.9661
G01 X-55.3944 Y51.9661
G01 X-55.2137 Y51.7261
G01 X-51.4663 Y51.7261
G01 X-51.7063 Y51.4861
G01 X-54.9737 Y51.4861
G00 Z2.0000
G00 X-51.4861 Y58.6913
G01 F60.00
G01 Z-0.3732
G01 F120.00
G01 X-51.4861 Y61.9587
G01 X-51.2461 Y61.6304
G01 X-51.2461 Y59.0196
G01 X-51.0061 Y59.5070
G01 X-51.0061 Y61.1430
G00 Z2.0000
G00 X-50.6316 Y64.1188
G01 F60.00
G01 Z-0.3732
G01 F120.00
G01 X-50.6316 Y69.2707
G00 Z2.0000
G00 X-50.8716 Y64.3588
G01 F60.00
G01 Z-0.3732
G01 F120.00
G01 X-50.8716 Y69.5107
G01 X-51.1116 Y69.7507
G01 X-51.1116 Y69.0438
G01 X-51.3516 Y69.2838
G01 X-51.3516 Y69.9907
G01 X-51.5916 Y70.2307
G01 X-51.5916 Y69.5238
G01 X-51.8316 Y69.7638
G01 X-51.8316 Y70.4707
G01 X-52.0716 Y70.7107
G01 X-52.0716 Y70.0038
G00 Z2.0000
G00 X-52.3116 Y70.2438
G01 F60.00
G01 Z-0.3732
G01 F120.00
G01 X-52.3116 Y70.9722
G01 X-52.7916 Y70.7386
G01 X-52.7916 Y74.1561
G00 Z2.0000
G00 X-52.5516 Y74.1851
G01 F60.00
G01 Z-0.3732
G01 F120.00
G01 X-52.5516 Y70.3849
G00 Z2.0000
G00 X-53.0316 Y70.9560
G01 F60.00
G01 Z-0.3732
G01 F120.00
G01 X-53.0316 Y74.2568
G01 X-53.2716 Y74.2751
G01 X-53.2716 Y73.7750
G01 X-53.5116 Y73.7750
G01 X-53.5116 Y74.2751
G01 X-53.7516 Y74.2751
G01 X-53.7516 Y73.7750
G01 X-53.9916 Y73.7750
G01 X-53.9916 Y74.2751
G01 X-54.2316 Y74.2348
G01 X-54.2316 Y71.1401
G00 Z2.0000
G00 X-54.1616 Y71.1601
G01 F60.00
G01 Z-0.3732
G01 F120.00
G01 X-54.2017 Y71.1501
G01 X-54.2123 Y71.1470
G01 X-54.3307 Y71.1046
G01 X-54.3408 Y71.1003
G01 X-54.4512 Y71.0480
G01 X-54.4609 Y71.0427
G01 X-54.5686 Y70.9779
G01 X-54.6727 Y70.9009
G01 X-54.6811 Y70.8938
G01 X-54.7742 Y70.8092
G01 X-54.8636 Y70.7106
G01 X-54.9429 Y70.6036
G01 X-55.0096 Y70.4927
G01 X-55.0146 Y70.4829
G01 X-55.0682 Y70.3691
G01 X-55.1131 Y70.2438
G01 X-55.1454 Y70.1146
G01 X-55.1650 Y69.9830
G01 X-55.1715 Y69.8500
G01 X-55.1650 Y69.7170
G01 X-55.1454 Y69.5854
G01 X-55.1131 Y69.4562
G01 X-55.0682 Y69.3309
G01 X-55.0146 Y69.2171
G01 X-55.0077 Y69.2041
G01 X-54.9429 Y69.0964
G01 X-54.8681 Y68.9952
G01 X-54.8588 Y68.9839
G01 X-54.7742 Y68.8908
G01 X-54.6756 Y68.8014
G01 X-54.5747 Y68.7264
G01 X-54.5624 Y68.7182
G01 X-54.4544 Y68.6537
G01 X-54.3408 Y68.5997
G01 X-54.3272 Y68.5941
G01 X-54.2158 Y68.5542
G01 X-54.2017 Y68.5499
G01 X-54.0868 Y68.5212
G01 X-54.0724 Y68.5183
G01 X-53.9480 Y68.5000
G01 X-53.8150 Y68.4935
G01 X-53.6820 Y68.5000
G01 X-53.5576 Y68.5183
G01 X-53.5432 Y68.5212
G01 X-53.4283 Y68.5499
G01 X-53.4177 Y68.5530
G01 X-53.2959 Y68.5968
G01 X-53.1821 Y68.6504
G01 X-53.1691 Y68.6573
G01 X-53.0676 Y68.7182
G01 X-53.0553 Y68.7264
G01 X-52.9544 Y68.8014
G01 X-52.8558 Y68.8908
G01 X-52.7664 Y68.9894
G01 X-52.7089 Y69.0667
G01 X-51.9916 Y68.3494
G01 X-51.9916 Y64.1313
G01 X-51.9889 Y64.0804
G01 X-51.9822 Y64.0337
G01 X-51.9793 Y64.0192
G01 X-51.9676 Y63.9734
G01 X-51.9492 Y63.9220
G01 X-51.9292 Y63.8792
G01 X-51.9223 Y63.8662
G01 X-51.8978 Y63.8258
G01 X-51.8653 Y63.7819
G01 X-51.8286 Y63.7414
G01 X-50.2436 Y62.1564
G01 X-50.2031 Y62.1197
G01 X-50.1653 Y62.0914
G01 X-50.1561 Y62.0852
G01 X-50.1188 Y62.0627
G01 X-50.1058 Y62.0558
G01 X-50.0630 Y62.0358
G01 X-50.0186 Y62.0197
G01 X-50.0080 Y62.0163
G01 X-49.9658 Y62.0057
G01 X-49.9513 Y62.0028
G01 X-49.9046 Y61.9961
G01 X-49.8537 Y61.9934
