(G-CODE GENERATED BY FLATCAM v8.994 - www.flatcam.org - Version Date: 2020/11/7)

(Name: copper_bottom.gbr_iso_combined_cnc)
(Type: G-code from Geometry)
(Units: MM)

(Created on Sunday, 30 January 2022 at 20:19)

(This preprocessor is the default preprocessor used by FlatCAM.)
(It is made to work with MACH3 compatible motion controllers.)

(TOOL DIAMETER: 0.1 mm)
(Feedrate_XY: 200.0 mm/min)
(Feedrate_Z: 60.0 mm/min)
(Feedrate rapids 1500.0 mm/min)

(Z_Cut: -0.05 mm)
(Z_Move: 2.0 mm)
(Z Start: None mm)
(Z End: 15.0 mm)
(X,Y End: None mm)
(Steps per circle: 64)
(Preprocessor Geometry: default)

(X range:  -62.8630 ...   -8.0079  mm)
(Y range:   -1.6439 ...   31.7939  mm)

(Spindle Speed: 0.0 RPM)
G21
G90
G94

G01 F200.00

M5
G00 Z15.0000
G00 X0.0000 Y0.0000
T1
M6    
(MSG, Change to Tool Dia = 0.1000)
M0
G00 Z15.0000

M03
G01 F200.00
G00 X-13.6397 Y8.9442
G01 F60.00
G01 Z-0.0500
G01 F200.00
G01 X-13.4285 Y9.0127
G01 X-13.2307 Y9.1136
G01 X-13.0511 Y9.2440
G01 X-12.8940 Y9.4011
G01 X-12.7636 Y9.5807
G01 X-12.6627 Y9.7785
G01 X-12.5942 Y9.9897
G01 X-12.5820 Y10.0667
G01 X-12.7396 Y10.0667
G01 X-12.7676 Y9.9553
G01 X-12.8091 Y9.8392
G01 X-12.8619 Y9.7277
G01 X-12.9239 Y9.6240
G01 X-13.0003 Y9.5210
G01 X-13.0815 Y9.4315
G01 X-13.1729 Y9.3487
G01 X-13.2740 Y9.2739
G01 X-13.3777 Y9.2119
G01 X-13.4880 Y9.1596
G01 X-13.6064 Y9.1173
G01 X-13.7237 Y9.0879
G01 X-13.7677 Y9.0812
G01 X-13.7677 Y8.9239
G01 X-13.6397 Y8.9442
G00 Z2.0000
G00 X-12.7396 Y10.5733
G01 F60.00
G01 Z-0.0500
G01 F200.00
G01 X-12.5820 Y10.5733
G01 X-12.5942 Y10.6503
G01 X-12.6627 Y10.8615
G01 X-12.7636 Y11.0593
G01 X-12.8940 Y11.2389
G01 X-13.0511 Y11.3960
G01 X-13.2307 Y11.5264
G01 X-13.4285 Y11.6273
G01 X-13.6397 Y11.6958
G01 X-13.7677 Y11.7161
G01 X-13.7677 Y11.5588
G01 X-13.7237 Y11.5521
G01 X-13.6041 Y11.5220
G01 X-13.4892 Y11.4809
G01 X-13.3766 Y11.4275
G01 X-13.2719 Y11.3647
G01 X-13.1729 Y11.2913
G01 X-13.0815 Y11.2085
G01 X-13.0003 Y11.1190
G01 X-12.9253 Y11.0181
G01 X-12.8608 Y10.9101
G01 X-12.8083 Y10.7986
G01 X-12.7676 Y10.6847
G01 X-12.7396 Y10.5733
G00 Z2.0000
G00 X-14.1723 Y11.5588
G01 F60.00
G01 Z-0.0500
G01 F200.00
G01 X-14.1723 Y11.7161
G01 X-14.3003 Y11.6958
G01 X-14.5115 Y11.6273
G01 X-14.7093 Y11.5264
G01 X-14.8889 Y11.3960
G01 X-15.0460 Y11.2389
G01 X-15.1764 Y11.0593
G01 X-15.2773 Y10.8615
G01 X-15.3458 Y10.6503
G01 X-15.3661 Y10.5223
G01 X-15.2088 Y10.5223
G01 X-15.2021 Y10.5663
G01 X-15.1720 Y10.6859
G01 X-15.1309 Y10.8008
G01 X-15.0775 Y10.9134
G01 X-15.0147 Y11.0181
G01 X-14.9413 Y11.1171
G01 X-14.8585 Y11.2085
G01 X-14.7681 Y11.2905
G01 X-14.6660 Y11.3661
G01 X-14.5623 Y11.4281
G01 X-14.4520 Y11.4804
G01 X-14.3336 Y11.5227
G01 X-14.2163 Y11.5521
G01 X-14.1723 Y11.5588
G00 Z2.0000
G00 X-14.8550 Y12.4722
G01 F60.00
G01 Z-0.0500
G01 F200.00
G01 X-14.8451 Y12.4761
G01 X-14.8188 Y12.4854
G01 X-14.8084 Y12.4884
G01 X-14.7978 Y12.4910
G01 X-14.7812 Y12.4941
G01 X-14.7697 Y12.4958
G01 X-14.7475 Y12.4976
G01 X-14.7320 Y12.4981
G01 X-11.3045 Y12.4981
G01 X-11.3045 Y13.2529
G01 X-11.3206 Y13.2260
G01 X-11.3302 Y13.2120
G01 X-11.3491 Y13.1871
G01 X-11.3737 Y13.1596
G01 X-11.8856 Y12.6476
G01 X-11.9086 Y12.6264
G01 X-11.9215 Y12.6155
G01 X-11.9513 Y12.5937
G01 X-11.9779 Y12.5774
G01 X-11.9928 Y12.5693
G01 X-12.0210 Y12.5559
G01 X-12.0367 Y12.5496
G01 X-12.0662 Y12.5394
G01 X-12.1019 Y12.5302
G01 X-12.1186 Y12.5271
G01 X-12.1495 Y12.5228
G01 X-12.1807 Y12.5210
G01 X-12.1920 Y12.5207
G01 X-14.8065 Y12.5207
G01 X-14.8550 Y12.4722
G00 Z2.0000
G00 X-15.2088 Y10.1177
G01 F60.00
G01 Z-0.0500
G01 F200.00
G01 X-15.3661 Y10.1177
G01 X-15.3458 Y9.9897
G01 X-15.2773 Y9.7785
G01 X-15.1764 Y9.5807
G01 X-15.0460 Y9.4011
G01 X-14.8889 Y9.2440
G01 X-14.7093 Y9.1136
G01 X-14.5115 Y9.0127
G01 X-14.3003 Y8.9442
G01 X-14.1723 Y8.9239
G01 X-14.1723 Y9.0812
G01 X-14.2163 Y9.0879
G01 X-14.3359 Y9.1180
G01 X-14.4508 Y9.1591
G01 X-14.5634 Y9.2125
G01 X-14.6681 Y9.2753
G01 X-14.7671 Y9.3487
G01 X-14.8585 Y9.4315
G01 X-14.9405 Y9.5219
G01 X-15.0161 Y9.6240
G01 X-15.0781 Y9.7277
G01 X-15.1304 Y9.8380
G01 X-15.1727 Y9.9564
G01 X-15.2021 Y10.0737
G01 X-15.2088 Y10.1177
G00 Z2.0000
G00 X-16.0767 Y7.4702
G01 F60.00
G01 Z-0.0500
G01 F200.00
G01 X-16.0541 Y7.4928
G01 X-16.0541 Y11.1760
G01 X-16.0538 Y11.1878
G01 X-16.0529 Y11.1996
G01 X-16.0498 Y11.2254
G01 X-16.0469 Y11.2420
G01 X-16.0443 Y11.2529
G01 X-16.0382 Y11.2735
G01 X-16.0324 Y11.2891
G01 X-16.0277 Y11.2995
G01 X-16.0767 Y11.2505
G01 X-16.0767 Y7.4702
G00 Z2.0000
G00 X-17.9919 Y8.1923
G01 F60.00
G01 Z-0.0500
G01 F200.00
G01 X-17.9919 Y8.4168
G01 X-18.0058 Y8.4688
G01 X-18.0327 Y8.5153
G01 X-18.0707 Y8.5533
G01 X-18.1172 Y8.5802
G01 X-18.1692 Y8.5941
G01 X-18.5937 Y8.5941
G01 X-18.5937 Y8.4400
G01 X-18.1960 Y8.4400
G01 X-18.1862 Y8.4390
G01 X-18.1769 Y8.4362
G01 X-18.1703 Y8.4329
G01 X-18.1652 Y8.4294
G01 X-18.1606 Y8.4254
G01 X-18.1566 Y8.4208
G01 X-18.1525 Y8.4146
G01 X-18.1498 Y8.4091
G01 X-18.1478 Y8.4033
G01 X-18.1464 Y8.3961
G01 X-18.1460 Y8.3900
G01 X-18.1460 Y8.1923
G01 X-17.9919 Y8.1923
G00 Z2.0000
G00 X-18.1692 Y7.3859
G01 F60.00
G01 Z-0.0500
G01 F200.00
G01 X-18.1172 Y7.3998
G01 X-18.0707 Y7.4267
G01 X-18.0327 Y7.4647
G01 X-18.0058 Y7.5112
G01 X-17.9919 Y7.5632
G01 X-17.9919 Y7.7877
G01 X-18.1460 Y7.7877
G01 X-18.1460 Y7.5900
G01 X-18.1464 Y7.5839
G01 X-18.1475 Y7.5779
G01 X-18.1498 Y7.5709
G01 X-18.1531 Y7.5643
G01 X-18.1566 Y7.5592
G01 X-18.1606 Y7.5546
G01 X-18.1652 Y7.5506
G01 X-18.1703 Y7.5471
G01 X-18.1769 Y7.5438
G01 X-18.1862 Y7.5410
G01 X-18.1960 Y7.5400
G01 X-18.5937 Y7.5400
G01 X-18.5937 Y7.3859
G01 X-18.1692 Y7.3859
G00 Z2.0000
G00 X-18.9983 Y7.3859
G01 F60.00
G01 Z-0.0500
G01 F200.00
G01 X-18.9983 Y7.5400
G01 X-19.3960 Y7.5400
G01 X-19.4058 Y7.5410
G01 X-19.4151 Y7.5438
G01 X-19.4206 Y7.5465
G01 X-19.4268 Y7.5506
G01 X-19.4314 Y7.5546
G01 X-19.4362 Y7.5602
G01 X-19.4401 Y7.5664
G01 X-19.4426 Y7.5720
G01 X-19.4445 Y7.5779
G01 X-19.4456 Y7.5839
G01 X-19.4460 Y7.5900
G01 X-19.4460 Y7.7877
G01 X-19.6001 Y7.7877
G01 X-19.6001 Y7.5632
G01 X-19.5862 Y7.5112
G01 X-19.5593 Y7.4647
G01 X-19.5213 Y7.4267
G01 X-19.4748 Y7.3998
G01 X-19.4228 Y7.3859
G01 X-18.9983 Y7.3859
G00 Z2.0000
G00 X-18.9983 Y8.4400
G01 F60.00
G01 Z-0.0500
G01 F200.00
G01 X-18.9983 Y8.5941
G01 X-19.4228 Y8.5941
G01 X-19.4748 Y8.5802
G01 X-19.5213 Y8.5533
G01 X-19.5593 Y8.5153
G01 X-19.5862 Y8.4688
G01 X-19.6001 Y8.4168
G01 X-19.6001 Y8.1923
G01 X-19.4460 Y8.1923
G01 X-19.4460 Y8.3900
G01 X-19.4456 Y8.3961
G01 X-19.4445 Y8.4021
G01 X-19.4422 Y8.4091
G01 X-19.4395 Y8.4146
G01 X-19.4354 Y8.4208
G01 X-19.4314 Y8.4254
G01 X-19.4268 Y8.4294
G01 X-19.4217 Y8.4329
G01 X-19.4151 Y8.4362
G01 X-19.4058 Y8.4390
G01 X-19.3960 Y8.4400
G01 X-18.9983 Y8.4400
G00 Z2.0000
G00 X-20.2642 Y10.1214
G01 F60.00
G01 Z-0.0500
G01 F200.00
G01 X-19.5360 Y10.1214
G01 X-19.5360 Y9.3900
G01 X-19.5353 Y9.3763
G01 X-19.5339 Y9.3661
G01 X-19.5318 Y9.3560
G01 X-19.5289 Y9.3461
G01 X-19.5266 Y9.3396
G01 X-19.5226 Y9.3301
G01 X-19.5195 Y9.3240
G01 X-19.5143 Y9.3151
G01 X-19.5084 Y9.3066
G01 X-19.5020 Y9.2986
G01 X-19.4950 Y9.2910
G01 X-19.4874 Y9.2840
G01 X-19.4821 Y9.2796
G01 X-19.4738 Y9.2736
G01 X-19.4650 Y9.2682
G01 X-19.4559 Y9.2634
G01 X-19.4464 Y9.2594
G01 X-19.4333 Y9.2551
G01 X-19.4233 Y9.2527
G01 X-19.4131 Y9.2511
G01 X-19.3994 Y9.2500
G01 X-18.8775 Y9.2500
G01 X-18.8564 Y9.2469
G01 X-18.8462 Y9.2457
G01 X-18.7960 Y9.2434
G01 X-18.7458 Y9.2457
G01 X-18.7356 Y9.2469
G01 X-18.7145 Y9.2500
G01 X-18.1891 Y9.2502
G01 X-18.1823 Y9.2507
G01 X-18.1721 Y9.2521
G01 X-18.1653 Y9.2534
G01 X-18.1554 Y9.2560
G01 X-18.1488 Y9.2582
G01 X-18.1393 Y9.2620
G01 X-18.1300 Y9.2665
G01 X-18.1211 Y9.2717
G01 X-18.1126 Y9.2776
G01 X-18.1072 Y9.2818
G01 X-18.1020 Y9.2863
G01 X-18.0946 Y9.2935
G01 X-18.0856 Y9.3039
G01 X-18.0796 Y9.3122
G01 X-18.0759 Y9.3180
G01 X-18.0694 Y9.3301
G01 X-18.0654 Y9.3396
G01 X-18.0631 Y9.3461
G01 X-18.0602 Y9.3560
G01 X-18.0587 Y9.3627
G01 X-18.0571 Y9.3729
G01 X-18.0564 Y9.3797
G01 X-18.0560 Y9.3900
G01 X-18.0560 Y10.1900
G01 X-18.0567 Y10.2037
G01 X-18.0575 Y10.2105
G01 X-18.0594 Y10.2207
G01 X-18.0631 Y10.2339
G01 X-18.0680 Y10.2467
G01 X-18.0725 Y10.2560
G01 X-18.0759 Y10.2620
G01 X-18.0836 Y10.2734
G01 X-18.0900 Y10.2814
G01 X-18.0946 Y10.2865
G01 X-18.1046 Y10.2960
G01 X-18.1099 Y10.3004
G01 X-18.1182 Y10.3064
G01 X-18.1300 Y10.3135
G01 X-18.1424 Y10.3193
G01 X-18.1554 Y10.3240
G01 X-18.1620 Y10.3258
G01 X-18.1721 Y10.3279
G01 X-18.1823 Y10.3293
G01 X-18.1926 Y10.3300
G01 X-18.2494 Y10.3300
G01 X-18.2494 Y10.4980
G01 X-18.1926 Y10.4980
G01 X-18.1857 Y10.4984
G01 X-18.1755 Y10.4995
G01 X-18.1620 Y10.5022
G01 X-18.1488 Y10.5062
G01 X-18.1361 Y10.5114
G01 X-18.1240 Y10.5179
G01 X-18.1126 Y10.5256
G01 X-18.1020 Y10.5343
G01 X-18.0970 Y10.5390
G01 X-18.0900 Y10.5466
G01 X-18.0815 Y10.5574
G01 X-18.0777 Y10.5631
G01 X-18.0725 Y10.5720
G01 X-18.0667 Y10.5844
G01 X-18.0620 Y10.5974
G01 X-18.0594 Y10.6073
G01 X-18.0581 Y10.6141
G01 X-18.0567 Y10.6243
G01 X-18.0560 Y10.6380
G01 X-18.0560 Y11.4414
G01 X-18.0567 Y11.4517
G01 X-18.0581 Y11.4619
G01 X-18.0602 Y11.4720
G01 X-18.0620 Y11.4786
G01 X-18.0654 Y11.4884
G01 X-18.0694 Y11.4979
G01 X-18.0725 Y11.5040
G01 X-18.0777 Y11.5129
G01 X-18.0836 Y11.5214
G01 X-18.0878 Y11.5268
G01 X-18.0923 Y11.5320
G01 X-18.0995 Y11.5394
G01 X-18.1046 Y11.5440
G01 X-18.1126 Y11.5504
G01 X-18.1211 Y11.5563
G01 X-18.1270 Y11.5598
G01 X-18.1361 Y11.5646
G01 X-18.1424 Y11.5673
G01 X-18.1488 Y11.5698
G01 X-18.1587 Y11.5729
G01 X-18.1653 Y11.5746
G01 X-18.1755 Y11.5765
G01 X-18.1891 Y11.5778
G01 X-18.7145 Y11.5780
G01 X-18.7356 Y11.5811
G01 X-18.7458 Y11.5823
G01 X-18.7960 Y11.5846
G01 X-18.8462 Y11.5823
G01 X-18.8564 Y11.5811
G01 X-18.8775 Y11.5780
G01 X-19.3960 Y11.5780
G01 X-19.4063 Y11.5776
G01 X-19.4165 Y11.5765
G01 X-19.4267 Y11.5746
G01 X-19.4366 Y11.5720
G01 X-19.4464 Y11.5686
G01 X-19.4527 Y11.5660
G01 X-19.4620 Y11.5615
G01 X-19.4709 Y11.5563
G01 X-19.4794 Y11.5504
G01 X-19.4874 Y11.5440
G01 X-19.4950 Y11.5370
G01 X-19.5020 Y11.5294
G01 X-19.5084 Y11.5214
G01 X-19.5124 Y11.5158
G01 X-19.5178 Y11.5070
G01 X-19.5211 Y11.5009
G01 X-19.5253 Y11.4916
G01 X-19.5289 Y11.4819
G01 X-19.5318 Y11.4720
G01 X-19.5339 Y11.4619
G01 X-19.5353 Y11.4517
G01 X-19.5360 Y11.4414
G01 X-19.5360 Y11.2146
G01 X-20.2642 Y11.2146
G01 X-20.3006 Y11.2750
G01 X-20.3623 Y11.3584
G01 X-20.3690 Y11.3663
G01 X-20.4317 Y11.4355
G01 X-20.4389 Y11.4429
G01 X-20.5159 Y11.5125
G01 X-20.5964 Y11.5724
G01 X-20.6078 Y11.5801
G01 X-20.6880 Y11.6281
G01 X-20.6970 Y11.6331
G01 X-20.7909 Y11.6773
G01 X-20.8853 Y11.7113
G01 X-20.8985 Y11.7153
G01 X-20.9959 Y11.7395
G01 X-21.0951 Y11.7544
G01 X-21.1088 Y11.7557
G01 X-21.2090 Y11.7605
G01 X-21.3127 Y11.7555
G01 X-21.3229 Y11.7544
G01 X-21.4221 Y11.7395
G01 X-21.5195 Y11.7153
G01 X-21.5327 Y11.7113
G01 X-21.6271 Y11.6773
G01 X-21.7179 Y11.6346
G01 X-21.7300 Y11.6281
G01 X-21.8160 Y11.5764
G01 X-21.9021 Y11.5125
G01 X-21.9765 Y11.4453
G01 X-21.9863 Y11.4355
G01 X-22.0535 Y11.3611
G01 X-22.1134 Y11.2806
G01 X-22.1211 Y11.2692
G01 X-22.1708 Y11.1860
G01 X-22.1756 Y11.1769
G01 X-22.2183 Y11.0861
G01 X-22.2545 Y10.9851
G01 X-22.2805 Y10.8811
G01 X-22.2962 Y10.7751
G01 X-22.3015 Y10.6680
G01 X-22.2962 Y10.5609
G01 X-22.2805 Y10.4549
G01 X-22.2545 Y10.3509
G01 X-22.2183 Y10.2499
G01 X-22.1725 Y10.1530
G01 X-22.1174 Y10.0610
G01 X-22.0535 Y9.9749
G01 X-21.9815 Y9.8955
G01 X-21.9021 Y9.8235
G01 X-21.8160 Y9.7596
G01 X-21.7270 Y9.7062
G01 X-21.7179 Y9.7014
G01 X-21.6271 Y9.6587
G01 X-21.5261 Y9.6225
G01 X-21.4221 Y9.5965
G01 X-21.3161 Y9.5808
G01 X-21.2090 Y9.5755
G01 X-21.1019 Y9.5808
G01 X-20.9959 Y9.5965
G01 X-20.8952 Y9.6216
G01 X-20.8853 Y9.6247
G01 X-20.7909 Y9.6587
G01 X-20.6940 Y9.7045
G01 X-20.6020 Y9.7596
G01 X-20.5186 Y9.8213
G01 X-20.5107 Y9.8280
G01 X-20.4365 Y9.8955
G01 X-20.3667 Y9.9723
G01 X-20.3603 Y9.9803
G01 X-20.3026 Y10.0582
G01 X-20.2969 Y10.0668
G01 X-20.2642 Y10.1214
G00 Z2.0000
G00 X-20.3173 Y10.2114
G01 F60.00
G01 Z-0.0500
G01 F200.00
G01 X-19.4412 Y10.2114
G01 X-19.4431 Y10.2068
G01 X-19.4448 Y10.2010
G01 X-19.4458 Y10.1949
G01 X-19.4460 Y10.1900
G01 X-19.4460 Y9.3888
G01 X-19.4453 Y9.3815
G01 X-19.4435 Y9.3743
G01 X-19.4407 Y9.3675
G01 X-19.4369 Y9.3612
G01 X-19.4322 Y9.3555
G01 X-19.4268 Y9.3506
G01 X-19.4217 Y9.3471
G01 X-19.4151 Y9.3438
G01 X-19.4058 Y9.3410
G01 X-19.3960 Y9.3400
G01 X-18.8709 Y9.3400
G01 X-18.8408 Y9.3356
G01 X-18.7960 Y9.3334
G01 X-18.7512 Y9.3356
G01 X-18.7211 Y9.3400
G01 X-18.1948 Y9.3400
G01 X-18.1887 Y9.3405
G01 X-18.1827 Y9.3418
G01 X-18.1769 Y9.3438
G01 X-18.1714 Y9.3465
G01 X-18.1662 Y9.3498
G01 X-18.1615 Y9.3538
G01 X-18.1573 Y9.3583
G01 X-18.1531 Y9.3643
G01 X-18.1503 Y9.3697
G01 X-18.1482 Y9.3755
G01 X-18.1467 Y9.3815
G01 X-18.1460 Y9.3888
G01 X-18.1460 Y10.1900
G01 X-18.1464 Y10.1961
G01 X-18.1478 Y10.2033
G01 X-18.1503 Y10.2103
G01 X-18.1544 Y10.2178
G01 X-18.1590 Y10.2236
G01 X-18.1643 Y10.2287
G01 X-18.1703 Y10.2329
G01 X-18.1780 Y10.2366
G01 X-18.1850 Y10.2388
G01 X-18.1899 Y10.2396
G01 X-18.1960 Y10.2400
G01 X-18.3394 Y10.2400
G01 X-18.3394 Y10.5880
G01 X-18.1960 Y10.5880
G01 X-18.1862 Y10.5890
G01 X-18.1792 Y10.5909
G01 X-18.1724 Y10.5939
G01 X-18.1662 Y10.5978
G01 X-18.1606 Y10.6026
G01 X-18.1558 Y10.6082
G01 X-18.1519 Y10.6144
G01 X-18.1489 Y10.6212
G01 X-18.1472 Y10.6270
G01 X-18.1462 Y10.6331
G01 X-18.1460 Y10.6380
G01 X-18.1460 Y11.4380
G01 X-18.1465 Y11.4453
G01 X-18.1478 Y11.4513
G01 X-18.1498 Y11.4571
G01 X-18.1525 Y11.4626
G01 X-18.1558 Y11.4678
G01 X-18.1598 Y11.4725
G01 X-18.1652 Y11.4774
G01 X-18.1703 Y11.4809
G01 X-18.1757 Y11.4837
G01 X-18.1827 Y11.4862
G01 X-18.1887 Y11.4875
G01 X-18.1948 Y11.4880
G01 X-18.7211 Y11.4880
G01 X-18.7512 Y11.4924
G01 X-18.7960 Y11.4946
G01 X-18.8408 Y11.4924
G01 X-18.8709 Y11.4880
G01 X-19.3960 Y11.4880
G01 X-19.4033 Y11.4875
G01 X-19.4117 Y11.4855
G01 X-19.4196 Y11.4821
G01 X-19.4258 Y11.4782
G01 X-19.4322 Y11.4725
G01 X-19.4376 Y11.4658
G01 X-19.4412 Y11.4594
G01 X-19.4442 Y11.4513
G01 X-19.4456 Y11.4441
G01 X-19.4460 Y11.4380
G01 X-19.4460 Y11.1246
G01 X-20.3173 Y11.1246
G01 X-20.3255 Y11.1417
G01 X-20.3769 Y11.2270
G01 X-20.4341 Y11.3040
G01 X-20.5001 Y11.3769
G01 X-20.5750 Y11.4445
G01 X-20.6520 Y11.5015
G01 X-20.7364 Y11.5521
G01 X-20.8276 Y11.5951
G01 X-20.9180 Y11.6273
G01 X-21.0134 Y11.6512
G01 X-21.1132 Y11.6659
G01 X-21.2090 Y11.6705
G01 X-21.3060 Y11.6658
G01 X-21.4046 Y11.6512
G01 X-21.5023 Y11.6266
G01 X-21.5926 Y11.5942
G01 X-21.6794 Y11.5532
G01 X-21.7660 Y11.5015
G01 X-21.8468 Y11.4413
G01 X-21.9179 Y11.3769
G01 X-21.9823 Y11.3058
G01 X-22.0425 Y11.2250
G01 X-22.0931 Y11.1406
G01 X-22.1352 Y11.0516
G01 X-22.1683 Y10.9590
G01 X-22.1922 Y10.8636
G01 X-22.2067 Y10.7663
G01 X-22.2115 Y10.6680
G01 X-22.2067 Y10.5697
G01 X-22.1922 Y10.4724
G01 X-22.1683 Y10.3770
G01 X-22.1352 Y10.2844
G01 X-22.0931 Y10.1954
G01 X-22.0425 Y10.1110
G01 X-21.9839 Y10.0320
G01 X-21.9179 Y9.9591
G01 X-21.8450 Y9.8931
G01 X-21.7660 Y9.8345
G01 X-21.6816 Y9.7839
G01 X-21.5926 Y9.7418
G01 X-21.5000 Y9.7087
G01 X-21.4046 Y9.6848
G01 X-21.3073 Y9.6703
G01 X-21.2090 Y9.6655
G01 X-21.1107 Y9.6703
G01 X-21.0134 Y9.6848
G01 X-20.9180 Y9.7087
G01 X-20.8254 Y9.7418
G01 X-20.7364 Y9.7839
G01 X-20.6520 Y9.8345
G01 X-20.5730 Y9.8931
G01 X-20.5001 Y9.9591
G01 X-20.4341 Y10.0320
G01 X-20.3755 Y10.1110
G01 X-20.3255 Y10.1943
G01 X-20.3173 Y10.2114
G00 Z2.0000
G00 X-21.1484 Y9.4882
G01 F60.00
G01 Z-0.0500
G01 F200.00
G01 X-21.2090 Y9.4855
G01 X-21.2702 Y9.4882
G01 X-21.2607 Y9.4651
G01 X-21.2555 Y9.4495
G01 X-21.2505 Y9.4292
G01 X-21.2485 Y9.4182
G01 X-21.2469 Y9.4071
G01 X-21.2444 Y9.3732
G01 X-21.2441 Y9.3568
G01 X-21.2446 Y9.3458
G01 X-21.2460 Y9.3306
G01 X-21.2475 Y9.3199
G01 X-21.2496 Y9.3088
G01 X-21.2090 Y9.3105
G01 X-21.1683 Y9.3088
G01 X-21.1722 Y9.3354
G01 X-21.1738 Y9.3526
G01 X-21.1739 Y9.3743
G01 X-21.1729 Y9.3917
G01 X-21.1715 Y9.4032
G01 X-21.1670 Y9.4288
G01 X-21.1634 Y9.4459
G01 X-21.1602 Y9.4570
G01 X-21.1565 Y9.4680
G01 X-21.1484 Y9.4882
G00 Z2.0000
G00 X-22.1906 Y7.9257
G01 F60.00
G01 Z-0.0500
G01 F200.00
G01 X-22.3480 Y7.9257
G01 X-22.3371 Y7.8572
G01 X-22.2809 Y7.6840
G01 X-22.1982 Y7.5218
G01 X-22.0912 Y7.3746
G01 X-21.9624 Y7.2458
G01 X-21.8152 Y7.1388
G01 X-21.6530 Y7.0561
G01 X-21.4798 Y6.9999
G01 X-21.4113 Y6.9890
G01 X-21.4113 Y7.1464
G01 X-21.5000 Y7.1687
G01 X-21.5926 Y7.2018
G01 X-21.6816 Y7.2439
G01 X-21.7639 Y7.2931
G01 X-21.8468 Y7.3547
G01 X-21.9179 Y7.4191
G01 X-21.9839 Y7.4920
G01 X-22.0425 Y7.5710
G01 X-22.0942 Y7.6576
G01 X-22.1361 Y7.7466
G01 X-22.1683 Y7.8370
G01 X-22.1906 Y7.9257
G00 Z2.0000
G00 X-21.0067 Y7.1464
G01 F60.00
G01 Z-0.0500
G01 F200.00
G01 X-21.0067 Y6.9890
G01 X-20.9382 Y6.9999
G01 X-20.7650 Y7.0561
G01 X-20.6028 Y7.1388
G01 X-20.4556 Y7.2458
G01 X-20.3268 Y7.3746
G01 X-20.2198 Y7.5218
G01 X-20.1371 Y7.6840
G01 X-20.0809 Y7.8572
G01 X-20.0700 Y7.9257
G01 X-20.2274 Y7.9257
G01 X-20.2497 Y7.8370
G01 X-20.2828 Y7.7444
G01 X-20.3249 Y7.6554
G01 X-20.3741 Y7.5731
G01 X-20.4357 Y7.4902
G01 X-20.5001 Y7.4191
G01 X-20.5730 Y7.3531
G01 X-20.6520 Y7.2945
G01 X-20.7386 Y7.2428
G01 X-20.8276 Y7.2009
G01 X-20.9180 Y7.1687
G01 X-21.0067 Y7.1464
G00 Z2.0000
G00 X-21.1545 Y5.4386
G01 F60.00
G01 Z-0.0500
G01 F200.00
G01 X-21.1086 Y5.4660
G01 X-21.0321 Y5.5023
G01 X-20.9489 Y5.5320
G01 X-20.8667 Y5.5526
G01 X-20.7841 Y5.5649
G01 X-20.6959 Y5.5694
G01 X-20.6077 Y5.5649
G01 X-20.5251 Y5.5526
G01 X-20.4429 Y5.5320
G01 X-20.3597 Y5.5023
G01 X-20.2832 Y5.4660
G01 X-20.2373 Y5.4386
G01 X-20.1245 Y5.5514
G01 X-20.1563 Y5.5744
G01 X-20.3007 Y5.6481
G01 X-20.4548 Y5.6981
G01 X-20.6148 Y5.7235
G01 X-20.7769 Y5.7235
G01 X-20.9370 Y5.6981
G01 X-21.0911 Y5.6481
G01 X-21.2355 Y5.5744
G01 X-21.2673 Y5.5514
G01 X-21.1545 Y5.4386
G00 Z2.0000
G00 X-21.4406 Y5.1525
G01 F60.00
G01 Z-0.0500
G01 F200.00
G01 X-21.5534 Y5.2653
G01 X-21.5764 Y5.2335
G01 X-21.6501 Y5.0891
G01 X-21.7001 Y4.9350
G01 X-21.7255 Y4.7749
G01 X-21.7255 Y4.6128
G01 X-21.7001 Y4.4528
G01 X-21.6501 Y4.2987
G01 X-21.5764 Y4.1543
G01 X-21.5534 Y4.1225
G01 X-21.4406 Y4.2353
G01 X-21.4680 Y4.2812
G01 X-21.5043 Y4.3577
G01 X-21.5340 Y4.4409
G01 X-21.5546 Y4.5231
G01 X-21.5669 Y4.6057
G01 X-21.5714 Y4.6939
G01 X-21.5669 Y4.7821
G01 X-21.5546 Y4.8647
G01 X-21.5340 Y4.9469
G01 X-21.5043 Y5.0301
G01 X-21.4680 Y5.1066
G01 X-21.4406 Y5.1525
G00 Z2.0000
G00 X-19.6641 Y4.4733
G01 F60.00
G01 Z-0.0500
G01 F200.00
G01 X-19.6253 Y4.5121
G01 X-19.6371 Y4.5159
G01 X-19.6552 Y4.5230
G01 X-19.6596 Y4.4935
G01 X-19.6641 Y4.4733
G00 Z2.0000
G00 X-17.5974 Y2.8008
G01 F60.00
G01 Z-0.0500
G01 F200.00
G01 X-17.5705 Y2.8473
G01 X-17.5566 Y2.8993
G01 X-17.5566 Y2.9530
G01 X-17.5705 Y3.0049
G01 X-17.5974 Y3.0514
G01 X-18.0570 Y3.5111
G01 X-18.1660 Y3.4021
G01 X-17.7245 Y2.9606
G01 X-17.7185 Y2.9528
G01 X-17.7155 Y2.9475
G01 X-17.7136 Y2.9429
G01 X-17.7122 Y2.9382
G01 X-17.7111 Y2.9322
G01 X-17.7107 Y2.9273
G01 X-17.7109 Y2.9212
G01 X-17.7125 Y2.9128
G01 X-17.7155 Y2.9047
G01 X-17.7191 Y2.8983
G01 X-17.7245 Y2.8916
G01 X-18.1660 Y2.4501
G01 X-18.0570 Y2.3411
G01 X-17.5974 Y2.8008
G00 Z2.0000
G00 X-18.9013 Y1.5546
G01 F60.00
G01 Z-0.0500
G01 F200.00
G01 X-18.8493 Y1.5685
G01 X-18.8028 Y1.5954
G01 X-18.3431 Y2.0550
G01 X-18.4521 Y2.1640
G01 X-18.8936 Y1.7225
G01 X-18.9003 Y1.7171
G01 X-18.9067 Y1.7135
G01 X-18.9148 Y1.7105
G01 X-18.9232 Y1.7089
G01 X-18.9281 Y1.7087
G01 X-18.9342 Y1.7091
G01 X-18.9391 Y1.7099
G01 X-18.9449 Y1.7116
G01 X-18.9538 Y1.7158
G01 X-18.9579 Y1.7185
G01 X-18.9626 Y1.7225
G01 X-19.4041 Y2.1640
G01 X-19.5131 Y2.0550
G01 X-19.0534 Y1.5954
G01 X-19.0069 Y1.5685
G01 X-18.9550 Y1.5546
G01 X-18.9013 Y1.5546
G00 Z2.0000
G00 X-24.8352 Y7.0699
G01 F60.00
G01 Z-0.0500
G01 F200.00
G01 X-24.7832 Y7.0838
G01 X-24.7367 Y7.1107
G01 X-24.6987 Y7.1487
G01 X-24.6718 Y7.1952
G01 X-24.6579 Y7.2472
G01 X-24.6579 Y7.6717
G01 X-24.8120 Y7.6717
G01 X-24.8120 Y7.2728
G01 X-24.8130 Y7.2642
G01 X-24.8154 Y7.2560
G01 X-24.8198 Y7.2473
G01 X-24.8250 Y7.2404
G01 X-24.8322 Y7.2338
G01 X-24.8406 Y7.2288
G01 X-24.8487 Y7.2258
G01 X-24.8583 Y7.2241
G01 X-25.0597 Y7.2240
G01 X-25.0597 Y7.0699
G01 X-24.8352 Y7.0699
G00 Z2.0000
G00 X-25.4643 Y7.0699
G01 F60.00
G01 Z-0.0500
G01 F200.00
G01 X-25.4643 Y7.2240
G01 X-25.6620 Y7.2240
G01 X-25.6681 Y7.2244
G01 X-25.6741 Y7.2255
G01 X-25.6811 Y7.2278
G01 X-25.6866 Y7.2305
G01 X-25.6928 Y7.2346
G01 X-25.6974 Y7.2386
G01 X-25.7014 Y7.2432
G01 X-25.7049 Y7.2483
G01 X-25.7082 Y7.2549
G01 X-25.7110 Y7.2642
G01 X-25.7120 Y7.2740
G01 X-25.7120 Y7.6717
G01 X-25.8661 Y7.6717
G01 X-25.8661 Y7.2472
G01 X-25.8522 Y7.1952
G01 X-25.8253 Y7.1487
G01 X-25.7873 Y7.1107
G01 X-25.7408 Y7.0838
G01 X-25.6888 Y7.0699
G01 X-25.4643 Y7.0699
G00 Z2.0000
G00 X-25.6657 Y8.6139
G01 F60.00
G01 Z-0.0500
G01 F200.00
G01 X-25.5543 Y8.6140
G01 X-25.5543 Y8.9120
G01 X-25.6654 Y8.9120
G01 X-25.6542 Y8.8993
G01 X-25.6373 Y8.8750
G01 X-25.6302 Y8.8630
G01 X-25.6221 Y8.8455
G01 X-25.6176 Y8.8327
G01 X-25.6097 Y8.8038
G01 X-25.6074 Y8.7901
G01 X-25.6063 Y8.7797
G01 X-25.6059 Y8.7693
G01 X-25.6071 Y8.7414
G01 X-25.6086 Y8.7281
G01 X-25.6128 Y8.7082
G01 X-25.6171 Y8.6947
G01 X-25.6270 Y8.6700
G01 X-25.6348 Y8.6549
G01 X-25.6411 Y8.6445
G01 X-25.6473 Y8.6360
G01 X-25.6657 Y8.6139
G00 Z2.0000
G00 X-25.7399 Y8.6673
G01 F60.00
G01 Z-0.0500
G01 F200.00
G01 X-25.7452 Y8.6629
G01 X-25.7576 Y8.6545
G01 X-25.7873 Y8.6373
G01 X-25.8253 Y8.5993
G01 X-25.8522 Y8.5528
G01 X-25.8661 Y8.5008
G01 X-25.8661 Y8.0763
G01 X-25.7120 Y8.0763
G01 X-25.7120 Y8.4752
G01 X-25.7110 Y8.4838
G01 X-25.7086 Y8.4920
G01 X-25.7042 Y8.5007
G01 X-25.6990 Y8.5076
G01 X-25.6918 Y8.5142
G01 X-25.6834 Y8.5192
G01 X-25.6753 Y8.5222
G01 X-25.6657 Y8.5239
G01 X-25.4643 Y8.5240
G01 X-25.4643 Y9.0020
G01 X-25.6657 Y9.0021
G01 X-25.6753 Y9.0038
G01 X-25.6845 Y9.0073
G01 X-25.6928 Y9.0126
G01 X-25.6990 Y9.0184
G01 X-25.7042 Y9.0253
G01 X-25.7086 Y9.0340
G01 X-25.7110 Y9.0422
G01 X-25.7120 Y9.0508
G01 X-25.7120 Y9.4497
G01 X-25.8661 Y9.4497
G01 X-25.8661 Y9.0252
G01 X-25.8522 Y8.9732
G01 X-25.8253 Y8.9267
G01 X-25.7873 Y8.8887
G01 X-25.7565 Y8.8708
G01 X-25.7378 Y8.8568
G01 X-25.7341 Y8.8536
G01 X-25.7252 Y8.8440
G01 X-25.7183 Y8.8334
G01 X-25.7123 Y8.8252
G01 X-25.7092 Y8.8199
G01 X-25.7046 Y8.8092
G01 X-25.6976 Y8.7848
G01 X-25.6960 Y8.7713
G01 X-25.6971 Y8.7455
G01 X-25.6995 Y8.7325
G01 X-25.7013 Y8.7264
G01 X-25.7054 Y8.7170
G01 X-25.7093 Y8.7063
G01 X-25.7156 Y8.6951
G01 X-25.7192 Y8.6900
G01 X-25.7261 Y8.6823
G01 X-25.7325 Y8.6743
G01 X-25.7358 Y8.6708
G01 X-25.7399 Y8.6673
G00 Z2.0000
G00 X-24.9170 Y8.7397
G01 F60.00
G01 Z-0.0500
G01 F200.00
G01 X-24.9179 Y8.7497
G01 X-24.9181 Y8.7602
G01 X-24.9163 Y8.7913
G01 X-24.9149 Y8.8012
G01 X-24.9129 Y8.8109
G01 X-24.9112 Y8.8178
G01 X-24.9081 Y8.8280
G01 X-24.8970 Y8.8560
G01 X-24.8892 Y8.8711
G01 X-24.8829 Y8.8815
G01 X-24.8767 Y8.8900
G01 X-24.8583 Y8.9121
G01 X-24.9697 Y8.9120
G01 X-24.9697 Y8.6140
G01 X-24.8586 Y8.6140
G01 X-24.8666 Y8.6227
G01 X-24.8748 Y8.6334
G01 X-24.8884 Y8.6537
G01 X-24.8920 Y8.6597
G01 X-24.8968 Y8.6691
G01 X-24.9030 Y8.6834
G01 X-24.9073 Y8.6963
G01 X-24.9144 Y8.7225
G01 X-24.9162 Y8.7327
G01 X-24.9170 Y8.7397
G00 Z2.0000
G00 X-24.8274 Y8.7493
G01 F60.00
G01 Z-0.0500
G01 F200.00
G01 X-24.8281 Y8.7584
G01 X-24.8272 Y8.7695
G01 X-24.8270 Y8.7793
G01 X-24.8263 Y8.7853
G01 X-24.8245 Y8.7935
G01 X-24.8227 Y8.7996
G01 X-24.8186 Y8.8090
G01 X-24.8147 Y8.8197
G01 X-24.8084 Y8.8309
G01 X-24.8048 Y8.8360
G01 X-24.7979 Y8.8437
G01 X-24.7915 Y8.8517
G01 X-24.7865 Y8.8568
G01 X-24.7788 Y8.8631
G01 X-24.7676 Y8.8707
G01 X-24.7367 Y8.8887
G01 X-24.6987 Y8.9267
G01 X-24.6718 Y8.9732
G01 X-24.6579 Y9.0252
G01 X-24.6579 Y9.4497
G01 X-24.8120 Y9.4497
G01 X-24.8120 Y9.0508
G01 X-24.8130 Y9.0422
G01 X-24.8154 Y9.0340
G01 X-24.8198 Y9.0253
G01 X-24.8250 Y9.0184
G01 X-24.8322 Y9.0118
G01 X-24.8406 Y9.0068
G01 X-24.8487 Y9.0038
G01 X-24.8583 Y9.0021
G01 X-25.0597 Y9.0020
G01 X-25.0597 Y8.5240
G01 X-24.8583 Y8.5239
G01 X-24.8487 Y8.5222
G01 X-24.8395 Y8.5187
G01 X-24.8312 Y8.5134
G01 X-24.8250 Y8.5076
G01 X-24.8198 Y8.5007
G01 X-24.8154 Y8.4920
G01 X-24.8130 Y8.4838
G01 X-24.8120 Y8.4752
G01 X-24.8120 Y8.0763
G01 X-24.6579 Y8.0763
G01 X-24.6579 Y8.5008
G01 X-24.6718 Y8.5528
G01 X-24.6987 Y8.5993
G01 X-24.7367 Y8.6373
G01 X-24.7686 Y8.6559
G01 X-24.7872 Y8.6700
G01 X-24.7969 Y8.6796
G01 X-24.8005 Y8.6843
G01 X-24.8057 Y8.6926
G01 X-24.8123 Y8.7017
G01 X-24.8147 Y8.7061
G01 X-24.8181 Y8.7134
G01 X-24.8202 Y8.7190
G01 X-24.8227 Y8.7290
G01 X-24.8258 Y8.7390
G01 X-24.8268 Y8.7438
G01 X-24.8274 Y8.7493
G00 Z2.0000
G00 X-27.5994 Y8.7630
G01 F60.00
G01 Z-0.0500
G01 F200.00
G01 X-27.6197 Y8.7736
G01 X-27.6332 Y8.7816
G01 X-27.6463 Y8.7904
G01 X-27.6589 Y8.7997
G01 X-27.6710 Y8.8097
G01 X-27.6883 Y8.8257
G01 X-27.6991 Y8.8371
G01 X-27.7094 Y8.8490
G01 X-27.7190 Y8.8614
G01 X-27.7281 Y8.8742
G01 X-27.7404 Y8.8943
G01 X-27.7478 Y8.9081
G01 X-27.7545 Y8.9223
G01 X-27.7606 Y8.9368
G01 X-27.7682 Y8.9591
G01 X-27.7724 Y8.9742
G01 X-27.7759 Y8.9896
G01 X-27.7785 Y9.0050
G01 X-27.7805 Y9.0206
G01 X-27.7819 Y9.0441
G01 X-27.7820 Y9.3641
G01 X-27.7906 Y9.3776
G01 X-27.8111 Y9.4118
G01 X-27.8188 Y9.4255
G01 X-27.8259 Y9.4395
G01 X-27.8429 Y9.4756
G01 X-27.8493 Y9.4899
G01 X-27.8549 Y9.5046
G01 X-27.8684 Y9.5422
G01 X-27.8733 Y9.5571
G01 X-27.8775 Y9.5722
G01 X-27.8890 Y9.6186
G01 X-27.8933 Y9.6417
G01 X-27.9002 Y9.6890
G01 X-27.9018 Y9.7046
G01 X-27.9042 Y9.7523
G01 X-27.9046 Y9.7680
G01 X-27.9046 Y9.9414
G01 X-28.5470 Y9.9414
G01 X-28.5977 Y9.8731
G01 X-28.6073 Y9.8607
G01 X-28.6176 Y9.8488
G01 X-28.6804 Y9.7796
G01 X-28.6968 Y9.7627
G01 X-28.7718 Y9.6946
G01 X-28.7837 Y9.6843
G01 X-28.7961 Y9.6747
G01 X-28.8712 Y9.6190
G01 X-28.8840 Y9.6100
G01 X-28.8973 Y9.6016
G01 X-28.9843 Y9.5495
G01 X-29.0052 Y9.5387
G01 X-29.0897 Y9.4987
G01 X-29.1040 Y9.4924
G01 X-29.1187 Y9.4867
G01 X-29.2067 Y9.4552
G01 X-29.2292 Y9.4481
G01 X-29.3274 Y9.4234
G01 X-29.3505 Y9.4185
G01 X-29.4585 Y9.4025
G01 X-29.4819 Y9.4005
G01 X-29.5323 Y9.3980
G01 X-29.4819 Y9.3955
G01 X-29.4585 Y9.3935
G01 X-29.3505 Y9.3775
G01 X-29.3274 Y9.3726
G01 X-29.2368 Y9.3499
G01 X-29.2141 Y9.3433
G01 X-29.1187 Y9.3093
G01 X-29.1040 Y9.3036
G01 X-29.0897 Y9.2973
G01 X-29.0052 Y9.2573
G01 X-28.9911 Y9.2502
G01 X-28.9775 Y9.2425
G01 X-28.8973 Y9.1944
G01 X-28.8776 Y9.1816
G01 X-28.7961 Y9.1213
G01 X-28.7837 Y9.1117
G01 X-28.7718 Y9.1014
G01 X-28.7026 Y9.0386
G01 X-28.6912 Y9.0278
G01 X-28.6804 Y9.0164
G01 X-28.6176 Y8.9472
G01 X-28.6073 Y8.9353
G01 X-28.5977 Y8.9229
G01 X-28.5420 Y8.8478
G01 X-28.5330 Y8.8350
G01 X-28.5246 Y8.8217
G01 X-28.4765 Y8.7415
G01 X-28.4688 Y8.7279
G01 X-28.4617 Y8.7138
G01 X-28.4217 Y8.6293
G01 X-28.4154 Y8.6150
G01 X-28.4098 Y8.6006
G01 X-27.7559 Y8.6006
G01 X-27.7513 Y8.6108
G01 X-27.7442 Y8.6248
G01 X-27.7365 Y8.6385
G01 X-27.7281 Y8.6518
G01 X-27.7143 Y8.6709
G01 X-27.7043 Y8.6830
G01 X-27.6938 Y8.6947
G01 X-27.6827 Y8.7058
G01 X-27.6710 Y8.7163
G01 X-27.6526 Y8.7310
G01 X-27.6398 Y8.7401
G01 X-27.6265 Y8.7485
G01 X-27.6128 Y8.7562
G01 X-27.5994 Y8.7630
G00 Z2.0000
G00 X-27.7528 Y8.7630
G01 F60.00
G01 Z-0.0500
G01 F200.00
G01 X-27.7725 Y8.7842
G01 X-27.7913 Y8.8078
G01 X-27.8084 Y8.8327
G01 X-27.8236 Y8.8587
G01 X-27.8368 Y8.8859
G01 X-27.8480 Y8.9139
G01 X-27.8571 Y8.9426
G01 X-27.8620 Y8.9622
G01 X-27.8660 Y8.9819
G01 X-27.8689 Y9.0018
G01 X-27.8709 Y9.0218
G01 X-27.8719 Y9.0419
G01 X-27.8720 Y9.3384
G01 X-27.8933 Y9.3742
G01 X-27.9028 Y9.3920
G01 X-27.9243 Y9.4371
G01 X-27.9324 Y9.4555
G01 X-27.9397 Y9.4743
G01 X-27.9531 Y9.5118
G01 X-27.9594 Y9.5310
G01 X-27.9648 Y9.5503
G01 X-27.9745 Y9.5891
G01 X-27.9789 Y9.6087
G01 X-27.9824 Y9.6285
G01 X-27.9896 Y9.6780
G01 X-27.9915 Y9.6980
G01 X-27.9945 Y9.7579
G01 X-27.9946 Y9.8514
G01 X-28.5017 Y9.8514
G01 X-28.5315 Y9.8115
G01 X-28.5443 Y9.7959
G01 X-28.6205 Y9.7118
G01 X-28.6421 Y9.6907
G01 X-28.7114 Y9.6279
G01 X-28.7266 Y9.6148
G01 X-28.7425 Y9.6024
G01 X-28.8176 Y9.5467
G01 X-28.8340 Y9.5351
G01 X-28.8510 Y9.5244
G01 X-28.9399 Y9.4712
G01 X-28.9667 Y9.4573
G01 X-29.0512 Y9.4174
G01 X-29.0696 Y9.4092
G01 X-29.0995 Y9.3980
G01 X-29.0789 Y9.3905
G01 X-29.0603 Y9.3828
G01 X-28.9577 Y9.3343
G01 X-28.9312 Y9.3197
G01 X-28.8425 Y9.2664
G01 X-28.8176 Y9.2493
G01 X-28.7425 Y9.1936
G01 X-28.7266 Y9.1812
G01 X-28.7114 Y9.1681
G01 X-28.6348 Y9.0985
G01 X-28.6137 Y9.0769
G01 X-28.5509 Y9.0076
G01 X-28.5378 Y8.9924
G01 X-28.5254 Y8.9765
G01 X-28.4638 Y8.8933
G01 X-28.4474 Y8.8680
G01 X-28.3942 Y8.7791
G01 X-28.3803 Y8.7523
G01 X-28.3512 Y8.6906
G01 X-27.8101 Y8.6906
G01 X-27.7972 Y8.7101
G01 X-27.7852 Y8.7262
G01 X-27.7725 Y8.7418
G01 X-27.7528 Y8.7630
G00 Z2.0000
G00 X-27.8819 Y8.7806
G01 F60.00
G01 Z-0.0500
G01 F200.00
G01 X-27.8909 Y8.7949
G01 X-27.9030 Y8.8163
G01 X-27.9140 Y8.8382
G01 X-27.9239 Y8.8607
G01 X-27.9328 Y8.8836
G01 X-27.9405 Y8.9069
G01 X-27.9470 Y8.9305
G01 X-27.9524 Y8.9545
G01 X-27.9566 Y8.9786
G01 X-27.9596 Y9.0030
G01 X-27.9614 Y9.0275
G01 X-27.9618 Y9.0397
G01 X-27.9620 Y9.3135
G01 X-27.9716 Y9.3299
G01 X-27.9832 Y9.3515
G01 X-28.0056 Y9.3986
G01 X-28.0156 Y9.4211
G01 X-28.0244 Y9.4440
G01 X-28.0379 Y9.4815
G01 X-28.0456 Y9.5048
G01 X-28.0490 Y9.5166
G01 X-28.0618 Y9.5672
G01 X-28.0672 Y9.5911
G01 X-28.0714 Y9.6153
G01 X-28.0772 Y9.6548
G01 X-28.0802 Y9.6791
G01 X-28.0813 Y9.6914
G01 X-28.0840 Y9.7435
G01 X-28.0845 Y9.7614
G01 X-28.4565 Y9.7614
G01 X-28.4682 Y9.7465
G01 X-28.4842 Y9.7280
G01 X-28.5470 Y9.6587
G01 X-28.5639 Y9.6409
G01 X-28.5817 Y9.6240
G01 X-28.6602 Y9.5531
G01 X-28.6791 Y9.5375
G01 X-28.6889 Y9.5301
G01 X-28.7640 Y9.4744
G01 X-28.7840 Y9.4603
G01 X-28.8048 Y9.4472
G01 X-28.8868 Y9.3980
G01 X-28.8048 Y9.3488
G01 X-28.7840 Y9.3357
G01 X-28.7640 Y9.3216
G01 X-28.6889 Y9.2659
G01 X-28.6695 Y9.2508
G01 X-28.6510 Y9.2348
G01 X-28.5817 Y9.1720
G01 X-28.5727 Y9.1636
G01 X-28.5554 Y9.1463
G01 X-28.4842 Y9.0680
G01 X-28.4682 Y9.0495
G01 X-28.4531 Y9.0301
G01 X-28.3902 Y8.9451
G01 X-28.3833 Y8.9350
G01 X-28.3702 Y8.9142
G01 X-28.3221 Y8.8341
G01 X-28.3100 Y8.8127
G01 X-28.2942 Y8.7806
G01 X-27.8819 Y8.7806
G00 Z2.0000
G00 X-28.0234 Y8.8706
G01 F60.00
G01 Z-0.0500
G01 F200.00
G01 X-28.0306 Y8.8946
G01 X-28.0343 Y8.9086
G01 X-28.0407 Y8.9369
G01 X-28.0456 Y8.9654
G01 X-28.0476 Y8.9798
G01 X-28.0504 Y9.0086
G01 X-28.0513 Y9.0231
G01 X-28.0520 Y9.0520
G01 X-28.0520 Y9.2893
G01 X-28.0636 Y9.3111
G01 X-28.0699 Y9.3241
G01 X-28.0870 Y9.3601
G01 X-28.0987 Y9.3866
G01 X-28.1092 Y9.4136
G01 X-28.1226 Y9.4512
G01 X-28.1317 Y9.4787
G01 X-28.1394 Y9.5066
G01 X-28.1491 Y9.5453
G01 X-28.1555 Y9.5736
G01 X-28.1604 Y9.6021
G01 X-28.1663 Y9.6416
G01 X-28.1699 Y9.6714
G01 X-28.4141 Y9.6714
G01 X-28.4803 Y9.5983
G01 X-28.5003 Y9.5773
G01 X-28.5213 Y9.5573
G01 X-28.5905 Y9.4945
G01 X-28.6124 Y9.4756
G01 X-28.6238 Y9.4666
G01 X-28.7161 Y9.3980
G01 X-28.6238 Y9.3294
G01 X-28.6124 Y9.3204
G01 X-28.5905 Y9.3015
G01 X-28.5213 Y9.2387
G01 X-28.5003 Y9.2187
G01 X-28.4803 Y9.1977
G01 X-28.4175 Y9.1285
G01 X-28.3986 Y9.1066
G01 X-28.3896 Y9.0952
G01 X-28.3167 Y8.9969
G01 X-28.3006 Y8.9728
G01 X-28.2930 Y8.9605
G01 X-28.2392 Y8.8706
G01 X-28.0234 Y8.8706
G00 Z2.0000
G00 X-28.1358 Y8.9606
G01 F60.00
G01 Z-0.0500
G01 F200.00
G01 X-28.1387 Y8.9853
G01 X-28.1402 Y9.0020
G01 X-28.1418 Y9.0353
G01 X-28.1420 Y9.2668
G01 X-28.1684 Y9.3217
G01 X-28.1819 Y9.3522
G01 X-28.1939 Y9.3833
G01 X-28.2128 Y9.4367
G01 X-28.2225 Y9.4686
G01 X-28.2364 Y9.5234
G01 X-28.2437 Y9.5560
G01 X-28.2482 Y9.5814
G01 X-28.3741 Y9.5814
G01 X-28.4250 Y9.5256
G01 X-28.4486 Y9.5020
G01 X-28.5301 Y9.4279
G01 X-28.5426 Y9.4168
G01 X-28.5654 Y9.3980
G01 X-28.5426 Y9.3792
G01 X-28.5301 Y9.3681
G01 X-28.4608 Y9.3054
G01 X-28.4366 Y9.2824
G01 X-28.4136 Y9.2582
G01 X-28.3398 Y9.1764
G01 X-28.3291 Y9.1636
G01 X-28.3085 Y9.1373
G01 X-28.2431 Y9.0487
G01 X-28.2245 Y9.0210
G01 X-28.1881 Y8.9606
G01 X-28.1358 Y8.9606
G00 Z2.0000
G00 X-28.2320 Y9.1852
G01 F60.00
G01 Z-0.0500
G01 F200.00
G01 X-28.2320 Y9.2458
G01 X-28.2576 Y9.3004
G01 X-28.2650 Y9.3177
G01 X-28.2786 Y9.3530
G01 X-28.2921 Y9.3906
G01 X-28.3039 Y9.4265
G01 X-28.3092 Y9.4446
G01 X-28.3212 Y9.4914
G01 X-28.3342 Y9.4914
G01 X-28.3598 Y9.4635
G01 X-28.3730 Y9.4500
G01 X-28.4004 Y9.4239
G01 X-28.4290 Y9.3980
G01 X-28.3865 Y9.3592
G01 X-28.3730 Y9.3460
G01 X-28.3469 Y9.3186
G01 X-28.2717 Y9.2352
G01 X-28.2477 Y9.2060
G01 X-28.2320 Y9.1852
G00 Z2.0000
G00 X-29.6497 Y9.3980
G01 F60.00
G01 Z-0.0500
G01 F200.00
G01 X-29.7001 Y9.4005
G01 X-29.7235 Y9.4025
G01 X-29.8238 Y9.4173
G01 X-29.8469 Y9.4216
G01 X-29.9452 Y9.4461
G01 X-29.9604 Y9.4503
G01 X-29.9753 Y9.4552
G01 X-30.0707 Y9.4894
G01 X-30.0923 Y9.4987
G01 X-30.1768 Y9.5387
G01 X-30.1909 Y9.5458
G01 X-30.2045 Y9.5535
G01 X-30.2847 Y9.6016
G01 X-30.2980 Y9.6100
G01 X-30.3108 Y9.6190
G01 X-30.3859 Y9.6747
G01 X-30.4043 Y9.6894
G01 X-30.4794 Y9.7574
G01 X-30.4908 Y9.7682
G01 X-30.5016 Y9.7796
G01 X-30.5644 Y9.8488
G01 X-30.5747 Y9.8607
G01 X-30.5843 Y9.8731
G01 X-30.6400 Y9.9482
G01 X-30.6490 Y9.9610
G01 X-30.6574 Y9.9743
G01 X-30.7055 Y10.0545
G01 X-30.7132 Y10.0681
G01 X-30.7203 Y10.0822
G01 X-30.7635 Y10.1738
G01 X-30.7723 Y10.1957
G01 X-30.8038 Y10.2837
G01 X-30.8087 Y10.2986
G01 X-30.8129 Y10.3138
G01 X-30.8356 Y10.4044
G01 X-30.8405 Y10.4275
G01 X-30.8554 Y10.5277
G01 X-30.8574 Y10.5433
G01 X-30.8585 Y10.5589
G01 X-30.8631 Y10.6523
G01 X-30.8635 Y10.6680
G01 X-30.8631 Y10.6837
G01 X-30.8585 Y10.7771
G01 X-30.8574 Y10.7927
G01 X-30.8554 Y10.8083
G01 X-30.8417 Y10.9008
G01 X-30.8390 Y10.9163
G01 X-30.8356 Y10.9316
G01 X-30.8109 Y11.0298
G01 X-30.8038 Y11.0523
G01 X-30.7723 Y11.1403
G01 X-30.7666 Y11.1550
G01 X-30.7603 Y11.1693
G01 X-30.7203 Y11.2538
G01 X-30.7132 Y11.2679
G01 X-30.7055 Y11.2815
G01 X-30.6574 Y11.3617
G01 X-30.6490 Y11.3750
G01 X-30.6400 Y11.3878
G01 X-30.5796 Y11.4691
G01 X-30.5644 Y11.4872
G01 X-30.5016 Y11.5564
G01 X-30.4908 Y11.5678
G01 X-30.4794 Y11.5786
G01 X-30.4102 Y11.6414
G01 X-30.3983 Y11.6517
G01 X-30.3859 Y11.6613
G01 X-30.3108 Y11.7170
G01 X-30.2980 Y11.7260
G01 X-30.2847 Y11.7344
G01 X-30.2045 Y11.7825
G01 X-30.1839 Y11.7939
G01 X-30.0923 Y11.8373
G01 X-30.0780 Y11.8436
G01 X-30.0633 Y11.8493
G01 X-29.9753 Y11.8808
G01 X-29.9528 Y11.8879
G01 X-29.8546 Y11.9126
G01 X-29.8315 Y11.9175
G01 X-29.7235 Y11.9335
G01 X-29.7001 Y11.9355
G01 X-29.6497 Y11.9380
G01 X-29.7001 Y11.9405
G01 X-29.7235 Y11.9425
G01 X-29.8238 Y11.9573
G01 X-29.8469 Y11.9616
G01 X-29.9452 Y11.9861
G01 X-29.9604 Y11.9903
G01 X-29.9753 Y11.9952
G01 X-30.0707 Y12.0294
G01 X-30.0923 Y12.0387
G01 X-30.1768 Y12.0787
G01 X-30.1909 Y12.0858
G01 X-30.2045 Y12.0935
G01 X-30.2847 Y12.1416
G01 X-30.2980 Y12.1500
G01 X-30.3108 Y12.1590
G01 X-30.3921 Y12.2194
G01 X-30.4102 Y12.2346
G01 X-30.4794 Y12.2974
G01 X-30.4908 Y12.3082
G01 X-30.5016 Y12.3196
G01 X-30.5644 Y12.3888
G01 X-30.5747 Y12.4007
G01 X-30.5843 Y12.4131
G01 X-30.6400 Y12.4882
G01 X-30.6490 Y12.5010
G01 X-30.6574 Y12.5143
G01 X-30.7055 Y12.5945
G01 X-30.7132 Y12.6081
G01 X-30.7203 Y12.6222
G01 X-30.7603 Y12.7067
G01 X-30.7666 Y12.7210
G01 X-30.7723 Y12.7357
G01 X-30.8063 Y12.8311
G01 X-30.8129 Y12.8538
G01 X-30.8356 Y12.9444
G01 X-30.8390 Y12.9597
G01 X-30.8417 Y12.9752
G01 X-30.8554 Y13.0677
G01 X-30.8574 Y13.0833
G01 X-30.8585 Y13.0989
G01 X-30.8631 Y13.1923
G01 X-30.8635 Y13.2080
G01 X-30.8631 Y13.2237
G01 X-30.8585 Y13.3171
G01 X-30.8565 Y13.3405
G01 X-30.8417 Y13.4408
G01 X-30.8390 Y13.4563
G01 X-30.8356 Y13.4716
G01 X-30.8129 Y13.5622
G01 X-30.8087 Y13.5774
G01 X-30.8038 Y13.5923
G01 X-30.7723 Y13.6803
G01 X-30.7666 Y13.6950
G01 X-30.7603 Y13.7093
G01 X-30.7203 Y13.7938
G01 X-30.7132 Y13.8079
G01 X-30.7055 Y13.8215
G01 X-30.6574 Y13.9017
G01 X-30.6446 Y13.9214
G01 X-30.5843 Y14.0029
G01 X-30.5747 Y14.0153
G01 X-30.5644 Y14.0272
G01 X-30.5016 Y14.0964
G01 X-30.4908 Y14.1078
G01 X-30.4794 Y14.1186
G01 X-30.4102 Y14.1814
G01 X-30.3983 Y14.1917
G01 X-30.3859 Y14.2013
G01 X-30.3108 Y14.2570
G01 X-30.2980 Y14.2660
G01 X-30.2847 Y14.2744
G01 X-30.1977 Y14.3265
G01 X-30.1768 Y14.3373
G01 X-30.0923 Y14.3773
G01 X-30.0780 Y14.3836
G01 X-30.0633 Y14.3893
G01 X-29.9753 Y14.4208
G01 X-29.9528 Y14.4279
G01 X-29.8546 Y14.4526
G01 X-29.8315 Y14.4575
G01 X-29.7235 Y14.4735
G01 X-29.7001 Y14.4755
G01 X-29.6497 Y14.4780
G01 X-29.7001 Y14.4805
G01 X-29.7235 Y14.4825
G01 X-29.8315 Y14.4985
G01 X-29.8546 Y14.5034
G01 X-29.9528 Y14.5281
G01 X-29.9753 Y14.5352
G01 X-30.0633 Y14.5667
G01 X-30.0780 Y14.5724
G01 X-30.0923 Y14.5787
G01 X-30.1768 Y14.6187
G01 X-30.1909 Y14.6258
G01 X-30.2045 Y14.6335
G01 X-30.2847 Y14.6816
G01 X-30.2980 Y14.6900
G01 X-30.3108 Y14.6990
G01 X-30.3859 Y14.7547
G01 X-30.3983 Y14.7643
G01 X-30.4102 Y14.7746
G01 X-30.4852 Y14.8427
G01 X-30.5016 Y14.8596
G01 X-30.5644 Y14.9288
G01 X-30.5747 Y14.9407
G01 X-30.5843 Y14.9531
G01 X-30.6350 Y15.0214
G01 X-30.6870 Y15.0214
G01 X-32.2934 Y13.4150
G01 X-32.2935 Y11.4221
G01 X-32.2957 Y11.3744
G01 X-32.2978 Y11.3510
G01 X-32.3059 Y11.2960
G01 X-32.3108 Y11.2729
G01 X-32.3225 Y11.2266
G01 X-32.3296 Y11.2042
G01 X-32.3431 Y11.1666
G01 X-32.3487 Y11.1519
G01 X-32.3551 Y11.1376
G01 X-32.3699 Y11.1062
G01 X-32.3699 Y4.2280
G01 X-31.8400 Y3.6981
G01 X-26.7902 Y3.6981
G01 X-27.4320 Y4.3400
G01 X-27.4563 Y4.3661
G01 X-27.4714 Y4.3842
G01 X-27.4927 Y4.4128
G01 X-27.5055 Y4.4325
G01 X-27.5235 Y4.4633
G01 X-27.5391 Y4.4954
G01 X-27.5455 Y4.5097
G01 X-27.5578 Y4.5432
G01 X-27.5650 Y4.5656
G01 X-27.5718 Y4.5926
G01 X-27.5752 Y4.6079
G01 X-27.5809 Y4.6431
G01 X-27.5835 Y4.6665
G01 X-27.5849 Y4.6943
G01 X-27.5853 Y4.7100
G01 X-27.5853 Y6.9787
G01 X-27.5988 Y6.9847
G01 X-27.6128 Y6.9918
G01 X-27.6265 Y6.9995
G01 X-27.6398 Y7.0079
G01 X-27.6526 Y7.0170
G01 X-27.6650 Y7.0266
G01 X-27.6769 Y7.0369
G01 X-27.6883 Y7.0477
G01 X-27.6991 Y7.0591
G01 X-27.7094 Y7.0710
G01 X-27.7190 Y7.0834
G01 X-27.7281 Y7.0962
G01 X-27.7365 Y7.1095
G01 X-27.7442 Y7.1232
G01 X-27.7513 Y7.1372
G01 X-27.7559 Y7.1474
G01 X-28.7801 Y7.1474
G01 X-28.7961 Y7.1347
G01 X-28.8712 Y7.0790
G01 X-28.8840 Y7.0700
G01 X-28.8973 Y7.0616
G01 X-28.9775 Y7.0135
G01 X-28.9911 Y7.0058
G01 X-29.0052 Y6.9987
G01 X-29.0897 Y6.9587
G01 X-29.1040 Y6.9524
G01 X-29.1187 Y6.9467
G01 X-29.2067 Y6.9152
G01 X-29.2216 Y6.9103
G01 X-29.2368 Y6.9061
G01 X-29.3274 Y6.8834
G01 X-29.3427 Y6.8800
G01 X-29.3582 Y6.8773
G01 X-29.4507 Y6.8636
G01 X-29.4663 Y6.8616
G01 X-29.4819 Y6.8605
G01 X-29.5753 Y6.8559
G01 X-29.5910 Y6.8555
G01 X-29.6067 Y6.8559
G01 X-29.7001 Y6.8605
G01 X-29.7235 Y6.8625
G01 X-29.8238 Y6.8773
G01 X-29.8393 Y6.8800
G01 X-29.8546 Y6.8834
G01 X-29.9452 Y6.9061
G01 X-29.9604 Y6.9103
G01 X-29.9753 Y6.9152
G01 X-30.0633 Y6.9467
G01 X-30.0780 Y6.9524
G01 X-30.0923 Y6.9587
G01 X-30.1768 Y6.9987
G01 X-30.1909 Y7.0058
G01 X-30.2045 Y7.0135
G01 X-30.2847 Y7.0616
G01 X-30.2980 Y7.0700
G01 X-30.3108 Y7.0790
G01 X-30.3859 Y7.1347
G01 X-30.3983 Y7.1443
G01 X-30.4102 Y7.1546
G01 X-30.4794 Y7.2174
G01 X-30.4908 Y7.2282
G01 X-30.5016 Y7.2396
G01 X-30.5644 Y7.3088
G01 X-30.5747 Y7.3207
G01 X-30.5843 Y7.3331
G01 X-30.6400 Y7.4082
G01 X-30.6490 Y7.4210
G01 X-30.6574 Y7.4343
G01 X-30.7055 Y7.5145
G01 X-30.7169 Y7.5351
G01 X-30.7603 Y7.6267
G01 X-30.7666 Y7.6410
G01 X-30.7723 Y7.6557
G01 X-30.8038 Y7.7437
G01 X-30.8087 Y7.7586
G01 X-30.8129 Y7.7738
G01 X-30.8356 Y7.8644
G01 X-30.8390 Y7.8797
G01 X-30.8417 Y7.8952
G01 X-30.8554 Y7.9877
G01 X-30.8574 Y8.0033
G01 X-30.8585 Y8.0189
G01 X-30.8631 Y8.1123
G01 X-30.8635 Y8.1280
G01 X-30.8631 Y8.1437
G01 X-30.8585 Y8.2371
G01 X-30.8574 Y8.2527
G01 X-30.8554 Y8.2683
G01 X-30.8417 Y8.3608
G01 X-30.8390 Y8.3763
G01 X-30.8356 Y8.3916
G01 X-30.8129 Y8.4822
G01 X-30.8087 Y8.4974
G01 X-30.8038 Y8.5123
G01 X-30.7723 Y8.6003
G01 X-30.7666 Y8.6150
G01 X-30.7603 Y8.6293
G01 X-30.7203 Y8.7138
G01 X-30.7095 Y8.7347
G01 X-30.6574 Y8.8217
G01 X-30.6490 Y8.8350
G01 X-30.6400 Y8.8478
G01 X-30.5843 Y8.9229
G01 X-30.5747 Y8.9353
G01 X-30.5644 Y8.9472
G01 X-30.5016 Y9.0164
G01 X-30.4908 Y9.0278
G01 X-30.4794 Y9.0386
G01 X-30.4102 Y9.1014
G01 X-30.3983 Y9.1117
G01 X-30.3859 Y9.1213
G01 X-30.3108 Y9.1770
G01 X-30.2914 Y9.1903
G01 X-30.2045 Y9.2425
G01 X-30.1909 Y9.2502
G01 X-30.1768 Y9.2573
G01 X-30.0923 Y9.2973
G01 X-30.0780 Y9.3036
G01 X-30.0633 Y9.3093
G01 X-29.9679 Y9.3433
G01 X-29.9452 Y9.3499
G01 X-29.8546 Y9.3726
G01 X-29.8315 Y9.3775
G01 X-29.7235 Y9.3935
G01 X-29.7001 Y9.3955
G01 X-29.6497 Y9.3980
G00 Z2.0000
G00 X-30.0825 Y9.3980
G01 F60.00
G01 Z-0.0500
G01 F200.00
G01 X-30.1031 Y9.4055
G01 X-30.1217 Y9.4132
G01 X-30.2153 Y9.4573
G01 X-30.2333 Y9.4664
G01 X-30.2508 Y9.4763
G01 X-30.3310 Y9.5244
G01 X-30.3480 Y9.5351
G01 X-30.3644 Y9.5467
G01 X-30.4395 Y9.6024
G01 X-30.4554 Y9.6148
G01 X-30.4706 Y9.6279
G01 X-30.5472 Y9.6975
G01 X-30.5683 Y9.7191
G01 X-30.6311 Y9.7884
G01 X-30.6442 Y9.8036
G01 X-30.6566 Y9.8195
G01 X-30.7123 Y9.8946
G01 X-30.7239 Y9.9110
G01 X-30.7346 Y9.9280
G01 X-30.7827 Y10.0082
G01 X-30.7926 Y10.0257
G01 X-30.8017 Y10.0437
G01 X-30.8416 Y10.1282
G01 X-30.8498 Y10.1466
G01 X-30.8570 Y10.1654
G01 X-30.8885 Y10.2534
G01 X-30.8948 Y10.2725
G01 X-30.9002 Y10.2919
G01 X-30.9229 Y10.3826
G01 X-30.9273 Y10.4022
G01 X-30.9308 Y10.4220
G01 X-30.9445 Y10.5145
G01 X-30.9469 Y10.5345
G01 X-30.9484 Y10.5545
G01 X-30.9530 Y10.6479
G01 X-30.9535 Y10.6680
G01 X-30.9530 Y10.6881
G01 X-30.9484 Y10.7815
G01 X-30.9458 Y10.8115
G01 X-30.9308 Y10.9140
G01 X-30.9273 Y10.9338
G01 X-30.9229 Y10.9534
G01 X-30.9002 Y11.0441
G01 X-30.8948 Y11.0635
G01 X-30.8885 Y11.0826
G01 X-30.8570 Y11.1706
G01 X-30.8498 Y11.1894
G01 X-30.8416 Y11.2078
G01 X-30.8017 Y11.2923
G01 X-30.7926 Y11.3103
G01 X-30.7827 Y11.3278
G01 X-30.7346 Y11.4080
G01 X-30.7182 Y11.4333
G01 X-30.6566 Y11.5165
G01 X-30.6442 Y11.5324
G01 X-30.6311 Y11.5476
G01 X-30.5683 Y11.6169
G01 X-30.5544 Y11.6314
G01 X-30.5399 Y11.6453
G01 X-30.4706 Y11.7081
G01 X-30.4554 Y11.7212
G01 X-30.4395 Y11.7336
G01 X-30.3644 Y11.7893
G01 X-30.3480 Y11.8009
G01 X-30.3310 Y11.8116
G01 X-30.2421 Y11.8648
G01 X-30.2153 Y11.8787
G01 X-30.1308 Y11.9186
G01 X-30.1124 Y11.9268
G01 X-30.0825 Y11.9380
G01 X-30.1031 Y11.9455
G01 X-30.1217 Y11.9532
G01 X-30.2153 Y11.9973
G01 X-30.2333 Y12.0064
G01 X-30.2508 Y12.0163
G01 X-30.3310 Y12.0644
G01 X-30.3563 Y12.0808
G01 X-30.4395 Y12.1424
G01 X-30.4554 Y12.1548
G01 X-30.4706 Y12.1679
G01 X-30.5399 Y12.2307
G01 X-30.5544 Y12.2446
G01 X-30.5683 Y12.2591
G01 X-30.6311 Y12.3284
G01 X-30.6442 Y12.3436
G01 X-30.6566 Y12.3595
G01 X-30.7123 Y12.4346
G01 X-30.7239 Y12.4510
G01 X-30.7346 Y12.4680
G01 X-30.7827 Y12.5482
G01 X-30.7926 Y12.5657
G01 X-30.8017 Y12.5837
G01 X-30.8416 Y12.6682
G01 X-30.8498 Y12.6866
G01 X-30.8570 Y12.7054
G01 X-30.8885 Y12.7934
G01 X-30.8948 Y12.8125
G01 X-30.9002 Y12.8319
G01 X-30.9229 Y12.9226
G01 X-30.9273 Y12.9422
G01 X-30.9308 Y12.9620
G01 X-30.9445 Y13.0545
G01 X-30.9469 Y13.0745
G01 X-30.9484 Y13.0945
G01 X-30.9530 Y13.1879
G01 X-30.9535 Y13.2080
G01 X-30.9530 Y13.2281
G01 X-30.9484 Y13.3215
G01 X-30.9469 Y13.3415
G01 X-30.9445 Y13.3615
G01 X-30.9308 Y13.4540
G01 X-30.9252 Y13.4837
G01 X-30.9002 Y13.5841
G01 X-30.8948 Y13.6035
G01 X-30.8885 Y13.6226
G01 X-30.8570 Y13.7106
G01 X-30.8498 Y13.7294
G01 X-30.8416 Y13.7478
G01 X-30.8017 Y13.8323
G01 X-30.7926 Y13.8503
G01 X-30.7827 Y13.8678
G01 X-30.7346 Y13.9480
G01 X-30.7239 Y13.9650
G01 X-30.7123 Y13.9814
G01 X-30.6566 Y14.0565
G01 X-30.6442 Y14.0724
G01 X-30.6311 Y14.0876
G01 X-30.5683 Y14.1569
G01 X-30.5544 Y14.1714
G01 X-30.5399 Y14.1853
G01 X-30.4631 Y14.2547
G01 X-30.4395 Y14.2736
G01 X-30.3644 Y14.3293
G01 X-30.3480 Y14.3409
G01 X-30.3310 Y14.3516
G01 X-30.2508 Y14.3997
G01 X-30.2243 Y14.4143
G01 X-30.1308 Y14.4586
G01 X-30.1124 Y14.4668
G01 X-30.0825 Y14.4780
G01 X-30.1124 Y14.4892
G01 X-30.1308 Y14.4974
G01 X-30.2153 Y14.5373
G01 X-30.2421 Y14.5512
G01 X-30.3310 Y14.6044
G01 X-30.3480 Y14.6151
G01 X-30.3644 Y14.6267
G01 X-30.4395 Y14.6824
G01 X-30.4554 Y14.6948
G01 X-30.4706 Y14.7079
G01 X-30.5399 Y14.7707
G01 X-30.5544 Y14.7846
G01 X-30.5683 Y14.7991
G01 X-30.6377 Y14.8759
G01 X-30.6505 Y14.8915
G01 X-30.6673 Y14.9139
G01 X-32.2034 Y13.3778
G01 X-32.2035 Y11.4199
G01 X-32.2065 Y11.3600
G01 X-32.2084 Y11.3400
G01 X-32.2172 Y11.2806
G01 X-32.2212 Y11.2608
G01 X-32.2358 Y11.2026
G01 X-32.2416 Y11.1834
G01 X-32.2618 Y11.1268
G01 X-32.2695 Y11.1083
G01 X-32.2799 Y11.0860
G01 X-32.2799 Y4.2653
G01 X-31.8027 Y3.7881
G01 X-27.0074 Y3.7881
G01 X-27.4957 Y4.2763
G01 X-27.5095 Y4.2909
G01 X-27.5361 Y4.3209
G01 X-27.5604 Y4.3528
G01 X-27.5719 Y4.3693
G01 X-27.5930 Y4.4034
G01 X-27.6075 Y4.4298
G01 X-27.6247 Y4.4661
G01 X-27.6359 Y4.4941
G01 X-27.6489 Y4.5320
G01 X-27.6591 Y4.5707
G01 X-27.6654 Y4.6002
G01 X-27.6712 Y4.6399
G01 X-27.6738 Y4.6700
G01 X-27.6753 Y4.7100
G01 X-27.6753 Y6.9239
G01 X-27.6981 Y6.9388
G01 X-27.7142 Y6.9508
G01 X-27.7373 Y6.9702
G01 X-27.7519 Y6.9841
G01 X-27.7725 Y7.0062
G01 X-27.7852 Y7.0218
G01 X-27.7972 Y7.0379
G01 X-27.8101 Y7.0574
G01 X-28.7492 Y7.0574
G01 X-28.8176 Y7.0067
G01 X-28.8340 Y6.9951
G01 X-28.8510 Y6.9844
G01 X-28.9312 Y6.9363
G01 X-28.9577 Y6.9217
G01 X-29.0512 Y6.8774
G01 X-29.0696 Y6.8692
G01 X-29.0884 Y6.8620
G01 X-29.1764 Y6.8305
G01 X-29.2052 Y6.8214
G01 X-29.3056 Y6.7961
G01 X-29.3252 Y6.7917
G01 X-29.3450 Y6.7882
G01 X-29.4375 Y6.7745
G01 X-29.4575 Y6.7721
G01 X-29.4775 Y6.7706
G01 X-29.5709 Y6.7660
G01 X-29.5910 Y6.7655
G01 X-29.6111 Y6.7660
G01 X-29.7045 Y6.7706
G01 X-29.7245 Y6.7721
G01 X-29.7445 Y6.7745
G01 X-29.8469 Y6.7898
G01 X-29.8764 Y6.7961
G01 X-29.9671 Y6.8188
G01 X-29.9865 Y6.8242
G01 X-30.0056 Y6.8305
G01 X-30.0936 Y6.8620
G01 X-30.1124 Y6.8692
G01 X-30.1308 Y6.8774
G01 X-30.2153 Y6.9173
G01 X-30.2333 Y6.9264
G01 X-30.2508 Y6.9363
G01 X-30.3310 Y6.9844
G01 X-30.3480 Y6.9951
G01 X-30.3644 Y7.0067
G01 X-30.4395 Y7.0624
G01 X-30.4554 Y7.0748
G01 X-30.4706 Y7.0879
G01 X-30.5399 Y7.1507
G01 X-30.5544 Y7.1646
G01 X-30.5683 Y7.1791
G01 X-30.6311 Y7.2484
G01 X-30.6442 Y7.2636
G01 X-30.6566 Y7.2795
G01 X-30.7123 Y7.3546
G01 X-30.7239 Y7.3710
G01 X-30.7346 Y7.3880
G01 X-30.7827 Y7.4682
G01 X-30.7926 Y7.4857
G01 X-30.8017 Y7.5037
G01 X-30.8416 Y7.5882
G01 X-30.8498 Y7.6066
G01 X-30.8570 Y7.6254
G01 X-30.8885 Y7.7134
G01 X-30.8948 Y7.7325
G01 X-30.9002 Y7.7519
G01 X-30.9229 Y7.8426
G01 X-30.9273 Y7.8622
G01 X-30.9308 Y7.8820
G01 X-30.9445 Y7.9745
G01 X-30.9469 Y7.9945
G01 X-30.9484 Y8.0145
G01 X-30.9530 Y8.1079
G01 X-30.9535 Y8.1280
G01 X-30.9530 Y8.1481
G01 X-30.9484 Y8.2415
G01 X-30.9458 Y8.2715
G01 X-30.9308 Y8.3740
G01 X-30.9252 Y8.4037
G01 X-30.8976 Y8.5138
G01 X-30.8885 Y8.5426
G01 X-30.8570 Y8.6306
G01 X-30.8498 Y8.6494
G01 X-30.8416 Y8.6678
G01 X-30.8017 Y8.7523
G01 X-30.7926 Y8.7703
G01 X-30.7827 Y8.7878
G01 X-30.7346 Y8.8680
G01 X-30.7239 Y8.8850
G01 X-30.7123 Y8.9014
G01 X-30.6566 Y8.9765
G01 X-30.6442 Y8.9924
G01 X-30.6311 Y9.0076
G01 X-30.5683 Y9.0769
G01 X-30.5544 Y9.0914
G01 X-30.5399 Y9.1053
G01 X-30.4706 Y9.1681
G01 X-30.4554 Y9.1812
G01 X-30.4395 Y9.1936
G01 X-30.3644 Y9.2493
G01 X-30.3395 Y9.2664
G01 X-30.2508 Y9.3197
G01 X-30.2243 Y9.3343
G01 X-30.1217 Y9.3828
G01 X-30.1031 Y9.3905
G01 X-30.0825 Y9.3980
G00 Z2.0000
G00 X-30.2952 Y9.3980
G01 F60.00
G01 Z-0.0500
G01 F200.00
G01 X-30.3877 Y9.4536
G01 X-30.4081 Y9.4672
G01 X-30.4180 Y9.4744
G01 X-30.4931 Y9.5301
G01 X-30.5125 Y9.5452
G01 X-30.5310 Y9.5612
G01 X-30.6003 Y9.6240
G01 X-30.6181 Y9.6409
G01 X-30.6350 Y9.6587
G01 X-30.6978 Y9.7280
G01 X-30.7138 Y9.7465
G01 X-30.7289 Y9.7659
G01 X-30.7846 Y9.8410
G01 X-30.7987 Y9.8610
G01 X-30.8118 Y9.8818
G01 X-30.8599 Y9.9619
G01 X-30.8720 Y9.9833
G01 X-30.8830 Y10.0052
G01 X-30.9230 Y10.0897
G01 X-30.9329 Y10.1122
G01 X-30.9418 Y10.1350
G01 X-30.9733 Y10.2231
G01 X-30.9810 Y10.2464
G01 X-30.9875 Y10.2700
G01 X-31.0102 Y10.3607
G01 X-31.0156 Y10.3846
G01 X-31.0198 Y10.4088
G01 X-31.0335 Y10.5013
G01 X-31.0352 Y10.5134
G01 X-31.0376 Y10.5379
G01 X-31.0429 Y10.6435
G01 X-31.0435 Y10.6680
G01 X-31.0429 Y10.6925
G01 X-31.0383 Y10.7859
G01 X-31.0365 Y10.8104
G01 X-31.0335 Y10.8347
G01 X-31.0198 Y10.9272
G01 X-31.0156 Y10.9514
G01 X-31.0102 Y10.9753
G01 X-30.9875 Y11.0660
G01 X-30.9810 Y11.0896
G01 X-30.9733 Y11.1129
G01 X-30.9418 Y11.2010
G01 X-30.9329 Y11.2238
G01 X-30.9230 Y11.2463
G01 X-30.8830 Y11.3308
G01 X-30.8720 Y11.3527
G01 X-30.8599 Y11.3741
G01 X-30.8118 Y11.4542
G01 X-30.7987 Y11.4750
G01 X-30.7846 Y11.4950
G01 X-30.7289 Y11.5701
G01 X-30.7138 Y11.5895
G01 X-30.6978 Y11.6080
G01 X-30.6350 Y11.6773
G01 X-30.6181 Y11.6951
G01 X-30.6003 Y11.7120
G01 X-30.5310 Y11.7748
G01 X-30.5125 Y11.7908
G01 X-30.4931 Y11.8059
G01 X-30.4180 Y11.8616
G01 X-30.3980 Y11.8757
G01 X-30.3772 Y11.8888
G01 X-30.2952 Y11.9380
G01 X-30.3877 Y11.9936
G01 X-30.4081 Y12.0072
G01 X-30.4180 Y12.0144
G01 X-30.4931 Y12.0701
G01 X-30.5125 Y12.0852
G01 X-30.5310 Y12.1012
G01 X-30.6003 Y12.1640
G01 X-30.6181 Y12.1809
G01 X-30.6350 Y12.1987
G01 X-30.6978 Y12.2680
G01 X-30.7138 Y12.2865
G01 X-30.7289 Y12.3059
G01 X-30.7846 Y12.3810
G01 X-30.7987 Y12.4010
G01 X-30.8118 Y12.4218
G01 X-30.8599 Y12.5019
G01 X-30.8720 Y12.5233
G01 X-30.8830 Y12.5452
G01 X-30.9230 Y12.6297
G01 X-30.9329 Y12.6522
G01 X-30.9418 Y12.6750
G01 X-30.9733 Y12.7631
G01 X-30.9810 Y12.7864
G01 X-30.9875 Y12.8100
G01 X-31.0102 Y12.9007
G01 X-31.0156 Y12.9246
G01 X-31.0178 Y12.9367
G01 X-31.0352 Y13.0534
G01 X-31.0365 Y13.0656
G01 X-31.0383 Y13.0901
G01 X-31.0429 Y13.1835
G01 X-31.0435 Y13.2080
G01 X-31.0429 Y13.2325
G01 X-31.0383 Y13.3259
G01 X-31.0365 Y13.3504
G01 X-31.0335 Y13.3747
G01 X-31.0198 Y13.4672
G01 X-31.0156 Y13.4914
G01 X-31.0102 Y13.5153
G01 X-30.9875 Y13.6060
G01 X-30.9810 Y13.6296
G01 X-30.9733 Y13.6529
G01 X-30.9418 Y13.7410
G01 X-30.9329 Y13.7638
G01 X-30.9230 Y13.7863
G01 X-30.8830 Y13.8708
G01 X-30.8720 Y13.8927
G01 X-30.8599 Y13.9141
G01 X-30.8118 Y13.9942
G01 X-30.7987 Y14.0150
G01 X-30.7846 Y14.0350
G01 X-30.7289 Y14.1101
G01 X-30.7138 Y14.1295
G01 X-30.6978 Y14.1480
G01 X-30.6350 Y14.2173
G01 X-30.6181 Y14.2351
G01 X-30.6003 Y14.2520
G01 X-30.5310 Y14.3148
G01 X-30.5125 Y14.3308
G01 X-30.4931 Y14.3459
G01 X-30.4180 Y14.4016
G01 X-30.3980 Y14.4157
G01 X-30.3772 Y14.4288
G01 X-30.2952 Y14.4780
G01 X-30.3772 Y14.5272
G01 X-30.3980 Y14.5403
G01 X-30.4180 Y14.5544
G01 X-30.4931 Y14.6101
G01 X-30.5125 Y14.6252
G01 X-30.5310 Y14.6412
G01 X-30.6093 Y14.7124
G01 X-30.6266 Y14.7297
G01 X-30.6731 Y14.7808
G01 X-32.1134 Y13.3405
G01 X-32.1135 Y11.4177
G01 X-32.1167 Y11.3534
G01 X-32.1191 Y11.3289
G01 X-32.1286 Y11.2652
G01 X-32.1334 Y11.2411
G01 X-32.1490 Y11.1786
G01 X-32.1561 Y11.1551
G01 X-32.1779 Y11.0945
G01 X-32.1899 Y11.0660
G01 X-32.1899 Y4.3026
G01 X-31.7654 Y3.8781
G01 X-27.2247 Y3.8781
G01 X-27.5593 Y4.2127
G01 X-27.5762 Y4.2305
G01 X-27.5978 Y4.2544
G01 X-27.6057 Y4.2638
G01 X-27.6208 Y4.2832
G01 X-27.6398 Y4.3091
G01 X-27.6468 Y4.3193
G01 X-27.6535 Y4.3296
G01 X-27.6702 Y4.3571
G01 X-27.6823 Y4.3785
G01 X-27.6879 Y4.3894
G01 X-27.7069 Y4.4296
G01 X-27.7163 Y4.4523
G01 X-27.7206 Y4.4638
G01 X-27.7313 Y4.4941
G01 X-27.7350 Y4.5058
G01 X-27.7416 Y4.5295
G01 X-27.7492 Y4.5608
G01 X-27.7518 Y4.5728
G01 X-27.7540 Y4.5849
G01 X-27.7589 Y4.6167
G01 X-27.7619 Y4.6411
G01 X-27.7630 Y4.6533
G01 X-27.7647 Y4.6855
G01 X-27.7653 Y4.7100
G01 X-27.7653 Y6.8765
G01 X-27.7886 Y6.8954
G01 X-27.7978 Y6.9035
G01 X-27.8156 Y6.9204
G01 X-27.8241 Y6.9292
G01 X-27.8406 Y6.9474
G01 X-27.8569 Y6.9674
G01 X-28.7195 Y6.9674
G01 X-28.7739 Y6.9272
G01 X-28.7943 Y6.9136
G01 X-28.8955 Y6.8529
G01 X-28.9172 Y6.8414
G01 X-28.9282 Y6.8360
G01 X-29.0239 Y6.7909
G01 X-29.0352 Y6.7861
G01 X-29.0580 Y6.7772
G01 X-29.1461 Y6.7457
G01 X-29.1694 Y6.7380
G01 X-29.1930 Y6.7315
G01 X-29.2956 Y6.7060
G01 X-29.3197 Y6.7012
G01 X-29.3318 Y6.6992
G01 X-29.4243 Y6.6855
G01 X-29.4486 Y6.6825
G01 X-29.4731 Y6.6807
G01 X-29.5665 Y6.6761
G01 X-29.5910 Y6.6755
G01 X-29.6155 Y6.6761
G01 X-29.7089 Y6.6807
G01 X-29.7334 Y6.6825
G01 X-29.7577 Y6.6855
G01 X-29.8502 Y6.6992
G01 X-29.8744 Y6.7034
G01 X-29.8983 Y6.7088
G01 X-29.9890 Y6.7315
G01 X-30.0126 Y6.7380
G01 X-30.0359 Y6.7457
G01 X-30.1240 Y6.7772
G01 X-30.1468 Y6.7861
G01 X-30.1693 Y6.7960
G01 X-30.2538 Y6.8360
G01 X-30.2757 Y6.8470
G01 X-30.2971 Y6.8591
G01 X-30.3772 Y6.9072
G01 X-30.3980 Y6.9203
G01 X-30.4081 Y6.9272
G01 X-30.5029 Y6.9975
G01 X-30.5125 Y7.0052
G01 X-30.5310 Y7.0212
G01 X-30.6003 Y7.0840
G01 X-30.6181 Y7.1009
G01 X-30.6350 Y7.1187
G01 X-30.6978 Y7.1880
G01 X-30.7138 Y7.2065
G01 X-30.7215 Y7.2161
G01 X-30.7918 Y7.3109
G01 X-30.8054 Y7.3313
G01 X-30.8118 Y7.3418
G01 X-30.8661 Y7.4325
G01 X-30.8720 Y7.4433
G01 X-30.8830 Y7.4652
G01 X-30.9230 Y7.5497
G01 X-30.9329 Y7.5722
G01 X-30.9418 Y7.5950
G01 X-30.9733 Y7.6831
G01 X-30.9810 Y7.7064
G01 X-30.9875 Y7.7300
G01 X-31.0102 Y7.8207
G01 X-31.0156 Y7.8446
G01 X-31.0198 Y7.8688
G01 X-31.0335 Y7.9613
G01 X-31.0365 Y7.9856
G01 X-31.0383 Y8.0101
G01 X-31.0429 Y8.1035
G01 X-31.0435 Y8.1280
G01 X-31.0429 Y8.1525
G01 X-31.0383 Y8.2459
G01 X-31.0365 Y8.2704
G01 X-31.0335 Y8.2947
G01 X-31.0198 Y8.3872
G01 X-31.0156 Y8.4114
G01 X-31.0102 Y8.4353
G01 X-30.9875 Y8.5260
G01 X-30.9810 Y8.5496
G01 X-30.9733 Y8.5729
G01 X-30.9418 Y8.6610
G01 X-30.9329 Y8.6838
G01 X-30.9230 Y8.7063
G01 X-30.8830 Y8.7908
G01 X-30.8720 Y8.8127
G01 X-30.8599 Y8.8341
G01 X-30.8118 Y8.9142
G01 X-30.7987 Y8.9350
G01 X-30.7846 Y8.9550
G01 X-30.7289 Y9.0301
G01 X-30.7138 Y9.0495
G01 X-30.6978 Y9.0680
G01 X-30.6350 Y9.1373
G01 X-30.6181 Y9.1551
G01 X-30.6003 Y9.1720
G01 X-30.5310 Y9.2348
G01 X-30.5125 Y9.2508
G01 X-30.4931 Y9.2659
G01 X-30.4180 Y9.3216
G01 X-30.3980 Y9.3357
G01 X-30.3772 Y9.3488
G01 X-30.2952 Y9.3980
G00 Z2.0000
G00 X-30.4659 Y9.3980
G01 F60.00
G01 Z-0.0500
G01 F200.00
G01 X-30.5582 Y9.4666
G01 X-30.5696 Y9.4756
G01 X-30.5915 Y9.4945
G01 X-30.6607 Y9.5573
G01 X-30.6817 Y9.5773
G01 X-30.7017 Y9.5983
G01 X-30.7645 Y9.6675
G01 X-30.7834 Y9.6894
G01 X-30.8012 Y9.7123
G01 X-30.8569 Y9.7874
G01 X-30.8735 Y9.8110
G01 X-30.8890 Y9.8355
G01 X-30.9371 Y9.9157
G01 X-30.9514 Y9.9409
G01 X-30.9644 Y9.9667
G01 X-31.0043 Y10.0512
G01 X-31.0161 Y10.0777
G01 X-31.0265 Y10.1047
G01 X-31.0580 Y10.1927
G01 X-31.0671 Y10.2202
G01 X-31.0748 Y10.2481
G01 X-31.0975 Y10.3388
G01 X-31.1039 Y10.3671
G01 X-31.1088 Y10.3956
G01 X-31.1225 Y10.4881
G01 X-31.1261 Y10.5168
G01 X-31.1273 Y10.5312
G01 X-31.1328 Y10.6391
G01 X-31.1335 Y10.6680
G01 X-31.1328 Y10.6969
G01 X-31.1282 Y10.7903
G01 X-31.1261 Y10.8192
G01 X-31.1225 Y10.8479
G01 X-31.1088 Y10.9404
G01 X-31.1039 Y10.9689
G01 X-31.1009 Y10.9831
G01 X-31.0711 Y11.1019
G01 X-31.0627 Y11.1296
G01 X-31.0580 Y11.1433
G01 X-31.0265 Y11.2313
G01 X-31.0161 Y11.2583
G01 X-31.0043 Y11.2848
G01 X-30.9580 Y11.3823
G01 X-30.9444 Y11.4078
G01 X-30.9371 Y11.4203
G01 X-30.8890 Y11.5005
G01 X-30.8735 Y11.5250
G01 X-30.8569 Y11.5486
G01 X-30.8012 Y11.6237
G01 X-30.7834 Y11.6466
G01 X-30.7645 Y11.6685
G01 X-30.7017 Y11.7377
G01 X-30.6817 Y11.7587
G01 X-30.6607 Y11.7787
G01 X-30.5915 Y11.8415
G01 X-30.5696 Y11.8604
G01 X-30.5582 Y11.8694
G01 X-30.4659 Y11.9380
G01 X-30.5467 Y11.9978
G01 X-30.5696 Y12.0156
G01 X-30.5806 Y12.0250
G01 X-30.6713 Y12.1072
G01 X-30.6918 Y12.1277
G01 X-30.7017 Y12.1383
G01 X-30.7740 Y12.2184
G01 X-30.7924 Y12.2408
G01 X-30.8012 Y12.2523
G01 X-30.8569 Y12.3274
G01 X-30.8735 Y12.3510
G01 X-30.8890 Y12.3755
G01 X-30.9371 Y12.4557
G01 X-30.9514 Y12.4809
G01 X-30.9644 Y12.5067
G01 X-31.0043 Y12.5912
G01 X-31.0161 Y12.6177
G01 X-31.0265 Y12.6447
G01 X-31.0580 Y12.7327
G01 X-31.0671 Y12.7602
G01 X-31.0748 Y12.7881
G01 X-31.0975 Y12.8788
G01 X-31.1039 Y12.9071
G01 X-31.1088 Y12.9356
G01 X-31.1225 Y13.0281
G01 X-31.1261 Y13.0568
G01 X-31.1273 Y13.0712
G01 X-31.1328 Y13.1791
G01 X-31.1335 Y13.2080
G01 X-31.1328 Y13.2369
G01 X-31.1282 Y13.3303
G01 X-31.1261 Y13.3592
G01 X-31.1245 Y13.3736
G01 X-31.1065 Y13.4947
G01 X-31.1039 Y13.5089
G01 X-31.0975 Y13.5372
G01 X-31.0748 Y13.6279
G01 X-31.0671 Y13.6558
G01 X-31.0580 Y13.6833
G01 X-31.0265 Y13.7713
G01 X-31.0161 Y13.7983
G01 X-31.0043 Y13.8248
G01 X-30.9644 Y13.9093
G01 X-30.9514 Y13.9351
G01 X-30.9371 Y13.9603
G01 X-30.8890 Y14.0405
G01 X-30.8735 Y14.0650
G01 X-30.8569 Y14.0886
G01 X-30.8012 Y14.1637
G01 X-30.7834 Y14.1866
G01 X-30.7645 Y14.2085
G01 X-30.7017 Y14.2777
G01 X-30.6817 Y14.2987
G01 X-30.6607 Y14.3187
G01 X-30.5915 Y14.3815
G01 X-30.5696 Y14.4004
G01 X-30.5467 Y14.4182
G01 X-30.4659 Y14.4780
G01 X-30.5467 Y14.5378
G01 X-30.5696 Y14.5556
G01 X-30.5915 Y14.5745
G01 X-30.6607 Y14.6373
G01 X-30.6754 Y14.6512
G01 X-32.0234 Y13.3032
G01 X-32.0236 Y11.4155
G01 X-32.0261 Y11.3612
G01 X-32.0282 Y11.3323
G01 X-32.0317 Y11.3036
G01 X-32.0376 Y11.2641
G01 X-32.0425 Y11.2356
G01 X-32.0489 Y11.2073
G01 X-32.0586 Y11.1686
G01 X-32.0663 Y11.1407
G01 X-32.0754 Y11.1132
G01 X-32.0888 Y11.0756
G01 X-32.0999 Y11.0471
G01 X-32.0999 Y4.3399
G01 X-31.7281 Y3.9681
G01 X-27.4420 Y3.9681
G01 X-27.6229 Y4.1491
G01 X-27.6429 Y4.1700
G01 X-27.6659 Y4.1957
G01 X-27.6843 Y4.2180
G01 X-27.7049 Y4.2456
G01 X-27.7216 Y4.2693
G01 X-27.7295 Y4.2814
G01 X-27.7474 Y4.3108
G01 X-27.7616 Y4.3360
G01 X-27.7683 Y4.3489
G01 X-27.7832 Y4.3799
G01 X-27.7949 Y4.4064
G01 X-27.8003 Y4.4199
G01 X-27.8168 Y4.4659
G01 X-27.8252 Y4.4936
G01 X-27.8371 Y4.5411
G01 X-27.8401 Y4.5552
G01 X-27.8450 Y4.5838
G01 X-27.8499 Y4.6179
G01 X-27.8527 Y4.6467
G01 X-27.8546 Y4.6811
G01 X-27.8553 Y4.7100
G01 X-27.8553 Y6.8343
G01 X-27.8792 Y6.8568
G01 X-27.8988 Y6.8774
G01 X-28.6898 Y6.8774
G01 X-28.7221 Y6.8537
G01 X-28.7462 Y6.8376
G01 X-28.8512 Y6.7746
G01 X-28.8639 Y6.7676
G01 X-28.8897 Y6.7546
G01 X-28.9874 Y6.7086
G01 X-29.0142 Y6.6975
G01 X-29.0277 Y6.6925
G01 X-29.1157 Y6.6610
G01 X-29.1432 Y6.6519
G01 X-29.1711 Y6.6442
G01 X-29.2759 Y6.6181
G01 X-29.3043 Y6.6125
G01 X-29.3186 Y6.6102
G01 X-29.4111 Y6.5965
G01 X-29.4398 Y6.5929
G01 X-29.4687 Y6.5908
G01 X-29.5621 Y6.5862
G01 X-29.5910 Y6.5855
G01 X-29.6199 Y6.5862
G01 X-29.7133 Y6.5908
G01 X-29.7422 Y6.5929
G01 X-29.7709 Y6.5965
G01 X-29.8777 Y6.6125
G01 X-29.8919 Y6.6151
G01 X-29.9202 Y6.6215
G01 X-30.0109 Y6.6442
G01 X-30.0388 Y6.6519
G01 X-30.0663 Y6.6610
G01 X-30.1543 Y6.6925
G01 X-30.1813 Y6.7029
G01 X-30.2078 Y6.7147
G01 X-30.2923 Y6.7546
G01 X-30.3181 Y6.7676
G01 X-30.3433 Y6.7819
G01 X-30.4235 Y6.8300
G01 X-30.4480 Y6.8455
G01 X-30.4716 Y6.8621
G01 X-30.5582 Y6.9266
G01 X-30.5806 Y6.9450
G01 X-30.5915 Y6.9545
G01 X-30.6607 Y7.0173
G01 X-30.6817 Y7.0373
G01 X-30.7017 Y7.0583
G01 X-30.7645 Y7.1275
G01 X-30.7740 Y7.1384
G01 X-30.7924 Y7.1608
G01 X-30.8653 Y7.2591
G01 X-30.8814 Y7.2832
G01 X-30.8890 Y7.2955
G01 X-30.9444 Y7.3882
G01 X-30.9514 Y7.4009
G01 X-30.9644 Y7.4267
G01 X-31.0043 Y7.5112
G01 X-31.0161 Y7.5377
G01 X-31.0265 Y7.5647
G01 X-31.0627 Y7.6664
G01 X-31.0671 Y7.6802
G01 X-31.0748 Y7.7081
G01 X-31.1009 Y7.8129
G01 X-31.1065 Y7.8413
G01 X-31.1088 Y7.8556
G01 X-31.1225 Y7.9481
G01 X-31.1261 Y7.9768
G01 X-31.1273 Y7.9912
G01 X-31.1333 Y8.1135
G01 X-31.1335 Y8.1280
G01 X-31.1328 Y8.1569
G01 X-31.1282 Y8.2503
G01 X-31.1261 Y8.2792
G01 X-31.1245 Y8.2936
G01 X-31.1088 Y8.4004
G01 X-31.1039 Y8.4289
G01 X-31.0975 Y8.4572
G01 X-31.0748 Y8.5479
G01 X-31.0671 Y8.5758
G01 X-31.0580 Y8.6033
G01 X-31.0265 Y8.6913
G01 X-31.0161 Y8.7183
G01 X-31.0043 Y8.7448
G01 X-30.9644 Y8.8293
G01 X-30.9514 Y8.8551
G01 X-30.9371 Y8.8803
G01 X-30.8890 Y8.9605
G01 X-30.8735 Y8.9850
G01 X-30.8569 Y9.0086
G01 X-30.8012 Y9.0837
G01 X-30.7834 Y9.1066
G01 X-30.7645 Y9.1285
G01 X-30.7017 Y9.1977
G01 X-30.6817 Y9.2187
G01 X-30.6607 Y9.2387
G01 X-30.5915 Y9.3015
G01 X-30.5696 Y9.3204
G01 X-30.5467 Y9.3382
G01 X-30.4659 Y9.3980
G00 Z2.0000
G00 X-30.6166 Y9.3980
G01 F60.00
G01 Z-0.0500
G01 F200.00
G01 X-30.6394 Y9.4168
G01 X-30.6519 Y9.4279
G01 X-30.7212 Y9.4906
G01 X-30.7454 Y9.5136
G01 X-30.7684 Y9.5378
G01 X-30.8311 Y9.6071
G01 X-30.8529 Y9.6324
G01 X-30.8735 Y9.6587
G01 X-30.9292 Y9.7337
G01 X-30.9484 Y9.7610
G01 X-30.9662 Y9.7892
G01 X-31.0227 Y9.8838
G01 X-31.0384 Y9.9133
G01 X-31.0457 Y9.9283
G01 X-31.0927 Y10.0279
G01 X-31.0992 Y10.0433
G01 X-31.1112 Y10.0744
G01 X-31.1427 Y10.1624
G01 X-31.1532 Y10.1941
G01 X-31.1621 Y10.2263
G01 X-31.1848 Y10.3169
G01 X-31.1921 Y10.3495
G01 X-31.1952 Y10.3659
G01 X-31.2116 Y10.4749
G01 X-31.2156 Y10.5080
G01 X-31.2181 Y10.5413
G01 X-31.2227 Y10.6346
G01 X-31.2235 Y10.6680
G01 X-31.2227 Y10.7014
G01 X-31.2181 Y10.7947
G01 X-31.2156 Y10.8280
G01 X-31.2116 Y10.8611
G01 X-31.1952 Y10.9701
G01 X-31.1921 Y10.9865
G01 X-31.1848 Y11.0191
G01 X-31.1579 Y11.1259
G01 X-31.1532 Y11.1419
G01 X-31.1427 Y11.1736
G01 X-31.1112 Y11.2616
G01 X-31.0992 Y11.2927
G01 X-31.0857 Y11.3232
G01 X-31.0457 Y11.4077
G01 X-31.0384 Y11.4227
G01 X-31.0227 Y11.4522
G01 X-30.9662 Y11.5468
G01 X-30.9484 Y11.5750
G01 X-30.9292 Y11.6023
G01 X-30.8735 Y11.6773
G01 X-30.8529 Y11.7036
G01 X-30.8311 Y11.7289
G01 X-30.7684 Y11.7982
G01 X-30.7454 Y11.8224
G01 X-30.7212 Y11.8454
G01 X-30.6519 Y11.9081
G01 X-30.6394 Y11.9192
G01 X-30.6166 Y11.9380
G01 X-30.6394 Y11.9568
G01 X-30.6519 Y11.9679
G01 X-30.7212 Y12.0306
G01 X-30.7454 Y12.0536
G01 X-30.7684 Y12.0778
G01 X-30.8311 Y12.1471
G01 X-30.8529 Y12.1724
G01 X-30.8735 Y12.1987
G01 X-30.9292 Y12.2737
G01 X-30.9484 Y12.3010
G01 X-30.9662 Y12.3292
G01 X-31.0227 Y12.4238
G01 X-31.0384 Y12.4533
G01 X-31.0457 Y12.4683
G01 X-31.0927 Y12.5679
G01 X-31.0992 Y12.5833
G01 X-31.1112 Y12.6144
G01 X-31.1427 Y12.7024
G01 X-31.1532 Y12.7341
G01 X-31.1621 Y12.7663
G01 X-31.1848 Y12.8569
G01 X-31.1921 Y12.8895
G01 X-31.1952 Y12.9059
G01 X-31.2138 Y13.0314
G01 X-31.2156 Y13.0480
G01 X-31.2181 Y13.0813
G01 X-31.2233 Y13.1913
G01 X-31.2233 Y13.2247
G01 X-31.2227 Y13.2414
G01 X-31.2181 Y13.3347
G01 X-31.2156 Y13.3680
G01 X-31.2116 Y13.4011
G01 X-31.1978 Y13.4936
G01 X-31.1921 Y13.5265
G01 X-31.1848 Y13.5591
G01 X-31.1621 Y13.6497
G01 X-31.1532 Y13.6819
G01 X-31.1427 Y13.7136
G01 X-31.1112 Y13.8016
G01 X-31.0992 Y13.8327
G01 X-31.0857 Y13.8632
G01 X-31.0384 Y13.9627
G01 X-31.0227 Y13.9922
G01 X-31.0143 Y14.0066
G01 X-30.9662 Y14.0868
G01 X-30.9484 Y14.1150
G01 X-30.9292 Y14.1423
G01 X-30.8735 Y14.2173
G01 X-30.8529 Y14.2436
G01 X-30.8422 Y14.2564
G01 X-30.7684 Y14.3382
G01 X-30.7454 Y14.3624
G01 X-30.7212 Y14.3854
G01 X-30.6519 Y14.4481
G01 X-30.6394 Y14.4592
G01 X-30.6166 Y14.4780
G01 X-30.6394 Y14.4968
G01 X-30.6727 Y14.5267
G01 X-31.9334 Y13.2659
G01 X-31.9336 Y11.4133
G01 X-31.9362 Y11.3568
G01 X-31.9386 Y11.3235
G01 X-31.9427 Y11.2904
G01 X-31.9486 Y11.2509
G01 X-31.9543 Y11.2180
G01 X-31.9616 Y11.1854
G01 X-31.9713 Y11.1467
G01 X-31.9802 Y11.1146
G01 X-31.9907 Y11.0829
G01 X-32.0099 Y11.0297
G01 X-32.0099 Y4.3772
G01 X-31.6908 Y4.0581
G01 X-27.6593 Y4.0581
G01 X-27.6982 Y4.0974
G01 X-27.7230 Y4.1244
G01 X-27.7448 Y4.1496
G01 X-27.7653 Y4.1760
G01 X-27.7870 Y4.2055
G01 X-27.8055 Y4.2333
G01 X-27.8330 Y4.2790
G01 X-27.8487 Y4.3084
G01 X-27.8645 Y4.3415
G01 X-27.8781 Y4.3720
G01 X-27.8901 Y4.4031
G01 X-27.9022 Y4.4377
G01 X-27.9073 Y4.4536
G01 X-27.9162 Y4.4858
G01 X-27.9249 Y4.5213
G01 X-27.9283 Y4.5377
G01 X-27.9314 Y4.5541
G01 X-27.9370 Y4.5903
G01 X-27.9410 Y4.6234
G01 X-27.9425 Y4.6400
G01 X-27.9445 Y4.6766
G01 X-27.9453 Y4.7100
G01 X-27.9453 Y6.7874
G01 X-28.6601 Y6.7874
G01 X-28.6840 Y6.7706
G01 X-28.6980 Y6.7615
G01 X-28.8068 Y6.6963
G01 X-28.8214 Y6.6883
G01 X-28.8513 Y6.6733
G01 X-28.9509 Y6.6263
G01 X-28.9818 Y6.6136
G01 X-28.9974 Y6.6078
G01 X-29.0854 Y6.5763
G01 X-29.1171 Y6.5658
G01 X-29.1493 Y6.5569
G01 X-29.2562 Y6.5303
G01 X-29.2725 Y6.5269
G01 X-29.3054 Y6.5212
G01 X-29.3979 Y6.5074
G01 X-29.4310 Y6.5034
G01 X-29.4643 Y6.5009
G01 X-29.5576 Y6.4963
G01 X-29.5910 Y6.4955
G01 X-29.6244 Y6.4963
G01 X-29.7177 Y6.5009
G01 X-29.7510 Y6.5034
G01 X-29.7841 Y6.5074
G01 X-29.8931 Y6.5238
G01 X-29.9258 Y6.5303
G01 X-29.9421 Y6.5342
G01 X-30.0327 Y6.5569
G01 X-30.0649 Y6.5658
G01 X-30.0966 Y6.5763
G01 X-30.1846 Y6.6078
G01 X-30.2157 Y6.6198
G01 X-30.2462 Y6.6333
G01 X-30.3307 Y6.6733
G01 X-30.3606 Y6.6883
G01 X-30.3896 Y6.7047
G01 X-30.4840 Y6.7615
G01 X-30.4980 Y6.7706
G01 X-30.5253 Y6.7898
G01 X-30.6136 Y6.8556
G01 X-30.6394 Y6.8768
G01 X-30.6519 Y6.8879
G01 X-30.7212 Y6.9506
G01 X-30.7454 Y6.9736
G01 X-30.7684 Y6.9978
G01 X-30.8311 Y7.0671
G01 X-30.8422 Y7.0796
G01 X-30.8634 Y7.1054
G01 X-30.9389 Y7.2073
G01 X-30.9484 Y7.2210
G01 X-30.9662 Y7.2492
G01 X-31.0227 Y7.3438
G01 X-31.0384 Y7.3733
G01 X-31.0457 Y7.3883
G01 X-31.0927 Y7.4879
G01 X-31.1054 Y7.5188
G01 X-31.1427 Y7.6224
G01 X-31.1532 Y7.6541
G01 X-31.1621 Y7.6863
G01 X-31.1887 Y7.7932
G01 X-31.1952 Y7.8259
G01 X-31.1978 Y7.8424
G01 X-31.2116 Y7.9349
G01 X-31.2156 Y7.9680
G01 X-31.2181 Y8.0013
G01 X-31.2227 Y8.0946
G01 X-31.2235 Y8.1280
G01 X-31.2227 Y8.1614
G01 X-31.2181 Y8.2547
G01 X-31.2156 Y8.2880
G01 X-31.2116 Y8.3211
G01 X-31.1978 Y8.4136
G01 X-31.1921 Y8.4465
G01 X-31.1848 Y8.4791
G01 X-31.1621 Y8.5697
G01 X-31.1532 Y8.6019
G01 X-31.1427 Y8.6336
G01 X-31.1112 Y8.7216
G01 X-31.0992 Y8.7527
G01 X-31.0857 Y8.7832
G01 X-31.0457 Y8.8677
G01 X-31.0307 Y8.8976
G01 X-31.0143 Y8.9266
G01 X-30.9662 Y9.0068
G01 X-30.9484 Y9.0350
G01 X-30.9389 Y9.0487
G01 X-30.8735 Y9.1373
G01 X-30.8529 Y9.1636
G01 X-30.8311 Y9.1889
G01 X-30.7570 Y9.2704
G01 X-30.7334 Y9.2940
G01 X-30.6519 Y9.3681
G01 X-30.6394 Y9.3792
G01 X-30.6166 Y9.3980
G00 Z2.0000
G00 X-30.7530 Y9.3980
G01 F60.00
G01 Z-0.0500
G01 F200.00
G01 X-30.7955 Y9.4368
G01 X-30.8222 Y9.4635
G01 X-30.8978 Y9.5466
G01 X-30.9103 Y9.5608
G01 X-30.9343 Y9.5900
G01 X-31.0014 Y9.6801
G01 X-31.0232 Y9.7110
G01 X-31.0434 Y9.7430
G01 X-31.0915 Y9.8231
G01 X-31.1010 Y9.8395
G01 X-31.1188 Y9.8728
G01 X-31.1671 Y9.9743
G01 X-31.1824 Y10.0088
G01 X-31.1960 Y10.0441
G01 X-31.2275 Y10.1321
G01 X-31.2393 Y10.1680
G01 X-31.2494 Y10.2044
G01 X-31.2721 Y10.2951
G01 X-31.2804 Y10.3320
G01 X-31.2869 Y10.3692
G01 X-31.3006 Y10.4617
G01 X-31.3052 Y10.4992
G01 X-31.3080 Y10.5369
G01 X-31.3126 Y10.6302
G01 X-31.3133 Y10.6491
G01 X-31.3133 Y10.6869
G01 X-31.3068 Y10.8180
G01 X-31.3031 Y10.8556
G01 X-31.3006 Y10.8743
G01 X-31.2869 Y10.9668
G01 X-31.2804 Y11.0040
G01 X-31.2721 Y11.0409
G01 X-31.2494 Y11.1316
G01 X-31.2446 Y11.1499
G01 X-31.2336 Y11.1860
G01 X-31.1894 Y11.3096
G01 X-31.1824 Y11.3272
G01 X-31.1671 Y11.3617
G01 X-31.1271 Y11.4462
G01 X-31.1101 Y11.4800
G01 X-31.0915 Y11.5129
G01 X-31.0434 Y11.5930
G01 X-31.0232 Y11.6250
G01 X-31.0125 Y11.6406
G01 X-30.9458 Y11.7309
G01 X-30.9343 Y11.7460
G01 X-30.9103 Y11.7752
G01 X-30.8222 Y11.8725
G01 X-30.7955 Y11.8992
G01 X-30.7530 Y11.9380
G01 X-30.7955 Y11.9768
G01 X-30.8222 Y12.0035
G01 X-30.8978 Y12.0866
G01 X-30.9103 Y12.1008
G01 X-30.9343 Y12.1300
G01 X-31.0014 Y12.2201
G01 X-31.0232 Y12.2510
G01 X-31.0434 Y12.2830
G01 X-31.1010 Y12.3795
G01 X-31.1188 Y12.4128
G01 X-31.1671 Y12.5143
G01 X-31.1824 Y12.5488
G01 X-31.1960 Y12.5841
G01 X-31.2275 Y12.6721
G01 X-31.2393 Y12.7080
G01 X-31.2494 Y12.7444
G01 X-31.2721 Y12.8351
G01 X-31.2804 Y12.8720
G01 X-31.2869 Y12.9092
G01 X-31.3006 Y13.0017
G01 X-31.3052 Y13.0392
G01 X-31.3080 Y13.0769
G01 X-31.3126 Y13.1702
G01 X-31.3135 Y13.2080
G01 X-31.3126 Y13.2458
G01 X-31.3068 Y13.3580
G01 X-31.3031 Y13.3956
G01 X-31.2869 Y13.5068
G01 X-31.2804 Y13.5440
G01 X-31.2721 Y13.5809
G01 X-31.2446 Y13.6899
G01 X-31.2336 Y13.7260
G01 X-31.1960 Y13.8319
G01 X-31.1824 Y13.8672
G01 X-31.1749 Y13.8845
G01 X-31.1642 Y13.9079
G01 X-31.8434 Y13.2286
G01 X-31.8436 Y11.4111
G01 X-31.8463 Y11.3524
G01 X-31.8491 Y11.3147
G01 X-31.8537 Y11.2772
G01 X-31.8595 Y11.2377
G01 X-31.8660 Y11.2005
G01 X-31.8743 Y11.1636
G01 X-31.8888 Y11.1066
G01 X-31.8998 Y11.0704
G01 X-31.9199 Y11.0135
G01 X-31.9199 Y4.4144
G01 X-31.6536 Y4.1481
G01 X-27.8565 Y4.1481
G01 X-27.8713 Y4.1693
G01 X-27.8816 Y4.1851
G01 X-27.9017 Y4.2183
G01 X-27.9204 Y4.2512
G01 X-27.9374 Y4.2849
G01 X-27.9538 Y4.3202
G01 X-27.9682 Y4.3551
G01 X-27.9748 Y4.3728
G01 X-27.9877 Y4.4094
G01 X-27.9934 Y4.4275
G01 X-28.0035 Y4.4639
G01 X-28.0127 Y4.5016
G01 X-28.0201 Y4.5387
G01 X-28.0260 Y4.5771
G01 X-28.0285 Y4.5958
G01 X-28.0322 Y4.6334
G01 X-28.0344 Y4.6722
G01 X-28.0353 Y4.7100
G01 X-28.0353 Y6.6974
G01 X-28.6317 Y6.6974
G01 X-28.6499 Y6.6855
G01 X-28.6660 Y6.6756
G01 X-28.7461 Y6.6275
G01 X-28.7790 Y6.6089
G01 X-28.8128 Y6.5919
G01 X-28.9145 Y6.5441
G01 X-28.9318 Y6.5366
G01 X-28.9671 Y6.5230
G01 X-29.0730 Y6.4854
G01 X-29.1091 Y6.4744
G01 X-29.1274 Y6.4696
G01 X-29.2181 Y6.4469
G01 X-29.2550 Y6.4386
G01 X-29.2922 Y6.4321
G01 X-29.3847 Y6.4184
G01 X-29.4222 Y6.4138
G01 X-29.4599 Y6.4110
G01 X-29.5721 Y6.4057
G01 X-29.5910 Y6.4055
G01 X-29.6288 Y6.4064
G01 X-29.7221 Y6.4110
G01 X-29.7598 Y6.4138
G01 X-29.7973 Y6.4184
G01 X-29.8898 Y6.4321
G01 X-29.9270 Y6.4386
G01 X-29.9639 Y6.4469
G01 X-30.0546 Y6.4696
G01 X-30.0910 Y6.4797
G01 X-30.1269 Y6.4915
G01 X-30.2149 Y6.5230
G01 X-30.2502 Y6.5366
G01 X-30.2847 Y6.5519
G01 X-30.3692 Y6.5919
G01 X-30.3862 Y6.6002
G01 X-30.4195 Y6.6180
G01 X-30.5321 Y6.6855
G01 X-30.5480 Y6.6958
G01 X-30.5789 Y6.7176
G01 X-30.6690 Y6.7847
G01 X-30.6982 Y6.8087
G01 X-30.7124 Y6.8212
G01 X-30.7816 Y6.8839
G01 X-30.8090 Y6.9100
G01 X-30.8351 Y6.9374
G01 X-30.8978 Y7.0066
G01 X-30.9225 Y7.0353
G01 X-30.9343 Y7.0500
G01 X-31.0125 Y7.1554
G01 X-31.0335 Y7.1869
G01 X-31.0434 Y7.2030
G01 X-31.1010 Y7.2995
G01 X-31.1101 Y7.3160
G01 X-31.1271 Y7.3498
G01 X-31.1749 Y7.4515
G01 X-31.1894 Y7.4864
G01 X-31.2275 Y7.5921
G01 X-31.2393 Y7.6280
G01 X-31.2494 Y7.6644
G01 X-31.2765 Y7.7735
G01 X-31.2804 Y7.7920
G01 X-31.2869 Y7.8292
G01 X-31.3006 Y7.9217
G01 X-31.3052 Y7.9592
G01 X-31.3080 Y7.9969
G01 X-31.3126 Y8.0902
G01 X-31.3135 Y8.1280
G01 X-31.3126 Y8.1658
G01 X-31.3080 Y8.2591
G01 X-31.3052 Y8.2968
G01 X-31.3006 Y8.3343
G01 X-31.2839 Y8.4455
G01 X-31.2765 Y8.4825
G01 X-31.2494 Y8.5916
G01 X-31.2393 Y8.6280
G01 X-31.2275 Y8.6639
G01 X-31.1894 Y8.7696
G01 X-31.1749 Y8.8045
G01 X-31.1271 Y8.9062
G01 X-31.1101 Y8.9400
G01 X-31.1010 Y8.9565
G01 X-31.0434 Y9.0530
G01 X-31.0232 Y9.0850
G01 X-31.0014 Y9.1159
G01 X-30.9343 Y9.2060
G01 X-30.9103 Y9.2352
G01 X-30.8978 Y9.2494
G01 X-30.8222 Y9.3325
G01 X-30.7955 Y9.3592
G01 X-30.7530 Y9.3980
G00 Z2.0000
G00 X-30.8840 Y9.3980
G01 F60.00
G01 Z-0.0500
G01 F200.00
G01 X-30.9017 Y9.4169
G01 X-30.9645 Y9.4862
G01 X-30.9785 Y9.5020
G01 X-30.9921 Y9.5182
G01 X-31.0053 Y9.5346
G01 X-31.0181 Y9.5514
G01 X-31.0861 Y9.6436
G01 X-31.0980 Y9.6610
G01 X-31.1095 Y9.6787
G01 X-31.1687 Y9.7769
G01 X-31.1793 Y9.7951
G01 X-31.1895 Y9.8136
G01 X-31.1992 Y9.8323
G01 X-31.2085 Y9.8513
G01 X-31.2484 Y9.9358
G01 X-31.2572 Y9.9550
G01 X-31.2655 Y9.9744
G01 X-31.2734 Y9.9940
G01 X-31.2807 Y10.0138
G01 X-31.3122 Y10.1018
G01 X-31.3191 Y10.1217
G01 X-31.3255 Y10.1419
G01 X-31.3313 Y10.1621
G01 X-31.3367 Y10.1825
G01 X-31.3594 Y10.2732
G01 X-31.3643 Y10.2937
G01 X-31.3687 Y10.3144
G01 X-31.3725 Y10.3351
G01 X-31.3759 Y10.3560
G01 X-31.3924 Y10.4694
G01 X-31.3948 Y10.4903
G01 X-31.3966 Y10.5114
G01 X-31.3979 Y10.5324
G01 X-31.4025 Y10.6258
G01 X-31.4032 Y10.6469
G01 X-31.4035 Y10.6680
G01 X-31.4032 Y10.6891
G01 X-31.4025 Y10.7102
G01 X-31.3979 Y10.8036
G01 X-31.3966 Y10.8246
G01 X-31.3948 Y10.8457
G01 X-31.3924 Y10.8666
G01 X-31.3896 Y10.8875
G01 X-31.3759 Y10.9800
G01 X-31.3725 Y11.0009
G01 X-31.3687 Y11.0216
G01 X-31.3643 Y11.0423
G01 X-31.3367 Y11.1535
G01 X-31.3313 Y11.1739
G01 X-31.3255 Y11.1941
G01 X-31.3191 Y11.2143
G01 X-31.3122 Y11.2342
G01 X-31.2807 Y11.3222
G01 X-31.2734 Y11.3420
G01 X-31.2655 Y11.3616
G01 X-31.2572 Y11.3810
G01 X-31.2484 Y11.4002
G01 X-31.2085 Y11.4847
G01 X-31.1992 Y11.5037
G01 X-31.1895 Y11.5224
G01 X-31.1793 Y11.5409
G01 X-31.1206 Y11.6393
G01 X-31.1095 Y11.6573
G01 X-31.0980 Y11.6750
G01 X-31.0861 Y11.6924
G01 X-31.0181 Y11.7846
G01 X-31.0053 Y11.8014
G01 X-30.9921 Y11.8178
G01 X-30.9785 Y11.8340
G01 X-30.9645 Y11.8498
G01 X-30.9017 Y11.9191
G01 X-30.8840 Y11.9380
G01 X-30.9017 Y11.9569
G01 X-30.9785 Y12.0420
G01 X-30.9921 Y12.0582
G01 X-31.0053 Y12.0746
G01 X-31.0181 Y12.0914
G01 X-31.0737 Y12.1665
G01 X-31.0861 Y12.1836
G01 X-31.0980 Y12.2010
G01 X-31.1095 Y12.2187
G01 X-31.1206 Y12.2367
G01 X-31.1687 Y12.3169
G01 X-31.1793 Y12.3351
G01 X-31.1895 Y12.3536
G01 X-31.1992 Y12.3723
G01 X-31.2484 Y12.4758
G01 X-31.2572 Y12.4950
G01 X-31.2655 Y12.5144
G01 X-31.2734 Y12.5340
G01 X-31.2807 Y12.5538
G01 X-31.3122 Y12.6418
G01 X-31.3191 Y12.6617
G01 X-31.3255 Y12.6819
G01 X-31.3313 Y12.7021
G01 X-31.3367 Y12.7225
G01 X-31.3643 Y12.8337
G01 X-31.3687 Y12.8544
G01 X-31.3725 Y12.8751
G01 X-31.3759 Y12.8960
G01 X-31.3896 Y12.9885
G01 X-31.3924 Y13.0094
G01 X-31.3948 Y13.0303
G01 X-31.3966 Y13.0514
G01 X-31.3979 Y13.0724
G01 X-31.4025 Y13.1658
G01 X-31.4032 Y13.1869
G01 X-31.4035 Y13.2080
G01 X-31.4032 Y13.2291
G01 X-31.3979 Y13.3436
G01 X-31.3966 Y13.3646
G01 X-31.3948 Y13.3857
G01 X-31.3924 Y13.4066
G01 X-31.3896 Y13.4275
G01 X-31.3759 Y13.5200
G01 X-31.3725 Y13.5409
G01 X-31.3648 Y13.5800
G01 X-31.7534 Y13.1914
G01 X-31.7534 Y11.4300
G01 X-31.7537 Y11.4089
G01 X-31.7564 Y11.3479
G01 X-31.7577 Y11.3269
G01 X-31.7595 Y11.3059
G01 X-31.7618 Y11.2849
G01 X-31.7647 Y11.2640
G01 X-31.7739 Y11.2036
G01 X-31.7777 Y11.1829
G01 X-31.7821 Y11.1622
G01 X-31.7967 Y11.1030
G01 X-31.8021 Y11.0826
G01 X-31.8079 Y11.0623
G01 X-31.8143 Y11.0422
G01 X-31.8299 Y10.9979
G01 X-31.8299 Y4.4517
G01 X-31.6163 Y4.2381
G01 X-28.0146 Y4.2381
G01 X-28.0360 Y4.2837
G01 X-28.0444 Y4.3031
G01 X-28.0522 Y4.3227
G01 X-28.0596 Y4.3425
G01 X-28.0731 Y4.3812
G01 X-28.0795 Y4.4013
G01 X-28.0854 Y4.4216
G01 X-28.0908 Y4.4420
G01 X-28.1005 Y4.4819
G01 X-28.1049 Y4.5026
G01 X-28.1087 Y4.5233
G01 X-28.1150 Y4.5639
G01 X-28.1179 Y4.5848
G01 X-28.1202 Y4.6058
G01 X-28.1220 Y4.6268
G01 X-28.1243 Y4.6678
G01 X-28.1250 Y4.6889
G01 X-28.1253 Y4.7100
G01 X-28.1253 Y6.6074
G01 X-28.6051 Y6.6074
G01 X-28.6999 Y6.5503
G01 X-28.7181 Y6.5397
G01 X-28.7366 Y6.5295
G01 X-28.7553 Y6.5198
G01 X-28.7743 Y6.5105
G01 X-28.8780 Y6.4618
G01 X-28.8974 Y6.4535
G01 X-28.9170 Y6.4456
G01 X-28.9368 Y6.4383
G01 X-29.0248 Y6.4068
G01 X-29.0447 Y6.3999
G01 X-29.0649 Y6.3935
G01 X-29.0851 Y6.3877
G01 X-29.1055 Y6.3823
G01 X-29.1962 Y6.3596
G01 X-29.2167 Y6.3547
G01 X-29.2374 Y6.3503
G01 X-29.2581 Y6.3465
G01 X-29.3715 Y6.3294
G01 X-29.3924 Y6.3266
G01 X-29.4133 Y6.3242
G01 X-29.4344 Y6.3224
G01 X-29.4554 Y6.3211
G01 X-29.5699 Y6.3158
G01 X-29.5910 Y6.3155
G01 X-29.6121 Y6.3158
G01 X-29.6332 Y6.3165
G01 X-29.7476 Y6.3224
G01 X-29.7687 Y6.3242
G01 X-29.7896 Y6.3266
G01 X-29.9030 Y6.3431
G01 X-29.9239 Y6.3465
G01 X-29.9446 Y6.3503
G01 X-29.9653 Y6.3547
G01 X-30.0765 Y6.3823
G01 X-30.0969 Y6.3877
G01 X-30.1171 Y6.3935
G01 X-30.1373 Y6.3999
G01 X-30.1572 Y6.4068
G01 X-30.2452 Y6.4383
G01 X-30.2650 Y6.4456
G01 X-30.2846 Y6.4535
G01 X-30.3040 Y6.4618
G01 X-30.4077 Y6.5105
G01 X-30.4267 Y6.5198
G01 X-30.4454 Y6.5295
G01 X-30.4639 Y6.5397
G01 X-30.5623 Y6.5984
G01 X-30.5803 Y6.6095
G01 X-30.5980 Y6.6210
G01 X-30.6154 Y6.6329
G01 X-30.6325 Y6.6453
G01 X-30.7244 Y6.7137
G01 X-30.7408 Y6.7269
G01 X-30.7570 Y6.7405
G01 X-30.7728 Y6.7545
G01 X-30.8421 Y6.8173
G01 X-30.8575 Y6.8316
G01 X-30.8726 Y6.8464
G01 X-30.8874 Y6.8615
G01 X-30.9017 Y6.8769
G01 X-30.9645 Y6.9462
G01 X-30.9785 Y6.9620
G01 X-30.9921 Y6.9782
G01 X-31.0053 Y6.9946
G01 X-31.0181 Y7.0114
G01 X-31.0861 Y7.1036
G01 X-31.0980 Y7.1210
G01 X-31.1095 Y7.1387
G01 X-31.1206 Y7.1567
G01 X-31.1793 Y7.2551
G01 X-31.1895 Y7.2736
G01 X-31.1992 Y7.2923
G01 X-31.2484 Y7.3958
G01 X-31.2572 Y7.4150
G01 X-31.2655 Y7.4344
G01 X-31.2734 Y7.4540
G01 X-31.2807 Y7.4738
G01 X-31.3122 Y7.5618
G01 X-31.3191 Y7.5817
G01 X-31.3255 Y7.6019
G01 X-31.3313 Y7.6221
G01 X-31.3367 Y7.6425
G01 X-31.3594 Y7.7332
G01 X-31.3643 Y7.7537
G01 X-31.3687 Y7.7744
G01 X-31.3725 Y7.7951
G01 X-31.3759 Y7.8160
G01 X-31.3896 Y7.9085
G01 X-31.3924 Y7.9294
G01 X-31.3948 Y7.9503
G01 X-31.3966 Y7.9714
G01 X-31.3979 Y7.9924
G01 X-31.4032 Y8.1069
G01 X-31.4035 Y8.1280
G01 X-31.4032 Y8.1491
G01 X-31.3979 Y8.2636
G01 X-31.3966 Y8.2846
G01 X-31.3948 Y8.3057
G01 X-31.3924 Y8.3266
G01 X-31.3896 Y8.3475
G01 X-31.3759 Y8.4400
G01 X-31.3725 Y8.4609
G01 X-31.3687 Y8.4816
G01 X-31.3643 Y8.5023
G01 X-31.3594 Y8.5228
G01 X-31.3367 Y8.6135
G01 X-31.3313 Y8.6339
G01 X-31.3255 Y8.6541
G01 X-31.3191 Y8.6743
G01 X-31.3122 Y8.6942
G01 X-31.2807 Y8.7822
G01 X-31.2734 Y8.8020
G01 X-31.2655 Y8.8216
G01 X-31.2572 Y8.8410
G01 X-31.2484 Y8.8602
G01 X-31.2085 Y8.9447
G01 X-31.1992 Y8.9637
G01 X-31.1895 Y8.9824
G01 X-31.1793 Y9.0009
G01 X-31.1687 Y9.0191
G01 X-31.1095 Y9.1173
G01 X-31.0980 Y9.1350
G01 X-31.0861 Y9.1524
G01 X-31.0181 Y9.2446
G01 X-31.0053 Y9.2614
G01 X-30.9921 Y9.2778
G01 X-30.9785 Y9.2940
G01 X-30.9645 Y9.3098
G01 X-30.9017 Y9.3791
G01 X-30.8840 Y9.3980
G00 Z2.0000
G00 X-31.0060 Y9.3980
G01 F60.00
G01 Z-0.0500
G01 F200.00
G01 X-31.0466 Y9.4432
G01 X-31.0617 Y9.4611
G01 X-31.0762 Y9.4793
G01 X-31.1460 Y9.5729
G01 X-31.1597 Y9.5918
G01 X-31.1729 Y9.6110
G01 X-31.1856 Y9.6306
G01 X-31.2459 Y9.7306
G01 X-31.2576 Y9.7507
G01 X-31.2689 Y9.7712
G01 X-31.2796 Y9.7919
G01 X-31.2898 Y9.8128
G01 X-31.3395 Y9.9185
G01 X-31.3487 Y9.9399
G01 X-31.3573 Y9.9616
G01 X-31.3970 Y10.0715
G01 X-31.4045 Y10.0935
G01 X-31.4116 Y10.1157
G01 X-31.4181 Y10.1381
G01 X-31.4240 Y10.1607
G01 X-31.4467 Y10.2513
G01 X-31.4521 Y10.2740
G01 X-31.4569 Y10.2968
G01 X-31.4612 Y10.3198
G01 X-31.4649 Y10.3428
G01 X-31.4818 Y10.4583
G01 X-31.4843 Y10.4815
G01 X-31.4863 Y10.5048
G01 X-31.4878 Y10.5280
G01 X-31.4924 Y10.6214
G01 X-31.4932 Y10.6447
G01 X-31.4935 Y10.6680
G01 X-31.4932 Y10.6913
G01 X-31.4924 Y10.7146
G01 X-31.4878 Y10.8080
G01 X-31.4863 Y10.8312
G01 X-31.4843 Y10.8545
G01 X-31.4818 Y10.8777
G01 X-31.4786 Y10.9008
G01 X-31.4649 Y10.9932
G01 X-31.4612 Y11.0162
G01 X-31.4569 Y11.0392
G01 X-31.4521 Y11.0620
G01 X-31.4467 Y11.0847
G01 X-31.4240 Y11.1753
G01 X-31.4181 Y11.1979
G01 X-31.4116 Y11.2203
G01 X-31.4045 Y11.2425
G01 X-31.3655 Y11.3526
G01 X-31.3573 Y11.3744
G01 X-31.3487 Y11.3961
G01 X-31.3395 Y11.4175
G01 X-31.3298 Y11.4387
G01 X-31.2898 Y11.5232
G01 X-31.2796 Y11.5441
G01 X-31.2689 Y11.5648
G01 X-31.2576 Y11.5853
G01 X-31.1978 Y11.6856
G01 X-31.1856 Y11.7054
G01 X-31.1729 Y11.7250
G01 X-31.1597 Y11.7442
G01 X-31.0903 Y11.8382
G01 X-31.0762 Y11.8567
G01 X-31.0617 Y11.8749
G01 X-31.0466 Y11.8928
G01 X-31.0060 Y11.9380
G01 X-31.0466 Y11.9832
G01 X-31.0617 Y12.0011
G01 X-31.0762 Y12.0193
G01 X-31.0903 Y12.0378
G01 X-31.1597 Y12.1318
G01 X-31.1729 Y12.1510
G01 X-31.1856 Y12.1706
G01 X-31.1978 Y12.1904
G01 X-31.2576 Y12.2907
G01 X-31.2689 Y12.3112
G01 X-31.2796 Y12.3319
G01 X-31.2898 Y12.3528
G01 X-31.3395 Y12.4585
G01 X-31.3487 Y12.4799
G01 X-31.3573 Y12.5016
G01 X-31.3970 Y12.6115
G01 X-31.4045 Y12.6335
G01 X-31.4116 Y12.6557
G01 X-31.4181 Y12.6781
G01 X-31.4240 Y12.7007
G01 X-31.4521 Y12.8140
G01 X-31.4569 Y12.8368
G01 X-31.4612 Y12.8598
G01 X-31.4649 Y12.8828
G01 X-31.4818 Y12.9983
G01 X-31.4843 Y13.0215
G01 X-31.4863 Y13.0448
G01 X-31.4878 Y13.0680
G01 X-31.4932 Y13.1847
G01 X-31.4935 Y13.2080
G01 X-31.4932 Y13.2313
G01 X-31.4887 Y13.3288
G01 X-31.6634 Y13.1541
G01 X-31.6634 Y11.4300
G01 X-31.6637 Y11.4067
G01 X-31.6665 Y11.3435
G01 X-31.6679 Y11.3203
G01 X-31.6699 Y11.2970
G01 X-31.6725 Y11.2739
G01 X-31.6756 Y11.2508
G01 X-31.6852 Y11.1883
G01 X-31.6895 Y11.1653
G01 X-31.6943 Y11.1425
G01 X-31.7094 Y11.0811
G01 X-31.7153 Y11.0586
G01 X-31.7218 Y11.0362
G01 X-31.7289 Y11.0140
G01 X-31.7399 Y10.9822
G01 X-31.7399 Y4.4890
G01 X-31.5790 Y4.3281
G01 X-28.1500 Y4.3281
G01 X-28.1586 Y4.3530
G01 X-28.1656 Y4.3752
G01 X-28.1721 Y4.3976
G01 X-28.1781 Y4.4202
G01 X-28.1883 Y4.4622
G01 X-28.1931 Y4.4850
G01 X-28.1974 Y4.5079
G01 X-28.2040 Y4.5507
G01 X-28.2072 Y4.5738
G01 X-28.2097 Y4.5970
G01 X-28.2117 Y4.6202
G01 X-28.2132 Y4.6435
G01 X-28.2150 Y4.6867
G01 X-28.2153 Y4.7100
G01 X-28.2153 Y6.5174
G01 X-28.5797 Y6.5174
G01 X-28.6536 Y6.4731
G01 X-28.6737 Y6.4614
G01 X-28.6942 Y6.4501
G01 X-28.7149 Y6.4394
G01 X-28.7358 Y6.4292
G01 X-28.8203 Y6.3892
G01 X-28.8415 Y6.3795
G01 X-28.8629 Y6.3703
G01 X-28.8846 Y6.3617
G01 X-28.9945 Y6.3220
G01 X-29.0165 Y6.3145
G01 X-29.0387 Y6.3074
G01 X-29.0611 Y6.3009
G01 X-29.1743 Y6.2723
G01 X-29.1970 Y6.2669
G01 X-29.2198 Y6.2621
G01 X-29.2428 Y6.2578
G01 X-29.3582 Y6.2404
G01 X-29.3813 Y6.2372
G01 X-29.4045 Y6.2347
G01 X-29.4278 Y6.2327
G01 X-29.4510 Y6.2312
G01 X-29.5677 Y6.2258
G01 X-29.5910 Y6.2255
G01 X-29.6143 Y6.2258
G01 X-29.6376 Y6.2266
G01 X-29.7542 Y6.2327
G01 X-29.7775 Y6.2347
G01 X-29.8007 Y6.2372
G01 X-29.9162 Y6.2541
G01 X-29.9392 Y6.2578
G01 X-29.9622 Y6.2621
G01 X-29.9850 Y6.2669
G01 X-30.0983 Y6.2950
G01 X-30.1209 Y6.3009
G01 X-30.1433 Y6.3074
G01 X-30.1655 Y6.3145
G01 X-30.1875 Y6.3220
G01 X-30.2756 Y6.3535
G01 X-30.2974 Y6.3617
G01 X-30.3191 Y6.3703
G01 X-30.3405 Y6.3795
G01 X-30.4462 Y6.4292
G01 X-30.4671 Y6.4394
G01 X-30.4878 Y6.4501
G01 X-30.5083 Y6.4614
G01 X-30.5284 Y6.4731
G01 X-30.6284 Y6.5334
G01 X-30.6480 Y6.5461
G01 X-30.6672 Y6.5593
G01 X-30.6861 Y6.5730
G01 X-30.7797 Y6.6428
G01 X-30.7979 Y6.6573
G01 X-30.8158 Y6.6724
G01 X-30.8332 Y6.6878
G01 X-30.9025 Y6.7506
G01 X-30.9196 Y6.7664
G01 X-30.9363 Y6.7827
G01 X-30.9526 Y6.7994
G01 X-30.9684 Y6.8165
G01 X-31.0312 Y6.8858
G01 X-31.0466 Y6.9032
G01 X-31.0617 Y6.9211
G01 X-31.0762 Y6.9393
G01 X-31.1460 Y7.0329
G01 X-31.1597 Y7.0518
G01 X-31.1729 Y7.0710
G01 X-31.1856 Y7.0906
G01 X-31.1978 Y7.1104
G01 X-31.2576 Y7.2107
G01 X-31.2689 Y7.2312
G01 X-31.2796 Y7.2519
G01 X-31.3298 Y7.3573
G01 X-31.3395 Y7.3785
G01 X-31.3487 Y7.3999
G01 X-31.3573 Y7.4216
G01 X-31.3655 Y7.4434
G01 X-31.3970 Y7.5315
G01 X-31.4045 Y7.5535
G01 X-31.4116 Y7.5757
G01 X-31.4181 Y7.5981
G01 X-31.4240 Y7.6207
G01 X-31.4467 Y7.7113
G01 X-31.4521 Y7.7340
G01 X-31.4569 Y7.7568
G01 X-31.4612 Y7.7798
G01 X-31.4649 Y7.8028
G01 X-31.4786 Y7.8952
G01 X-31.4818 Y7.9183
G01 X-31.4843 Y7.9415
G01 X-31.4863 Y7.9648
G01 X-31.4878 Y7.9880
G01 X-31.4924 Y8.0814
G01 X-31.4932 Y8.1047
G01 X-31.4935 Y8.1280
G01 X-31.4932 Y8.1513
G01 X-31.4924 Y8.1746
G01 X-31.4863 Y8.2912
G01 X-31.4843 Y8.3145
G01 X-31.4818 Y8.3377
G01 X-31.4649 Y8.4532
G01 X-31.4612 Y8.4762
G01 X-31.4569 Y8.4992
G01 X-31.4521 Y8.5220
G01 X-31.4467 Y8.5447
G01 X-31.4240 Y8.6353
G01 X-31.4181 Y8.6579
G01 X-31.4116 Y8.6803
G01 X-31.4045 Y8.7025
G01 X-31.3970 Y8.7245
G01 X-31.3573 Y8.8344
G01 X-31.3487 Y8.8561
G01 X-31.3395 Y8.8775
G01 X-31.2898 Y8.9832
G01 X-31.2796 Y9.0041
G01 X-31.2689 Y9.0248
G01 X-31.2576 Y9.0453
G01 X-31.2459 Y9.0654
G01 X-31.1856 Y9.1654
G01 X-31.1729 Y9.1850
G01 X-31.1597 Y9.2042
G01 X-31.1460 Y9.2231
G01 X-31.0762 Y9.3167
G01 X-31.0617 Y9.3349
G01 X-31.0466 Y9.3528
G01 X-31.0060 Y9.3980
G00 Z2.0000
G00 X-31.1262 Y9.3980
G01 F60.00
G01 Z-0.0500
G01 F200.00
G01 X-31.1472 Y9.4239
G01 X-31.1626 Y9.4442
G01 X-31.2333 Y9.5400
G01 X-31.2477 Y9.5610
G01 X-31.2616 Y9.5824
G01 X-31.2750 Y9.6042
G01 X-31.3231 Y9.6843
G01 X-31.3359 Y9.7064
G01 X-31.3482 Y9.7287
G01 X-31.3600 Y9.7514
G01 X-31.3712 Y9.7743
G01 X-31.4111 Y9.8588
G01 X-31.4218 Y9.8820
G01 X-31.4318 Y9.9055
G01 X-31.4413 Y9.9292
G01 X-31.4502 Y9.9531
G01 X-31.4900 Y10.0653
G01 X-31.4977 Y10.0896
G01 X-31.5048 Y10.1141
G01 X-31.5113 Y10.1388
G01 X-31.5340 Y10.2295
G01 X-31.5399 Y10.2543
G01 X-31.5452 Y10.2793
G01 X-31.5499 Y10.3044
G01 X-31.5539 Y10.3296
G01 X-31.5711 Y10.4473
G01 X-31.5739 Y10.4727
G01 X-31.5761 Y10.4981
G01 X-31.5777 Y10.5236
G01 X-31.5822 Y10.6170
G01 X-31.5832 Y10.6425
G01 X-31.5835 Y10.6680
G01 X-31.5832 Y10.6935
G01 X-31.5822 Y10.7190
G01 X-31.5777 Y10.8124
G01 X-31.5761 Y10.8379
G01 X-31.5739 Y10.8633
G01 X-31.5711 Y10.8887
G01 X-31.5677 Y10.9140
G01 X-31.5539 Y11.0064
G01 X-31.5499 Y11.0316
G01 X-31.5452 Y11.0567
G01 X-31.5399 Y11.0817
G01 X-31.5340 Y11.1065
G01 X-31.5113 Y11.1972
G01 X-31.5048 Y11.2219
G01 X-31.4977 Y11.2464
G01 X-31.4900 Y11.2707
G01 X-31.4817 Y11.2949
G01 X-31.4502 Y11.3829
G01 X-31.4413 Y11.4068
G01 X-31.4318 Y11.4305
G01 X-31.4218 Y11.4540
G01 X-31.4111 Y11.4772
G01 X-31.3712 Y11.5617
G01 X-31.3600 Y11.5846
G01 X-31.3482 Y11.6073
G01 X-31.3359 Y11.6296
G01 X-31.3231 Y11.6517
G01 X-31.2750 Y11.7318
G01 X-31.2616 Y11.7536
G01 X-31.2477 Y11.7750
G01 X-31.2333 Y11.7960
G01 X-31.2183 Y11.8167
G01 X-31.1626 Y11.8918
G01 X-31.1472 Y11.9121
G01 X-31.1262 Y11.9380
G01 X-31.1472 Y11.9639
G01 X-31.1626 Y11.9842
G01 X-31.2333 Y12.0800
G01 X-31.2477 Y12.1010
G01 X-31.2616 Y12.1224
G01 X-31.2750 Y12.1442
G01 X-31.3231 Y12.2243
G01 X-31.3359 Y12.2464
G01 X-31.3482 Y12.2687
G01 X-31.3600 Y12.2914
G01 X-31.3712 Y12.3143
G01 X-31.4111 Y12.3988
G01 X-31.4218 Y12.4220
G01 X-31.4318 Y12.4455
G01 X-31.4413 Y12.4692
G01 X-31.4502 Y12.4931
G01 X-31.4900 Y12.6053
G01 X-31.4977 Y12.6296
G01 X-31.5048 Y12.6541
G01 X-31.5113 Y12.6788
G01 X-31.5340 Y12.7695
G01 X-31.5399 Y12.7943
G01 X-31.5452 Y12.8193
G01 X-31.5499 Y12.8444
G01 X-31.5539 Y12.8696
G01 X-31.5677 Y12.9620
G01 X-31.5711 Y12.9873
G01 X-31.5734 Y13.0081
G01 X-31.5734 Y11.4300
G01 X-31.5737 Y11.4045
G01 X-31.5746 Y11.3790
G01 X-31.5782 Y11.3136
G01 X-31.5804 Y11.2882
G01 X-31.5832 Y11.2628
G01 X-31.5866 Y11.2375
G01 X-31.5965 Y11.1729
G01 X-31.6012 Y11.1478
G01 X-31.6065 Y11.1228
G01 X-31.6221 Y11.0593
G01 X-31.6286 Y11.0346
G01 X-31.6357 Y11.0101
G01 X-31.6434 Y10.9857
G01 X-31.6499 Y10.9668
G01 X-31.6499 Y4.5263
G01 X-31.5417 Y4.4181
G01 X-28.2703 Y4.4181
G01 X-28.2761 Y4.4425
G01 X-28.2814 Y4.4674
G01 X-28.2861 Y4.4925
G01 X-28.2931 Y4.5375
G01 X-28.2965 Y4.5628
G01 X-28.2993 Y4.5881
G01 X-28.3015 Y4.6136
G01 X-28.3040 Y4.6590
G01 X-28.3050 Y4.6845
G01 X-28.3053 Y4.7100
G01 X-28.3053 Y6.4274
G01 X-28.5548 Y6.4274
G01 X-28.6073 Y6.3959
G01 X-28.6294 Y6.3831
G01 X-28.6517 Y6.3708
G01 X-28.6744 Y6.3590
G01 X-28.6973 Y6.3478
G01 X-28.7818 Y6.3079
G01 X-28.8050 Y6.2972
G01 X-28.8285 Y6.2872
G01 X-28.8522 Y6.2777
G01 X-28.9641 Y6.2373
G01 X-28.9883 Y6.2290
G01 X-29.0126 Y6.2213
G01 X-29.0371 Y6.2142
G01 X-29.0618 Y6.2077
G01 X-29.1773 Y6.1791
G01 X-29.2023 Y6.1738
G01 X-29.2274 Y6.1691
G01 X-29.3450 Y6.1513
G01 X-29.3703 Y6.1479
G01 X-29.3957 Y6.1451
G01 X-29.4211 Y6.1429
G01 X-29.5400 Y6.1368
G01 X-29.5655 Y6.1358
G01 X-29.5910 Y6.1355
G01 X-29.6165 Y6.1358
G01 X-29.7354 Y6.1413
G01 X-29.7609 Y6.1429
G01 X-29.7863 Y6.1451
G01 X-29.8117 Y6.1479
G01 X-29.9294 Y6.1651
G01 X-29.9546 Y6.1691
G01 X-29.9797 Y6.1738
G01 X-30.0047 Y6.1791
G01 X-30.0295 Y6.1850
G01 X-30.1202 Y6.2077
G01 X-30.1449 Y6.2142
G01 X-30.1694 Y6.2213
G01 X-30.1937 Y6.2290
G01 X-30.2179 Y6.2373
G01 X-30.3059 Y6.2688
G01 X-30.3298 Y6.2777
G01 X-30.3535 Y6.2872
G01 X-30.3770 Y6.2972
G01 X-30.4847 Y6.3478
G01 X-30.5076 Y6.3590
G01 X-30.5303 Y6.3708
G01 X-30.5526 Y6.3831
G01 X-30.5747 Y6.3959
G01 X-30.6766 Y6.4574
G01 X-30.6980 Y6.4713
G01 X-30.7190 Y6.4857
G01 X-30.8148 Y6.5564
G01 X-30.8351 Y6.5718
G01 X-30.8550 Y6.5878
G01 X-30.8746 Y6.6042
G01 X-30.8937 Y6.6211
G01 X-30.9816 Y6.7013
G01 X-30.9999 Y6.7191
G01 X-31.0177 Y6.7374
G01 X-31.0979 Y6.8253
G01 X-31.1148 Y6.8444
G01 X-31.1312 Y6.8640
G01 X-31.1472 Y6.8839
G01 X-31.2183 Y6.9793
G01 X-31.2333 Y7.0000
G01 X-31.2477 Y7.0210
G01 X-31.2616 Y7.0424
G01 X-31.3231 Y7.1443
G01 X-31.3359 Y7.1664
G01 X-31.3482 Y7.1887
G01 X-31.3600 Y7.2114
G01 X-31.4111 Y7.3188
G01 X-31.4218 Y7.3420
G01 X-31.4318 Y7.3655
G01 X-31.4413 Y7.3892
G01 X-31.4502 Y7.4131
G01 X-31.4817 Y7.5011
G01 X-31.4900 Y7.5253
G01 X-31.4977 Y7.5496
G01 X-31.5048 Y7.5741
G01 X-31.5113 Y7.5988
G01 X-31.5340 Y7.6895
G01 X-31.5399 Y7.7143
G01 X-31.5452 Y7.7393
G01 X-31.5499 Y7.7644
G01 X-31.5539 Y7.7896
G01 X-31.5677 Y7.8820
G01 X-31.5711 Y7.9073
G01 X-31.5739 Y7.9327
G01 X-31.5761 Y7.9581
G01 X-31.5777 Y7.9836
G01 X-31.5822 Y8.0770
G01 X-31.5832 Y8.1025
G01 X-31.5835 Y8.1280
G01 X-31.5832 Y8.1535
G01 X-31.5777 Y8.2724
G01 X-31.5761 Y8.2979
G01 X-31.5739 Y8.3233
G01 X-31.5711 Y8.3487
G01 X-31.5677 Y8.3740
G01 X-31.5499 Y8.4916
G01 X-31.5452 Y8.5167
G01 X-31.5399 Y8.5417
G01 X-31.5340 Y8.5665
G01 X-31.5113 Y8.6572
G01 X-31.5048 Y8.6819
G01 X-31.4977 Y8.7064
G01 X-31.4900 Y8.7307
G01 X-31.4817 Y8.7549
G01 X-31.4502 Y8.8429
G01 X-31.4413 Y8.8668
G01 X-31.4318 Y8.8905
G01 X-31.4218 Y8.9140
G01 X-31.4111 Y8.9372
G01 X-31.3712 Y9.0217
G01 X-31.3600 Y9.0446
G01 X-31.3482 Y9.0673
G01 X-31.3359 Y9.0896
G01 X-31.3231 Y9.1117
G01 X-31.2750 Y9.1918
G01 X-31.2616 Y9.2136
G01 X-31.2477 Y9.2350
G01 X-31.2333 Y9.2560
G01 X-31.1626 Y9.3518
G01 X-31.1472 Y9.3721
G01 X-31.1262 Y9.3980
G00 Z2.0000
G00 X-31.2404 Y9.3980
G01 F60.00
G01 Z-0.0500
G01 F200.00
G01 X-31.2906 Y9.4657
G01 X-31.3068 Y9.4882
G01 X-31.3225 Y9.5110
G01 X-31.3377 Y9.5343
G01 X-31.3522 Y9.5579
G01 X-31.4003 Y9.6381
G01 X-31.4142 Y9.6620
G01 X-31.4276 Y9.6863
G01 X-31.4404 Y9.7109
G01 X-31.4525 Y9.7359
G01 X-31.4925 Y9.8204
G01 X-31.5041 Y9.8456
G01 X-31.5150 Y9.8711
G01 X-31.5253 Y9.8968
G01 X-31.5599 Y9.9926
G01 X-31.5599 Y8.8034
G01 X-31.5253 Y8.8992
G01 X-31.5150 Y8.9249
G01 X-31.5041 Y8.9504
G01 X-31.4925 Y8.9756
G01 X-31.4525 Y9.0601
G01 X-31.4404 Y9.0851
G01 X-31.4276 Y9.1097
G01 X-31.4142 Y9.1340
G01 X-31.4003 Y9.1579
G01 X-31.3522 Y9.2381
G01 X-31.3377 Y9.2617
G01 X-31.3225 Y9.2850
G01 X-31.3068 Y9.3078
G01 X-31.2906 Y9.3303
G01 X-31.2404 Y9.3980
G00 Z2.0000
G00 X-31.3525 Y9.3980
G01 F60.00
G01 Z-0.0500
G01 F200.00
G01 X-31.3804 Y9.4363
G01 X-31.3974 Y9.4610
G01 X-31.4137 Y9.4861
G01 X-31.4294 Y9.5116
G01 X-31.4699 Y9.5792
G01 X-31.4699 Y9.2168
G01 X-31.4294 Y9.2844
G01 X-31.4137 Y9.3099
G01 X-31.3974 Y9.3350
G01 X-31.3804 Y9.3597
G01 X-31.3525 Y9.3980
G00 Z2.0000
G00 X-31.5599 Y7.4526
G01 F60.00
G01 Z-0.0500
G01 F200.00
G01 X-31.5599 Y4.5636
G01 X-31.5044 Y4.5081
G01 X-28.3797 Y4.5081
G01 X-28.3858 Y4.5517
G01 X-28.3889 Y4.5793
G01 X-28.3913 Y4.6069
G01 X-28.3939 Y4.6546
G01 X-28.3950 Y4.6823
G01 X-28.3953 Y4.7100
G01 X-28.3953 Y6.3374
G01 X-28.5299 Y6.3374
G01 X-28.5850 Y6.3048
G01 X-28.6093 Y6.2914
G01 X-28.6339 Y6.2786
G01 X-28.6589 Y6.2665
G01 X-28.7434 Y6.2265
G01 X-28.7686 Y6.2149
G01 X-28.7941 Y6.2040
G01 X-28.8198 Y6.1937
G01 X-28.8458 Y6.1841
G01 X-28.9338 Y6.1526
G01 X-28.9600 Y6.1435
G01 X-28.9865 Y6.1352
G01 X-29.0131 Y6.1274
G01 X-29.0399 Y6.1204
G01 X-29.1306 Y6.0977
G01 X-29.1576 Y6.0913
G01 X-29.1847 Y6.0855
G01 X-29.2120 Y6.0804
G01 X-29.2394 Y6.0760
G01 X-29.3318 Y6.0623
G01 X-29.3593 Y6.0586
G01 X-29.3869 Y6.0555
G01 X-29.4145 Y6.0531
G01 X-29.4422 Y6.0514
G01 X-29.5356 Y6.0469
G01 X-29.5633 Y6.0458
G01 X-29.5910 Y6.0455
G01 X-29.6187 Y6.0458
G01 X-29.6464 Y6.0469
G01 X-29.7398 Y6.0514
G01 X-29.7675 Y6.0531
G01 X-29.7951 Y6.0555
G01 X-29.8227 Y6.0586
G01 X-29.8502 Y6.0623
G01 X-29.9426 Y6.0760
G01 X-29.9700 Y6.0804
G01 X-29.9973 Y6.0855
G01 X-30.0244 Y6.0913
G01 X-30.0514 Y6.0977
G01 X-30.1421 Y6.1204
G01 X-30.1689 Y6.1274
G01 X-30.1955 Y6.1352
G01 X-30.2220 Y6.1435
G01 X-30.2482 Y6.1526
G01 X-30.3362 Y6.1841
G01 X-30.3622 Y6.1937
G01 X-30.3879 Y6.2040
G01 X-30.4134 Y6.2149
G01 X-30.4386 Y6.2265
G01 X-30.5231 Y6.2665
G01 X-30.5481 Y6.2786
G01 X-30.5727 Y6.2914
G01 X-30.5970 Y6.3048
G01 X-30.6209 Y6.3187
G01 X-30.7011 Y6.3668
G01 X-30.7247 Y6.3813
G01 X-30.7480 Y6.3965
G01 X-30.7708 Y6.4122
G01 X-30.7933 Y6.4284
G01 X-30.8684 Y6.4841
G01 X-30.8905 Y6.5009
G01 X-30.9121 Y6.5182
G01 X-30.9333 Y6.5361
G01 X-30.9541 Y6.5544
G01 X-31.0234 Y6.6172
G01 X-31.0437 Y6.6361
G01 X-31.0635 Y6.6555
G01 X-31.0829 Y6.6753
G01 X-31.1018 Y6.6956
G01 X-31.1646 Y6.7649
G01 X-31.1829 Y6.7857
G01 X-31.2008 Y6.8069
G01 X-31.2181 Y6.8285
G01 X-31.2349 Y6.8506
G01 X-31.2906 Y6.9257
G01 X-31.3068 Y6.9482
G01 X-31.3225 Y6.9710
G01 X-31.3377 Y6.9943
G01 X-31.3522 Y7.0179
G01 X-31.4003 Y7.0981
G01 X-31.4142 Y7.1220
G01 X-31.4276 Y7.1463
G01 X-31.4404 Y7.1709
G01 X-31.4525 Y7.1959
G01 X-31.4925 Y7.2804
G01 X-31.5041 Y7.3056
G01 X-31.5150 Y7.3311
G01 X-31.5253 Y7.3568
G01 X-31.5349 Y7.3828
G01 X-31.5599 Y7.4526
G00 Z2.0000
G00 X-31.4699 Y7.0392
G01 F60.00
G01 Z-0.0500
G01 F200.00
G01 X-31.4699 Y4.6008
G01 X-31.4672 Y4.5981
G01 X-28.4808 Y4.5981
G01 X-28.4838 Y4.6501
G01 X-28.4849 Y4.6801
G01 X-28.4853 Y4.7100
G01 X-28.4853 Y6.2474
G01 X-28.5050 Y6.2474
G01 X-28.5407 Y6.2265
G01 X-28.5669 Y6.2120
G01 X-28.5935 Y6.1982
G01 X-28.6204 Y6.1851
G01 X-28.7049 Y6.1451
G01 X-28.7321 Y6.1327
G01 X-28.7596 Y6.1209
G01 X-28.7874 Y6.1098
G01 X-28.8155 Y6.0993
G01 X-28.9035 Y6.0678
G01 X-28.9318 Y6.0581
G01 X-28.9604 Y6.0490
G01 X-28.9891 Y6.0407
G01 X-29.0181 Y6.0331
G01 X-29.1087 Y6.0104
G01 X-29.1379 Y6.0034
G01 X-29.1672 Y5.9972
G01 X-29.1966 Y5.9918
G01 X-29.2262 Y5.9870
G01 X-29.3186 Y5.9733
G01 X-29.3483 Y5.9693
G01 X-29.3781 Y5.9660
G01 X-29.4079 Y5.9634
G01 X-29.4378 Y5.9616
G01 X-29.5311 Y5.9570
G01 X-29.5611 Y5.9559
G01 X-29.5910 Y5.9555
G01 X-29.6209 Y5.9559
G01 X-29.6509 Y5.9570
G01 X-29.7442 Y5.9616
G01 X-29.7741 Y5.9634
G01 X-29.8039 Y5.9660
G01 X-29.8337 Y5.9693
G01 X-29.8634 Y5.9733
G01 X-29.9558 Y5.9870
G01 X-29.9854 Y5.9918
G01 X-30.0148 Y5.9972
G01 X-30.0441 Y6.0034
G01 X-30.0733 Y6.0104
G01 X-30.1639 Y6.0331
G01 X-30.1929 Y6.0407
G01 X-30.2216 Y6.0490
G01 X-30.2502 Y6.0581
G01 X-30.2785 Y6.0678
G01 X-30.3665 Y6.0993
G01 X-30.3946 Y6.1098
G01 X-30.4224 Y6.1209
G01 X-30.4499 Y6.1327
G01 X-30.4771 Y6.1451
G01 X-30.5616 Y6.1851
G01 X-30.5885 Y6.1982
G01 X-30.6151 Y6.2120
G01 X-30.6413 Y6.2265
G01 X-30.6672 Y6.2415
G01 X-30.7474 Y6.2896
G01 X-30.7729 Y6.3053
G01 X-30.7980 Y6.3216
G01 X-30.8227 Y6.3386
G01 X-30.8469 Y6.3561
G01 X-30.9220 Y6.4118
G01 X-30.9458 Y6.4299
G01 X-30.9692 Y6.4486
G01 X-30.9921 Y6.4679
G01 X-31.0146 Y6.4877
G01 X-31.0838 Y6.5505
G01 X-31.1058 Y6.5709
G01 X-31.1272 Y6.5918
G01 X-31.1481 Y6.6132
G01 X-31.1685 Y6.6352
G01 X-31.2313 Y6.7044
G01 X-31.2511 Y6.7269
G01 X-31.2704 Y6.7498
G01 X-31.2891 Y6.7732
G01 X-31.3072 Y6.7970
G01 X-31.3629 Y6.8721
G01 X-31.3804 Y6.8963
G01 X-31.3974 Y6.9210
G01 X-31.4137 Y6.9461
G01 X-31.4294 Y6.9716
G01 X-31.4699 Y7.0392
G00 Z2.0000
G00 X-31.3799 Y6.7439
G01 F60.00
G01 Z-0.0500
G01 F200.00
G01 X-31.3799 Y4.6881
G01 X-28.5750 Y4.6881
G01 X-28.5753 Y4.7100
G01 X-28.5753 Y6.1070
G01 X-28.6664 Y6.0638
G01 X-28.6956 Y6.0504
G01 X-28.7252 Y6.0377
G01 X-28.7550 Y6.0258
G01 X-28.7852 Y6.0146
G01 X-28.8732 Y5.9831
G01 X-28.9036 Y5.9726
G01 X-28.9342 Y5.9629
G01 X-28.9651 Y5.9540
G01 X-28.9962 Y5.9458
G01 X-29.0869 Y5.9231
G01 X-29.1182 Y5.9156
G01 X-29.1496 Y5.9090
G01 X-29.1812 Y5.9031
G01 X-29.2130 Y5.8980
G01 X-29.3054 Y5.8843
G01 X-29.3373 Y5.8799
G01 X-29.3692 Y5.8764
G01 X-29.4013 Y5.8736
G01 X-29.4334 Y5.8717
G01 X-29.5267 Y5.8671
G01 X-29.5589 Y5.8659
G01 X-29.5910 Y5.8655
G01 X-29.6231 Y5.8659
G01 X-29.6553 Y5.8671
G01 X-29.7486 Y5.8717
G01 X-29.7807 Y5.8736
G01 X-29.8128 Y5.8764
G01 X-29.8447 Y5.8799
G01 X-29.8766 Y5.8843
G01 X-29.9690 Y5.8980
G01 X-30.0008 Y5.9031
G01 X-30.0324 Y5.9090
G01 X-30.0638 Y5.9156
G01 X-30.0951 Y5.9231
G01 X-30.1858 Y5.9458
G01 X-30.2169 Y5.9540
G01 X-30.2478 Y5.9629
G01 X-30.2784 Y5.9726
G01 X-30.3088 Y5.9831
G01 X-30.3968 Y6.0146
G01 X-30.4270 Y6.0258
G01 X-30.4568 Y6.0377
G01 X-30.4864 Y6.0504
G01 X-30.5156 Y6.0638
G01 X-30.6001 Y6.1037
G01 X-30.6290 Y6.1178
G01 X-30.6575 Y6.1327
G01 X-30.6857 Y6.1482
G01 X-30.7135 Y6.1643
G01 X-30.7937 Y6.2124
G01 X-30.8210 Y6.2293
G01 X-30.8480 Y6.2468
G01 X-30.8745 Y6.2650
G01 X-30.9005 Y6.2838
G01 X-30.9756 Y6.3395
G01 X-31.0012 Y6.3590
G01 X-31.0263 Y6.3791
G01 X-31.0509 Y6.3998
G01 X-31.0750 Y6.4211
G01 X-31.1443 Y6.4838
G01 X-31.1678 Y6.5057
G01 X-31.1908 Y6.5282
G01 X-31.2133 Y6.5512
G01 X-31.2352 Y6.5747
G01 X-31.2979 Y6.6440
G01 X-31.3192 Y6.6681
G01 X-31.3399 Y6.6927
G01 X-31.3600 Y6.7178
G01 X-31.3799 Y6.7439
G00 Z2.0000
G00 X-31.2872 Y6.4985
G01 F60.00
G01 Z-0.0500
G01 F200.00
G01 X-31.2891 Y4.7781
G01 X-28.6653 Y4.7781
G01 X-28.6653 Y5.9655
G01 X-28.6907 Y5.9546
G01 X-28.7226 Y5.9418
G01 X-28.7548 Y5.9298
G01 X-28.8429 Y5.8984
G01 X-28.8753 Y5.8872
G01 X-28.9081 Y5.8768
G01 X-28.9411 Y5.8672
G01 X-28.9743 Y5.8585
G01 X-29.0650 Y5.8358
G01 X-29.0984 Y5.8278
G01 X-29.1321 Y5.8207
G01 X-29.1658 Y5.8144
G01 X-29.1998 Y5.8090
G01 X-29.2922 Y5.7952
G01 X-29.3263 Y5.7906
G01 X-29.3604 Y5.7868
G01 X-29.3946 Y5.7839
G01 X-29.4289 Y5.7818
G01 X-29.5223 Y5.7772
G01 X-29.5566 Y5.7759
G01 X-29.5910 Y5.7755
G01 X-29.6254 Y5.7759
G01 X-29.6597 Y5.7772
G01 X-29.7531 Y5.7818
G01 X-29.7874 Y5.7839
G01 X-29.8216 Y5.7868
G01 X-29.8557 Y5.7906
G01 X-29.8898 Y5.7952
G01 X-29.9822 Y5.8090
G01 X-30.0162 Y5.8144
G01 X-30.0499 Y5.8207
G01 X-30.0836 Y5.8278
G01 X-30.1170 Y5.8358
G01 X-30.2077 Y5.8585
G01 X-30.2409 Y5.8672
G01 X-30.2739 Y5.8768
G01 X-30.3067 Y5.8872
G01 X-30.3391 Y5.8984
G01 X-30.4272 Y5.9298
G01 X-30.4594 Y5.9418
G01 X-30.4913 Y5.9546
G01 X-30.5228 Y5.9681
G01 X-30.5541 Y5.9824
G01 X-30.6386 Y6.0224
G01 X-30.6695 Y6.0375
G01 X-30.7000 Y6.0533
G01 X-30.7301 Y6.0698
G01 X-30.7597 Y6.0872
G01 X-30.8399 Y6.1352
G01 X-30.8692 Y6.1532
G01 X-30.8980 Y6.1720
G01 X-30.9263 Y6.1914
G01 X-30.9542 Y6.2115
G01 X-31.0292 Y6.2672
G01 X-31.0566 Y6.2880
G01 X-31.0834 Y6.3095
G01 X-31.1097 Y6.3316
G01 X-31.1354 Y6.3544
G01 X-31.2047 Y6.4171
G01 X-31.2299 Y6.4405
G01 X-31.2545 Y6.4645
G01 X-31.2872 Y6.4985
G00 Z2.0000
G00 X-31.1974 Y6.2891
G01 F60.00
G01 Z-0.0500
G01 F200.00
G01 X-31.1990 Y4.8681
G01 X-28.7553 Y4.8681
G01 X-28.7553 Y5.8341
G01 X-28.8125 Y5.8136
G01 X-28.8471 Y5.8017
G01 X-28.8820 Y5.7907
G01 X-28.9171 Y5.7805
G01 X-28.9525 Y5.7712
G01 X-29.0431 Y5.7485
G01 X-29.0787 Y5.7400
G01 X-29.1145 Y5.7324
G01 X-29.1504 Y5.7257
G01 X-29.1865 Y5.7199
G01 X-29.2790 Y5.7062
G01 X-29.3152 Y5.7013
G01 X-29.3516 Y5.6973
G01 X-29.3880 Y5.6941
G01 X-29.4245 Y5.6919
G01 X-29.5179 Y5.6873
G01 X-29.5544 Y5.6859
G01 X-29.5910 Y5.6855
G01 X-29.6276 Y5.6859
G01 X-29.6641 Y5.6873
G01 X-29.7575 Y5.6919
G01 X-29.7940 Y5.6941
G01 X-29.8304 Y5.6973
G01 X-29.8668 Y5.7013
G01 X-29.9030 Y5.7062
G01 X-29.9955 Y5.7199
G01 X-30.0316 Y5.7257
G01 X-30.0675 Y5.7324
G01 X-30.1033 Y5.7400
G01 X-30.1389 Y5.7485
G01 X-30.2295 Y5.7712
G01 X-30.2649 Y5.7805
G01 X-30.3000 Y5.7907
G01 X-30.3349 Y5.8017
G01 X-30.3695 Y5.8136
G01 X-30.4575 Y5.8451
G01 X-30.4917 Y5.8578
G01 X-30.5257 Y5.8714
G01 X-30.5593 Y5.8858
G01 X-30.5926 Y5.9011
G01 X-30.6771 Y5.9410
G01 X-30.7099 Y5.9571
G01 X-30.7424 Y5.9739
G01 X-30.7744 Y5.9915
G01 X-30.8060 Y6.0100
G01 X-30.8862 Y6.0580
G01 X-30.9173 Y6.0772
G01 X-30.9480 Y6.0971
G01 X-30.9781 Y6.1178
G01 X-31.0078 Y6.1392
G01 X-31.0829 Y6.1949
G01 X-31.1120 Y6.2171
G01 X-31.1405 Y6.2399
G01 X-31.1685 Y6.2635
G01 X-31.1974 Y6.2891
G00 Z2.0000
G00 X-31.1076 Y6.1013
G01 F60.00
G01 Z-0.0500
G01 F200.00
G01 X-31.1089 Y4.9581
G01 X-28.8453 Y4.9581
G01 X-28.8453 Y5.7079
G01 X-28.8931 Y5.6937
G01 X-28.9306 Y5.6839
G01 X-29.0213 Y5.6612
G01 X-29.0590 Y5.6522
G01 X-29.0969 Y5.6442
G01 X-29.1351 Y5.6371
G01 X-29.1733 Y5.6309
G01 X-29.2658 Y5.6172
G01 X-29.3042 Y5.6120
G01 X-29.3428 Y5.6077
G01 X-29.3814 Y5.6044
G01 X-29.4201 Y5.6020
G01 X-29.5135 Y5.5974
G01 X-29.5522 Y5.5960
G01 X-29.5910 Y5.5955
G01 X-29.6298 Y5.5960
G01 X-29.6685 Y5.5974
G01 X-29.7619 Y5.6020
G01 X-29.8006 Y5.6044
G01 X-29.8392 Y5.6077
G01 X-29.8778 Y5.6120
G01 X-29.9162 Y5.6172
G01 X-30.0087 Y5.6309
G01 X-30.0469 Y5.6371
G01 X-30.0851 Y5.6442
G01 X-30.1230 Y5.6522
G01 X-30.1607 Y5.6612
G01 X-30.2514 Y5.6839
G01 X-30.2889 Y5.6937
G01 X-30.3261 Y5.7045
G01 X-30.3631 Y5.7163
G01 X-30.3998 Y5.7289
G01 X-30.4878 Y5.7604
G01 X-30.5241 Y5.7739
G01 X-30.5601 Y5.7883
G01 X-30.5958 Y5.8036
G01 X-30.6310 Y5.8197
G01 X-30.7155 Y5.8597
G01 X-30.7504 Y5.8767
G01 X-30.7848 Y5.8945
G01 X-30.8188 Y5.9132
G01 X-30.8523 Y5.9328
G01 X-30.9325 Y5.9808
G01 X-30.9655 Y6.0012
G01 X-30.9980 Y6.0223
G01 X-31.0300 Y6.0442
G01 X-31.0614 Y6.0670
G01 X-31.1076 Y6.1013
G00 Z2.0000
G00 X-31.0178 Y5.9279
G01 F60.00
G01 Z-0.0500
G01 F200.00
G01 X-31.0188 Y5.0481
G01 X-28.9353 Y5.0481
G01 X-28.9353 Y5.5899
G01 X-28.9994 Y5.5739
G01 X-29.0393 Y5.5644
G01 X-29.0794 Y5.5559
G01 X-29.1197 Y5.5484
G01 X-29.1601 Y5.5419
G01 X-29.2526 Y5.5282
G01 X-29.2932 Y5.5226
G01 X-29.3340 Y5.5181
G01 X-29.3748 Y5.5146
G01 X-29.4157 Y5.5121
G01 X-29.5091 Y5.5075
G01 X-29.5500 Y5.5060
G01 X-29.5910 Y5.5055
G01 X-29.6320 Y5.5060
G01 X-29.6729 Y5.5075
G01 X-29.7663 Y5.5121
G01 X-29.8072 Y5.5146
G01 X-29.8480 Y5.5181
G01 X-29.8888 Y5.5226
G01 X-29.9294 Y5.5282
G01 X-30.0219 Y5.5419
G01 X-30.0623 Y5.5484
G01 X-30.1026 Y5.5559
G01 X-30.1427 Y5.5644
G01 X-30.1826 Y5.5739
G01 X-30.2733 Y5.5966
G01 X-30.3129 Y5.6070
G01 X-30.3523 Y5.6184
G01 X-30.3913 Y5.6308
G01 X-30.4301 Y5.6441
G01 X-30.5181 Y5.6756
G01 X-30.5565 Y5.6899
G01 X-30.5946 Y5.7051
G01 X-30.6323 Y5.7213
G01 X-30.6695 Y5.7383
G01 X-30.7540 Y5.7783
G01 X-30.7909 Y5.7963
G01 X-30.8272 Y5.8152
G01 X-30.8631 Y5.8349
G01 X-30.8986 Y5.8556
G01 X-30.9787 Y5.9036
G01 X-31.0178 Y5.9279
G00 Z2.0000
G00 X-30.9280 Y5.7686
G01 F60.00
G01 Z-0.0500
G01 F200.00
G01 X-30.9287 Y5.1381
G01 X-29.0253 Y5.1381
G01 X-29.0253 Y5.4754
G01 X-29.0618 Y5.4676
G01 X-29.1043 Y5.4597
G01 X-29.1469 Y5.4529
G01 X-29.2394 Y5.4391
G01 X-29.2822 Y5.4333
G01 X-29.3251 Y5.4286
G01 X-29.3682 Y5.4249
G01 X-29.4113 Y5.4222
G01 X-29.5046 Y5.4176
G01 X-29.5478 Y5.4160
G01 X-29.5910 Y5.4155
G01 X-29.6342 Y5.4160
G01 X-29.6774 Y5.4176
G01 X-29.7707 Y5.4222
G01 X-29.8138 Y5.4249
G01 X-29.8569 Y5.4286
G01 X-29.8998 Y5.4333
G01 X-29.9426 Y5.4391
G01 X-30.0351 Y5.4529
G01 X-30.0777 Y5.4597
G01 X-30.1202 Y5.4676
G01 X-30.1624 Y5.4766
