(G-CODE GENERATED BY FLATCAM v8.994 - www.flatcam.org - Version Date: 2020/11/7)

(Name: profile.gbr_cutout_cnc)
(Type: G-code from Geometry)
(Units: MM)

(Created on Sunday, 30 January 2022 at 20:17)

(This preprocessor is the default preprocessor used by FlatCAM.)
(It is made to work with MACH3 compatible motion controllers.)

(TOOL DIAMETER: 2.0 mm)
(Feedrate_XY: 120.0 mm/min)
(Feedrate_Z: 60.0 mm/min)
(Feedrate rapids 1500.0 mm/min)

(Z_Cut: -1.8 mm)
(DepthPerCut: 0.6 mm <=>3 passes)
(Z_Move: 2.0 mm)
(Z Start: None mm)
(Z End: 15.0 mm)
(X,Y End: None mm)
(Steps per circle: 64)
(Preprocessor Geometry: default)

(X range:  -72.3271 ...   -8.4249  mm)
(Y range:   -1.2271 ...   31.3771  mm)

(Spindle Speed: 0.0 RPM)
G21
G90
G94

G01 F120.00

M5
G00 Z15.0000
G00 X0.0000 Y0.0000
T1
M6    
(MSG, Change to Tool Dia = 2.0000)
M0
G00 Z15.0000

M03
G01 F120.00
G00 X-8.4249 Y12.1750
G01 F60.00
G01 Z-0.6000
G01 F120.00
G01 X-8.4249 Y-0.1271
G01 X-8.4302 Y-0.2349
G01 X-8.4461 Y-0.3417
G01 X-8.4723 Y-0.4464
G01 X-8.5087 Y-0.5480
G01 X-8.5548 Y-0.6456
G01 X-8.6103 Y-0.7382
G01 X-8.6746 Y-0.8249
G01 X-8.7471 Y-0.9049
G01 X-8.8271 Y-0.9774
G01 X-8.9138 Y-1.0417
G01 X-9.0064 Y-1.0972
G01 X-9.1040 Y-1.1433
G01 X-9.2056 Y-1.1797
G01 X-9.3103 Y-1.2059
G01 X-9.4171 Y-1.2218
G01 X-9.5249 Y-1.2271
G01 X-71.2271 Y-1.2271
G01 X-71.3349 Y-1.2218
G01 X-71.4417 Y-1.2059
G01 X-71.5464 Y-1.1797
G01 X-71.6480 Y-1.1433
G01 X-71.7456 Y-1.0972
G01 X-71.8382 Y-1.0417
G01 X-71.9249 Y-0.9774
G01 X-72.0049 Y-0.9049
G01 X-72.0774 Y-0.8249
G01 X-72.1417 Y-0.7382
G01 X-72.1972 Y-0.6456
G01 X-72.2433 Y-0.5480
G01 X-72.2797 Y-0.4464
G01 X-72.3059 Y-0.3417
G01 X-72.3218 Y-0.2349
G01 X-72.3271 Y-0.1271
G01 X-72.3271 Y12.1750
G00 X-72.3271 Y12.1750
G01 F60.00
G01 Z-1.2000
G01 F120.00
G01 X-72.3271 Y-0.1271
G01 X-72.3218 Y-0.2349
G01 X-72.3059 Y-0.3417
G01 X-72.2797 Y-0.4464
G01 X-72.2433 Y-0.5480
G01 X-72.1972 Y-0.6456
G01 X-72.1417 Y-0.7382
G01 X-72.0774 Y-0.8249
G01 X-72.0049 Y-0.9049
G01 X-71.9249 Y-0.9774
G01 X-71.8382 Y-1.0417
G01 X-71.7456 Y-1.0972
G01 X-71.6480 Y-1.1433
G01 X-71.5464 Y-1.1797
G01 X-71.4417 Y-1.2059
G01 X-71.3349 Y-1.2218
G01 X-71.2271 Y-1.2271
G01 X-9.5249 Y-1.2271
G01 X-9.4171 Y-1.2218
G01 X-9.3103 Y-1.2059
G01 X-9.2056 Y-1.1797
G01 X-9.1040 Y-1.1433
G01 X-9.0064 Y-1.0972
G01 X-8.9138 Y-1.0417
G01 X-8.8271 Y-0.9774
G01 X-8.7471 Y-0.9049
G01 X-8.6746 Y-0.8249
G01 X-8.6103 Y-0.7382
G01 X-8.5548 Y-0.6456
G01 X-8.5087 Y-0.5480
G01 X-8.4723 Y-0.4464
G01 X-8.4461 Y-0.3417
G01 X-8.4302 Y-0.2349
G01 X-8.4249 Y-0.1271
G01 X-8.4249 Y12.1750
G00 X-8.4249 Y12.1750
G01 F60.00
G01 Z-1.8000
G01 F120.00
G01 X-8.4249 Y-0.1271
G01 X-8.4302 Y-0.2349
G01 X-8.4461 Y-0.3417
G01 X-8.4723 Y-0.4464
G01 X-8.5087 Y-0.5480
G01 X-8.5548 Y-0.6456
G01 X-8.6103 Y-0.7382
G01 X-8.6746 Y-0.8249
G01 X-8.7471 Y-0.9049
G01 X-8.8271 Y-0.9774
G01 X-8.9138 Y-1.0417
G01 X-9.0064 Y-1.0972
G01 X-9.1040 Y-1.1433
G01 X-9.2056 Y-1.1797
G01 X-9.3103 Y-1.2059
G01 X-9.4171 Y-1.2218
G01 X-9.5249 Y-1.2271
G01 X-71.2271 Y-1.2271
G01 X-71.3349 Y-1.2218
G01 X-71.4417 Y-1.2059
G01 X-71.5464 Y-1.1797
G01 X-71.6480 Y-1.1433
G01 X-71.7456 Y-1.0972
G01 X-71.8382 Y-1.0417
G01 X-71.9249 Y-0.9774
G01 X-72.0049 Y-0.9049
G01 X-72.0774 Y-0.8249
G01 X-72.1417 Y-0.7382
G01 X-72.1972 Y-0.6456
G01 X-72.2433 Y-0.5480
G01 X-72.2797 Y-0.4464
G01 X-72.3059 Y-0.3417
G01 X-72.3218 Y-0.2349
G01 X-72.3271 Y-0.1271
G01 X-72.3271 Y12.1750
G00 Z2.0000
G00 X-72.3271 Y18.1750
G01 F60.00
G01 Z-0.6000
G01 F120.00
G01 X-72.3271 Y30.2771
G01 X-72.3218 Y30.3849
G01 X-72.3059 Y30.4917
G01 X-72.2797 Y30.5964
G01 X-72.2433 Y30.6980
G01 X-72.1972 Y30.7956
G01 X-72.1417 Y30.8882
G01 X-72.0774 Y30.9749
G01 X-72.0049 Y31.0549
G01 X-71.9249 Y31.1274
G01 X-71.8382 Y31.1917
G01 X-71.7456 Y31.2472
G01 X-71.6480 Y31.2933
G01 X-71.5464 Y31.3297
G01 X-71.4417 Y31.3559
G01 X-71.3349 Y31.3718
G01 X-71.2271 Y31.3771
G01 X-9.5249 Y31.3771
G01 X-9.4171 Y31.3718
G01 X-9.3103 Y31.3559
G01 X-9.2056 Y31.3297
G01 X-9.1040 Y31.2933
G01 X-9.0064 Y31.2472
G01 X-8.9138 Y31.1917
G01 X-8.8271 Y31.1274
G01 X-8.7471 Y31.0549
G01 X-8.6746 Y30.9749
G01 X-8.6103 Y30.8882
G01 X-8.5548 Y30.7956
G01 X-8.5087 Y30.6980
G01 X-8.4723 Y30.5964
G01 X-8.4461 Y30.4917
G01 X-8.4302 Y30.3849
G01 X-8.4249 Y30.2771
G01 X-8.4249 Y18.1750
G00 X-8.4249 Y18.1750
G01 F60.00
G01 Z-1.2000
G01 F120.00
G01 X-8.4249 Y30.2771
G01 X-8.4302 Y30.3849
G01 X-8.4461 Y30.4917
G01 X-8.4723 Y30.5964
G01 X-8.5087 Y30.6980
G01 X-8.5548 Y30.7956
G01 X-8.6103 Y30.8882
G01 X-8.6746 Y30.9749
G01 X-8.7471 Y31.0549
G01 X-8.8271 Y31.1274
G01 X-8.9138 Y31.1917
G01 X-9.0064 Y31.2472
G01 X-9.1040 Y31.2933
G01 X-9.2056 Y31.3297
G01 X-9.3103 Y31.3559
G01 X-9.4171 Y31.3718
G01 X-9.5249 Y31.3771
G01 X-71.2271 Y31.3771
G01 X-71.3349 Y31.3718
G01 X-71.4417 Y31.3559
G01 X-71.5464 Y31.3297
G01 X-71.6480 Y31.2933
G01 X-71.7456 Y31.2472
G01 X-71.8382 Y31.1917
G01 X-71.9249 Y31.1274
G01 X-72.0049 Y31.0549
G01 X-72.0774 Y30.9749
G01 X-72.1417 Y30.8882
G01 X-72.1972 Y30.7956
G01 X-72.2433 Y30.6980
G01 X-72.2797 Y30.5964
G01 X-72.3059 Y30.4917
G01 X-72.3218 Y30.3849
G01 X-72.3271 Y30.2771
G01 X-72.3271 Y18.1750
G00 X-72.3271 Y18.1750
G01 F60.00
G01 Z-1.8000
G01 F120.00
G01 X-72.3271 Y30.2771
G01 X-72.3218 Y30.3849
G01 X-72.3059 Y30.4917
G01 X-72.2797 Y30.5964
G01 X-72.2433 Y30.6980
G01 X-72.1972 Y30.7956
G01 X-72.1417 Y30.8882
G01 X-72.0774 Y30.9749
G01 X-72.0049 Y31.0549
G01 X-71.9249 Y31.1274
G01 X-71.8382 Y31.1917
G01 X-71.7456 Y31.2472
G01 X-71.6480 Y31.2933
G01 X-71.5464 Y31.3297
G01 X-71.4417 Y31.3559
G01 X-71.3349 Y31.3718
G01 X-71.2271 Y31.3771
G01 X-9.5249 Y31.3771
G01 X-9.4171 Y31.3718
G01 X-9.3103 Y31.3559
G01 X-9.2056 Y31.3297
G01 X-9.1040 Y31.2933
G01 X-9.0064 Y31.2472
G01 X-8.9138 Y31.1917
G01 X-8.8271 Y31.1274
G01 X-8.7471 Y31.0549
G01 X-8.6746 Y30.9749
G01 X-8.6103 Y30.8882
G01 X-8.5548 Y30.7956
G01 X-8.5087 Y30.6980
G01 X-8.4723 Y30.5964
G01 X-8.4461 Y30.4917
G01 X-8.4302 Y30.3849
G01 X-8.4249 Y30.2771
G01 X-8.4249 Y18.1750
G00 Z2.0000
M05
G00 Z2.0000
G00 Z15.00


