(G-CODE GENERATED BY FLATCAM v8.994 - www.flatcam.org - Version Date: 2020/11/7)

(Name: profile.gbr_cutout_cnc)
(Type: G-code from Geometry)
(Units: MM)

(Created on Sunday, 30 January 2022 at 03:27)

(This preprocessor is the default preprocessor used by FlatCAM.)
(It is made to work with MACH3 compatible motion controllers.)

(TOOL DIAMETER: 2.0 mm)
(Feedrate_XY: 120.0 mm/min)
(Feedrate_Z: 60.0 mm/min)
(Feedrate rapids 1500.0 mm/min)

(Z_Cut: -1.8 mm)
(DepthPerCut: 0.6 mm <=>3 passes)
(Z_Move: 2.0 mm)
(Z Start: None mm)
(Z End: 15.0 mm)
(X,Y End: None mm)
(Steps per circle: 64)
(Preprocessor Geometry: default)

(X range:  -58.3771 ...    1.2271  mm)
(Y range:  -11.3871 ...   77.4271  mm)

(Spindle Speed: 0.0 RPM)
G21
G90
G94

G01 F120.00

M5
G00 Z15.0000
G00 X0.0000 Y0.0000
T1
M6    
(MSG, Change to Tool Dia = 2.0000)
M0
G00 Z15.0000

M03
G01 F120.00
G00 X-26.4750 Y-11.3871
G01 F60.00
G01 Z-0.6000
G01 F120.00
G01 X0.1271 Y-11.3871
G01 X0.2349 Y-11.3818
G01 X0.3417 Y-11.3659
G01 X0.4464 Y-11.3397
G01 X0.5480 Y-11.3033
G01 X0.6456 Y-11.2572
G01 X0.7382 Y-11.2017
G01 X0.8249 Y-11.1374
G01 X0.9049 Y-11.0649
G01 X0.9774 Y-10.9849
G01 X1.0417 Y-10.8982
G01 X1.0972 Y-10.8056
G01 X1.1433 Y-10.7080
G01 X1.1797 Y-10.6064
G01 X1.2059 Y-10.5017
G01 X1.2218 Y-10.3949
G01 X1.2271 Y-10.2871
G01 X1.2271 Y76.3271
G01 X1.2218 Y76.4349
G01 X1.2059 Y76.5417
G01 X1.1797 Y76.6464
G01 X1.1433 Y76.7480
G01 X1.0972 Y76.8456
G01 X1.0417 Y76.9382
G01 X0.9774 Y77.0249
G01 X0.9049 Y77.1049
G01 X0.8249 Y77.1774
G01 X0.7382 Y77.2417
G01 X0.6456 Y77.2972
G01 X0.5480 Y77.3433
G01 X0.4464 Y77.3797
G01 X0.3417 Y77.4059
G01 X0.2349 Y77.4218
G01 X0.1271 Y77.4271
G01 X-26.4750 Y77.4271
G00 X-26.4750 Y77.4271
G01 F60.00
G01 Z-1.2000
G01 F120.00
G01 X0.1271 Y77.4271
G01 X0.2349 Y77.4218
G01 X0.3417 Y77.4059
G01 X0.4464 Y77.3797
G01 X0.5480 Y77.3433
G01 X0.6456 Y77.2972
G01 X0.7382 Y77.2417
G01 X0.8249 Y77.1774
G01 X0.9049 Y77.1049
G01 X0.9774 Y77.0249
G01 X1.0417 Y76.9382
G01 X1.0972 Y76.8456
G01 X1.1433 Y76.7480
G01 X1.1797 Y76.6464
G01 X1.2059 Y76.5417
G01 X1.2218 Y76.4349
G01 X1.2271 Y76.3271
G01 X1.2271 Y-10.2871
G01 X1.2218 Y-10.3949
G01 X1.2059 Y-10.5017
G01 X1.1797 Y-10.6064
G01 X1.1433 Y-10.7080
G01 X1.0972 Y-10.8056
G01 X1.0417 Y-10.8982
G01 X0.9774 Y-10.9849
G01 X0.9049 Y-11.0649
G01 X0.8249 Y-11.1374
G01 X0.7382 Y-11.2017
G01 X0.6456 Y-11.2572
G01 X0.5480 Y-11.3033
G01 X0.4464 Y-11.3397
G01 X0.3417 Y-11.3659
G01 X0.2349 Y-11.3818
G01 X0.1271 Y-11.3871
G01 X-26.4750 Y-11.3871
G00 X-26.4750 Y-11.3871
G01 F60.00
G01 Z-1.8000
G01 F120.00
G01 X0.1271 Y-11.3871
G01 X0.2349 Y-11.3818
G01 X0.3417 Y-11.3659
G01 X0.4464 Y-11.3397
G01 X0.5480 Y-11.3033
G01 X0.6456 Y-11.2572
G01 X0.7382 Y-11.2017
G01 X0.8249 Y-11.1374
G01 X0.9049 Y-11.0649
G01 X0.9774 Y-10.9849
G01 X1.0417 Y-10.8982
G01 X1.0972 Y-10.8056
G01 X1.1433 Y-10.7080
G01 X1.1797 Y-10.6064
G01 X1.2059 Y-10.5017
G01 X1.2218 Y-10.3949
G01 X1.2271 Y-10.2871
G01 X1.2271 Y76.3271
G01 X1.2218 Y76.4349
G01 X1.2059 Y76.5417
G01 X1.1797 Y76.6464
G01 X1.1433 Y76.7480
G01 X1.0972 Y76.8456
G01 X1.0417 Y76.9382
G01 X0.9774 Y77.0249
G01 X0.9049 Y77.1049
G01 X0.8249 Y77.1774
G01 X0.7382 Y77.2417
G01 X0.6456 Y77.2972
G01 X0.5480 Y77.3433
G01 X0.4464 Y77.3797
G01 X0.3417 Y77.4059
G01 X0.2349 Y77.4218
G01 X0.1271 Y77.4271
G01 X-26.4750 Y77.4271
G00 Z2.0000
G00 X-30.4750 Y-11.3871
G01 F60.00
G01 Z-0.6000
G01 F120.00
G01 X-57.2771 Y-11.3871
G01 X-57.3849 Y-11.3818
G01 X-57.4917 Y-11.3659
G01 X-57.5964 Y-11.3397
G01 X-57.6980 Y-11.3033
G01 X-57.7956 Y-11.2572
G01 X-57.8882 Y-11.2017
G01 X-57.9749 Y-11.1374
G01 X-58.0549 Y-11.0649
G01 X-58.1274 Y-10.9849
G01 X-58.1917 Y-10.8982
G01 X-58.2472 Y-10.8056
G01 X-58.2933 Y-10.7080
G01 X-58.3297 Y-10.6064
G01 X-58.3559 Y-10.5017
G01 X-58.3718 Y-10.3949
G01 X-58.3771 Y-10.2871
G01 X-58.3771 Y76.3271
G01 X-58.3718 Y76.4349
G01 X-58.3559 Y76.5417
G01 X-58.3297 Y76.6464
G01 X-58.2933 Y76.7480
G01 X-58.2472 Y76.8456
G01 X-58.1917 Y76.9382
G01 X-58.1274 Y77.0249
G01 X-58.0549 Y77.1049
G01 X-57.9749 Y77.1774
G01 X-57.8882 Y77.2417
G01 X-57.7956 Y77.2972
G01 X-57.6980 Y77.3433
G01 X-57.5964 Y77.3797
G01 X-57.4917 Y77.4059
G01 X-57.3849 Y77.4218
G01 X-57.2771 Y77.4271
G01 X-30.4750 Y77.4271
G00 X-30.4750 Y77.4271
G01 F60.00
G01 Z-1.2000
G01 F120.00
G01 X-57.2771 Y77.4271
G01 X-57.3849 Y77.4218
G01 X-57.4917 Y77.4059
G01 X-57.5964 Y77.3797
G01 X-57.6980 Y77.3433
G01 X-57.7956 Y77.2972
G01 X-57.8882 Y77.2417
G01 X-57.9749 Y77.1774
G01 X-58.0549 Y77.1049
G01 X-58.1274 Y77.0249
G01 X-58.1917 Y76.9382
G01 X-58.2472 Y76.8456
G01 X-58.2933 Y76.7480
G01 X-58.3297 Y76.6464
G01 X-58.3559 Y76.5417
G01 X-58.3718 Y76.4349
G01 X-58.3771 Y76.3271
G01 X-58.3771 Y-10.2871
G01 X-58.3718 Y-10.3949
G01 X-58.3559 Y-10.5017
G01 X-58.3297 Y-10.6064
G01 X-58.2933 Y-10.7080
G01 X-58.2472 Y-10.8056
G01 X-58.1917 Y-10.8982
G01 X-58.1274 Y-10.9849
G01 X-58.0549 Y-11.0649
G01 X-57.9749 Y-11.1374
G01 X-57.8882 Y-11.2017
G01 X-57.7956 Y-11.2572
G01 X-57.6980 Y-11.3033
G01 X-57.5964 Y-11.3397
G01 X-57.4917 Y-11.3659
G01 X-57.3849 Y-11.3818
G01 X-57.2771 Y-11.3871
G01 X-30.4750 Y-11.3871
G00 X-30.4750 Y-11.3871
G01 F60.00
G01 Z-1.8000
G01 F120.00
G01 X-57.2771 Y-11.3871
G01 X-57.3849 Y-11.3818
G01 X-57.4917 Y-11.3659
G01 X-57.5964 Y-11.3397
G01 X-57.6980 Y-11.3033
G01 X-57.7956 Y-11.2572
G01 X-57.8882 Y-11.2017
G01 X-57.9749 Y-11.1374
G01 X-58.0549 Y-11.0649
G01 X-58.1274 Y-10.9849
G01 X-58.1917 Y-10.8982
G01 X-58.2472 Y-10.8056
G01 X-58.2933 Y-10.7080
G01 X-58.3297 Y-10.6064
G01 X-58.3559 Y-10.5017
G01 X-58.3718 Y-10.3949
G01 X-58.3771 Y-10.2871
G01 X-58.3771 Y76.3271
G01 X-58.3718 Y76.4349
G01 X-58.3559 Y76.5417
G01 X-58.3297 Y76.6464
G01 X-58.2933 Y76.7480
G01 X-58.2472 Y76.8456
G01 X-58.1917 Y76.9382
G01 X-58.1274 Y77.0249
G01 X-58.0549 Y77.1049
G01 X-57.9749 Y77.1774
G01 X-57.8882 Y77.2417
G01 X-57.7956 Y77.2972
G01 X-57.6980 Y77.3433
G01 X-57.5964 Y77.3797
G01 X-57.4917 Y77.4059
G01 X-57.3849 Y77.4218
G01 X-57.2771 Y77.4271
G01 X-30.4750 Y77.4271
G00 Z2.0000
M05
G00 Z2.0000
G00 Z15.00


